( pcb2gcode 2.5.0 )
( Software-independent Gcode )

G94 ( Millimeters per minute feed rate. )
G21 ( Units == Millimeters. )

G90 ( Absolute coordinates. )
G00 S4700 ( RPM spindle speed. )
G01 F100.00000 ( Feedrate. )


G00 Z2.00000 (Retract to tool change height)
T0
M5      (Spindle stop.)
G04 P1.00000 (Wait for spindle to stop)
(MSG, Change tool bit to mill diameter 0.20000mm)
M0      (Temporary machine stop.)
M3 ( Spindle on clockwise. )
G04 P1.00000 (Wait for spindle to get up to speed)
G04 P0 ( dwell for no time -- G64 should not smooth over this point )
G00 Z2.00000 ( retract )

G00 X-6.04998 Y-12.29998 ( rapid move to begin. )
G01 F50.00000
( Mill infeed pass 1/7 )
G01 Z-0.10000
G04 P0 ( dwell for no time -- G64 should not smooth over this point )
G01 F100.00000
G01 X-6.04998 Y-12.29998
G01 X-6.09041 Y-12.68463
G01 X-6.20619 Y-13.04267
G01 X-6.40989 Y-13.39553
G01 X-6.66209 Y-13.67480
G01 X-6.97499 Y-13.90213
G01 X-7.32831 Y-14.05943
G01 X-7.70661 Y-14.13985
G01 X-8.09335 Y-14.13985
G01 X-8.47166 Y-14.05943
G01 X-8.82498 Y-13.90213
G01 X-9.12975 Y-13.68138
G01 X-9.16099 Y-13.64996
G01 X-17.70977 Y-13.64948
G01 X-17.95363 Y-13.62547
G01 X-18.20735 Y-13.55049
G01 X-18.45000 Y-13.42245
G01 X-18.65457 Y-13.25456
G01 X-19.55917 Y-12.34996
G01 X-23.73899 Y-12.34996
G01 X-23.77023 Y-12.38138
G01 X-24.07498 Y-12.60213
G01 X-24.43841 Y-12.76215
G01 X-24.80661 Y-12.83985
G01 X-25.18291 Y-12.84041
G01 X-25.57168 Y-12.75944
G01 X-25.93376 Y-12.59644
G01 X-26.23787 Y-12.37480
G01 X-26.49667 Y-12.08738
G01 X-26.69004 Y-11.75245
G01 X-26.80686 Y-11.39474
G01 X-26.84945 Y-10.98954
G01 X-26.80957 Y-10.61535
G01 X-26.69004 Y-10.24753
G01 X-26.49667 Y-9.91258
G01 X-26.23787 Y-9.62518
G01 X-25.92499 Y-9.39785
G01 X-25.57168 Y-9.24055
G01 X-25.19337 Y-9.16013
G01 X-24.80661 Y-9.16013
G01 X-24.42830 Y-9.24055
G01 X-24.08431 Y-9.39310
G01 X-23.77023 Y-9.61857
G01 X-23.73904 Y-9.64997
G01 X-18.99999 Y-9.64997
G01 X-18.73661 Y-9.67590
G01 X-18.47449 Y-9.75693
G01 X-18.24208 Y-9.88332
G01 X-18.04538 Y-10.04537
G01 X-17.14078 Y-10.94997
G01 X-9.16094 Y-10.94997
G01 X-9.12975 Y-10.91857
G01 X-8.82498 Y-10.69784
G01 X-8.47166 Y-10.54054
G01 X-8.09335 Y-10.46013
G01 X-7.69628 Y-10.46175
G01 X-7.32831 Y-10.54054
G01 X-6.97499 Y-10.69784
G01 X-6.66209 Y-10.92517
G01 X-6.40989 Y-11.20445
G01 X-6.20619 Y-11.55730
G01 X-6.09041 Y-11.91534
G01 X-6.04998 Y-12.29998
( Mill infeed pass 2/7 )
G01 Z-0.20000
G04 P0 ( dwell for no time -- G64 should not smooth over this point )
G01 F100.00000
G01 X-6.04998 Y-12.29998
G01 X-6.09041 Y-12.68463
G01 X-6.20619 Y-13.04267
G01 X-6.40989 Y-13.39553
G01 X-6.66209 Y-13.67480
G01 X-6.97499 Y-13.90213
G01 X-7.32831 Y-14.05943
G01 X-7.70661 Y-14.13985
G01 X-8.09335 Y-14.13985
G01 X-8.47166 Y-14.05943
G01 X-8.82498 Y-13.90213
G01 X-9.12975 Y-13.68138
G01 X-9.16099 Y-13.64996
G01 X-17.70977 Y-13.64948
G01 X-17.95363 Y-13.62547
G01 X-18.20735 Y-13.55049
G01 X-18.45000 Y-13.42245
G01 X-18.65457 Y-13.25456
G01 X-19.55917 Y-12.34996
G01 X-23.73899 Y-12.34996
G01 X-23.77023 Y-12.38138
G01 X-24.07498 Y-12.60213
G01 X-24.43841 Y-12.76215
G01 X-24.80661 Y-12.83985
G01 X-25.18291 Y-12.84041
G01 X-25.57168 Y-12.75944
G01 X-25.93376 Y-12.59644
G01 X-26.23787 Y-12.37480
G01 X-26.49667 Y-12.08738
G01 X-26.69004 Y-11.75245
G01 X-26.80686 Y-11.39474
G01 X-26.84945 Y-10.98954
G01 X-26.80957 Y-10.61535
G01 X-26.69004 Y-10.24753
G01 X-26.49667 Y-9.91258
G01 X-26.23787 Y-9.62518
G01 X-25.92499 Y-9.39785
G01 X-25.57168 Y-9.24055
G01 X-25.19337 Y-9.16013
G01 X-24.80661 Y-9.16013
G01 X-24.42830 Y-9.24055
G01 X-24.08431 Y-9.39310
G01 X-23.77023 Y-9.61857
G01 X-23.73904 Y-9.64997
G01 X-18.99999 Y-9.64997
G01 X-18.73661 Y-9.67590
G01 X-18.47449 Y-9.75693
G01 X-18.24208 Y-9.88332
G01 X-18.04538 Y-10.04537
G01 X-17.14078 Y-10.94997
G01 X-9.16094 Y-10.94997
G01 X-9.12975 Y-10.91857
G01 X-8.82498 Y-10.69784
G01 X-8.47166 Y-10.54054
G01 X-8.09335 Y-10.46013
G01 X-7.69628 Y-10.46175
G01 X-7.32831 Y-10.54054
G01 X-6.97499 Y-10.69784
G01 X-6.66209 Y-10.92517
G01 X-6.40989 Y-11.20445
G01 X-6.20619 Y-11.55730
G01 X-6.09041 Y-11.91534
G01 X-6.04998 Y-12.29998
( Mill infeed pass 3/7 )
G01 Z-0.30000
G04 P0 ( dwell for no time -- G64 should not smooth over this point )
G01 F100.00000
G01 X-6.04998 Y-12.29998
G01 X-6.09041 Y-12.68463
G01 X-6.20619 Y-13.04267
G01 X-6.40989 Y-13.39553
G01 X-6.66209 Y-13.67480
G01 X-6.97499 Y-13.90213
G01 X-7.32831 Y-14.05943
G01 X-7.70661 Y-14.13985
G01 X-8.09335 Y-14.13985
G01 X-8.47166 Y-14.05943
G01 X-8.82498 Y-13.90213
G01 X-9.12975 Y-13.68138
G01 X-9.16099 Y-13.64996
G01 X-17.70977 Y-13.64948
G01 X-17.95363 Y-13.62547
G01 X-18.20735 Y-13.55049
G01 X-18.45000 Y-13.42245
G01 X-18.65457 Y-13.25456
G01 X-19.55917 Y-12.34996
G01 X-23.73899 Y-12.34996
G01 X-23.77023 Y-12.38138
G01 X-24.07498 Y-12.60213
G01 X-24.43841 Y-12.76215
G01 X-24.80661 Y-12.83985
G01 X-25.18291 Y-12.84041
G01 X-25.57168 Y-12.75944
G01 X-25.93376 Y-12.59644
G01 X-26.23787 Y-12.37480
G01 X-26.49667 Y-12.08738
G01 X-26.69004 Y-11.75245
G01 X-26.80686 Y-11.39474
G01 X-26.84945 Y-10.98954
G01 X-26.80957 Y-10.61535
G01 X-26.69004 Y-10.24753
G01 X-26.49667 Y-9.91258
G01 X-26.23787 Y-9.62518
G01 X-25.92499 Y-9.39785
G01 X-25.57168 Y-9.24055
G01 X-25.19337 Y-9.16013
G01 X-24.80661 Y-9.16013
G01 X-24.42830 Y-9.24055
G01 X-24.08431 Y-9.39310
G01 X-23.77023 Y-9.61857
G01 X-23.73904 Y-9.64997
G01 X-18.99999 Y-9.64997
G01 X-18.73661 Y-9.67590
G01 X-18.47449 Y-9.75693
G01 X-18.24208 Y-9.88332
G01 X-18.04538 Y-10.04537
G01 X-17.14078 Y-10.94997
G01 X-9.16094 Y-10.94997
G01 X-9.12975 Y-10.91857
G01 X-8.82498 Y-10.69784
G01 X-8.47166 Y-10.54054
G01 X-8.09335 Y-10.46013
G01 X-7.69628 Y-10.46175
G01 X-7.32831 Y-10.54054
G01 X-6.97499 Y-10.69784
G01 X-6.66209 Y-10.92517
G01 X-6.40989 Y-11.20445
G01 X-6.20619 Y-11.55730
G01 X-6.09041 Y-11.91534
G01 X-6.04998 Y-12.29998
( Mill infeed pass 4/7 )
G01 Z-0.40000
G04 P0 ( dwell for no time -- G64 should not smooth over this point )
G01 F100.00000
G01 X-6.04998 Y-12.29998
G01 X-6.09041 Y-12.68463
G01 X-6.20619 Y-13.04267
G01 X-6.40989 Y-13.39553
G01 X-6.66209 Y-13.67480
G01 X-6.97499 Y-13.90213
G01 X-7.32831 Y-14.05943
G01 X-7.70661 Y-14.13985
G01 X-8.09335 Y-14.13985
G01 X-8.47166 Y-14.05943
G01 X-8.82498 Y-13.90213
G01 X-9.12975 Y-13.68138
G01 X-9.16099 Y-13.64996
G01 X-17.70977 Y-13.64948
G01 X-17.95363 Y-13.62547
G01 X-18.20735 Y-13.55049
G01 X-18.45000 Y-13.42245
G01 X-18.65457 Y-13.25456
G01 X-19.55917 Y-12.34996
G01 X-23.73899 Y-12.34996
G01 X-23.77023 Y-12.38138
G01 X-24.07498 Y-12.60213
G01 X-24.43841 Y-12.76215
G01 X-24.80661 Y-12.83985
G01 X-25.18291 Y-12.84041
G01 X-25.57168 Y-12.75944
G01 X-25.93376 Y-12.59644
G01 X-26.23787 Y-12.37480
G01 X-26.49667 Y-12.08738
G01 X-26.69004 Y-11.75245
G01 X-26.80686 Y-11.39474
G01 X-26.84945 Y-10.98954
G01 X-26.80957 Y-10.61535
G01 X-26.69004 Y-10.24753
G01 X-26.49667 Y-9.91258
G01 X-26.23787 Y-9.62518
G01 X-25.92499 Y-9.39785
G01 X-25.57168 Y-9.24055
G01 X-25.19337 Y-9.16013
G01 X-24.80661 Y-9.16013
G01 X-24.42830 Y-9.24055
G01 X-24.08431 Y-9.39310
G01 X-23.77023 Y-9.61857
G01 X-23.73904 Y-9.64997
G01 X-18.99999 Y-9.64997
G01 X-18.73661 Y-9.67590
G01 X-18.47449 Y-9.75693
G01 X-18.24208 Y-9.88332
G01 X-18.04538 Y-10.04537
G01 X-17.14078 Y-10.94997
G01 X-9.16094 Y-10.94997
G01 X-9.12975 Y-10.91857
G01 X-8.82498 Y-10.69784
G01 X-8.47166 Y-10.54054
G01 X-8.09335 Y-10.46013
G01 X-7.69628 Y-10.46175
G01 X-7.32831 Y-10.54054
G01 X-6.97499 Y-10.69784
G01 X-6.66209 Y-10.92517
G01 X-6.40989 Y-11.20445
G01 X-6.20619 Y-11.55730
G01 X-6.09041 Y-11.91534
G01 X-6.04998 Y-12.29998
( Mill infeed pass 5/7 )
G01 Z-0.50000
G04 P0 ( dwell for no time -- G64 should not smooth over this point )
G01 F100.00000
G01 X-6.04998 Y-12.29998
G01 X-6.09041 Y-12.68463
G01 X-6.20619 Y-13.04267
G01 X-6.40989 Y-13.39553
G01 X-6.66209 Y-13.67480
G01 X-6.97499 Y-13.90213
G01 X-7.32831 Y-14.05943
G01 X-7.70661 Y-14.13985
G01 X-8.09335 Y-14.13985
G01 X-8.47166 Y-14.05943
G01 X-8.82498 Y-13.90213
G01 X-9.12975 Y-13.68138
G01 X-9.16099 Y-13.64996
G01 X-17.70977 Y-13.64948
G01 X-17.95363 Y-13.62547
G01 X-18.20735 Y-13.55049
G01 X-18.45000 Y-13.42245
G01 X-18.65457 Y-13.25456
G01 X-19.55917 Y-12.34996
G01 X-23.73899 Y-12.34996
G01 X-23.77023 Y-12.38138
G01 X-24.07498 Y-12.60213
G01 X-24.43841 Y-12.76215
G01 X-24.80661 Y-12.83985
G01 X-25.18291 Y-12.84041
G01 X-25.57168 Y-12.75944
G01 X-25.93376 Y-12.59644
G01 X-26.23787 Y-12.37480
G01 X-26.49667 Y-12.08738
G01 X-26.69004 Y-11.75245
G01 X-26.80686 Y-11.39474
G01 X-26.84945 Y-10.98954
G01 X-26.80957 Y-10.61535
G01 X-26.69004 Y-10.24753
G01 X-26.49667 Y-9.91258
G01 X-26.23787 Y-9.62518
G01 X-25.92499 Y-9.39785
G01 X-25.57168 Y-9.24055
G01 X-25.19337 Y-9.16013
G01 X-24.80661 Y-9.16013
G01 X-24.42830 Y-9.24055
G01 X-24.08431 Y-9.39310
G01 X-23.77023 Y-9.61857
G01 X-23.73904 Y-9.64997
G01 X-18.99999 Y-9.64997
G01 X-18.73661 Y-9.67590
G01 X-18.47449 Y-9.75693
G01 X-18.24208 Y-9.88332
G01 X-18.04538 Y-10.04537
G01 X-17.14078 Y-10.94997
G01 X-9.16094 Y-10.94997
G01 X-9.12975 Y-10.91857
G01 X-8.82498 Y-10.69784
G01 X-8.47166 Y-10.54054
G01 X-8.09335 Y-10.46013
G01 X-7.69628 Y-10.46175
G01 X-7.32831 Y-10.54054
G01 X-6.97499 Y-10.69784
G01 X-6.66209 Y-10.92517
G01 X-6.40989 Y-11.20445
G01 X-6.20619 Y-11.55730
G01 X-6.09041 Y-11.91534
G01 X-6.04998 Y-12.29998
( Mill infeed pass 6/7 )
G01 Z-0.60000
G04 P0 ( dwell for no time -- G64 should not smooth over this point )
G01 F100.00000
G01 X-6.04998 Y-12.29998
G01 X-6.09041 Y-12.68463
G01 X-6.20619 Y-13.04267
G01 X-6.40989 Y-13.39553
G01 X-6.66209 Y-13.67480
G01 X-6.97499 Y-13.90213
G01 X-7.32831 Y-14.05943
G01 X-7.70661 Y-14.13985
G01 X-8.09335 Y-14.13985
G01 X-8.47166 Y-14.05943
G01 X-8.82498 Y-13.90213
G01 X-9.12975 Y-13.68138
G01 X-9.16099 Y-13.64996
G01 X-17.70977 Y-13.64948
G01 X-17.95363 Y-13.62547
G01 X-18.20735 Y-13.55049
G01 X-18.45000 Y-13.42245
G01 X-18.65457 Y-13.25456
G01 X-19.55917 Y-12.34996
G01 X-23.73899 Y-12.34996
G01 X-23.77023 Y-12.38138
G01 X-24.07498 Y-12.60213
G01 X-24.43841 Y-12.76215
G01 X-24.80661 Y-12.83985
G01 X-25.18291 Y-12.84041
G01 X-25.57168 Y-12.75944
G01 X-25.93376 Y-12.59644
G01 X-26.23787 Y-12.37480
G01 X-26.49667 Y-12.08738
G01 X-26.69004 Y-11.75245
G01 X-26.80686 Y-11.39474
G01 X-26.84945 Y-10.98954
G01 X-26.80957 Y-10.61535
G01 X-26.69004 Y-10.24753
G01 X-26.49667 Y-9.91258
G01 X-26.23787 Y-9.62518
G01 X-25.92499 Y-9.39785
G01 X-25.57168 Y-9.24055
G01 X-25.19337 Y-9.16013
G01 X-24.80661 Y-9.16013
G01 X-24.42830 Y-9.24055
G01 X-24.08431 Y-9.39310
G01 X-23.77023 Y-9.61857
G01 X-23.73904 Y-9.64997
G01 X-18.99999 Y-9.64997
G01 X-18.73661 Y-9.67590
G01 X-18.47449 Y-9.75693
G01 X-18.24208 Y-9.88332
G01 X-18.04538 Y-10.04537
G01 X-17.14078 Y-10.94997
G01 X-9.16094 Y-10.94997
G01 X-9.12975 Y-10.91857
G01 X-8.82498 Y-10.69784
G01 X-8.47166 Y-10.54054
G01 X-8.09335 Y-10.46013
G01 X-7.69628 Y-10.46175
G01 X-7.32831 Y-10.54054
G01 X-6.97499 Y-10.69784
G01 X-6.66209 Y-10.92517
G01 X-6.40989 Y-11.20445
G01 X-6.20619 Y-11.55730
G01 X-6.09041 Y-11.91534
G01 X-6.04998 Y-12.29998
( Mill infeed pass 7/7 )
G01 Z-0.70000
G04 P0 ( dwell for no time -- G64 should not smooth over this point )
G01 F100.00000
G01 X-6.04998 Y-12.29998
G01 X-6.09041 Y-12.68463
G01 X-6.20619 Y-13.04267
G01 X-6.40989 Y-13.39553
G01 X-6.66209 Y-13.67480
G01 X-6.97499 Y-13.90213
G01 X-7.32831 Y-14.05943
G01 X-7.70661 Y-14.13985
G01 X-8.09335 Y-14.13985
G01 X-8.47166 Y-14.05943
G01 X-8.82498 Y-13.90213
G01 X-9.12975 Y-13.68138
G01 X-9.16099 Y-13.64996
G01 X-17.70977 Y-13.64948
G01 X-17.95363 Y-13.62547
G01 X-18.20735 Y-13.55049
G01 X-18.45000 Y-13.42245
G01 X-18.65457 Y-13.25456
G01 X-19.55917 Y-12.34996
G01 X-23.73899 Y-12.34996
G01 X-23.77023 Y-12.38138
G01 X-24.07498 Y-12.60213
G01 X-24.43841 Y-12.76215
G01 X-24.80661 Y-12.83985
G01 X-25.18291 Y-12.84041
G01 X-25.57168 Y-12.75944
G01 X-25.93376 Y-12.59644
G01 X-26.23787 Y-12.37480
G01 X-26.49667 Y-12.08738
G01 X-26.69004 Y-11.75245
G01 X-26.80686 Y-11.39474
G01 X-26.84945 Y-10.98954
G01 X-26.80957 Y-10.61535
G01 X-26.69004 Y-10.24753
G01 X-26.49667 Y-9.91258
G01 X-26.23787 Y-9.62518
G01 X-25.92499 Y-9.39785
G01 X-25.57168 Y-9.24055
G01 X-25.19337 Y-9.16013
G01 X-24.80661 Y-9.16013
G01 X-24.42830 Y-9.24055
G01 X-24.08431 Y-9.39310
G01 X-23.77023 Y-9.61857
G01 X-23.73904 Y-9.64997
G01 X-18.99999 Y-9.64997
G01 X-18.73661 Y-9.67590
G01 X-18.47449 Y-9.75693
G01 X-18.24208 Y-9.88332
G01 X-18.04538 Y-10.04537
G01 X-17.14078 Y-10.94997
G01 X-9.16094 Y-10.94997
G01 X-9.12975 Y-10.91857
G01 X-8.82498 Y-10.69784
G01 X-8.47166 Y-10.54054
G01 X-8.09335 Y-10.46013
G01 X-7.69628 Y-10.46175
G01 X-7.32831 Y-10.54054
G01 X-6.97499 Y-10.69784
G01 X-6.66209 Y-10.92517
G01 X-6.40989 Y-11.20445
G01 X-6.20619 Y-11.55730
G01 X-6.09041 Y-11.91534
G01 X-6.04998 Y-12.29998
G04 P0 ( dwell for no time -- G64 should not smooth over this point )
G00 Z2.00000 ( retract )

G00 X-6.14997 Y-25.50000 ( rapid move to begin. )
G01 F50.00000
( Mill infeed pass 1/7 )
G01 Z-0.10000
G04 P0 ( dwell for no time -- G64 should not smooth over this point )
G01 F100.00000
G01 X-6.14997 Y-25.50000
G01 X-6.19041 Y-25.88463
G01 X-6.30618 Y-26.24267
G01 X-6.50331 Y-26.58740
G01 X-6.76209 Y-26.87480
G01 X-7.06620 Y-27.09644
G01 X-7.43842 Y-27.26215
G01 X-7.80661 Y-27.33985
G01 X-8.19335 Y-27.33985
G01 X-8.57166 Y-27.25943
G01 X-8.91565 Y-27.10688
G01 X-9.22975 Y-26.88140
G01 X-9.26097 Y-26.84998
G01 X-10.50976 Y-26.84950
G01 X-10.76333 Y-26.82405
G01 X-11.02545 Y-26.74302
G01 X-11.25786 Y-26.61661
G01 X-11.45456 Y-26.45458
G01 X-20.55917 Y-17.34998
G01 X-23.73902 Y-17.34998
G01 X-23.77023 Y-17.38140
G01 X-24.07498 Y-17.60212
G01 X-24.43841 Y-17.76214
G01 X-24.80661 Y-17.83984
G01 X-25.18291 Y-17.84040
G01 X-25.57168 Y-17.75945
G01 X-25.92499 Y-17.60212
G01 X-26.23787 Y-17.37479
G01 X-26.49667 Y-17.08739
G01 X-26.69004 Y-16.75244
G01 X-26.80957 Y-16.38463
G01 X-26.84998 Y-15.99999
G01 X-26.80957 Y-15.61536
G01 X-26.69004 Y-15.24752
G01 X-26.49667 Y-14.91259
G01 X-26.22974 Y-14.61859
G01 X-25.92499 Y-14.39784
G01 X-25.58141 Y-14.24429
G01 X-25.19337 Y-14.16012
G01 X-24.80661 Y-14.16012
G01 X-24.42830 Y-14.24054
G01 X-24.07498 Y-14.39784
G01 X-23.77023 Y-14.61859
G01 X-23.73902 Y-14.64998
G01 X-19.99999 Y-14.64998
G01 X-19.72709 Y-14.67830
G01 X-19.47448 Y-14.75694
G01 X-19.24995 Y-14.87749
G01 X-19.04538 Y-15.04539
G01 X-9.94077 Y-24.14999
G01 X-9.26097 Y-24.14999
G01 X-9.22975 Y-24.11857
G01 X-8.91565 Y-23.89309
G01 X-8.57166 Y-23.74054
G01 X-8.20369 Y-23.66175
G01 X-7.80661 Y-23.66013
G01 X-7.42831 Y-23.74054
G01 X-7.07499 Y-23.89784
G01 X-6.77022 Y-24.11857
G01 X-6.50331 Y-24.41258
G01 X-6.30992 Y-24.74752
G01 X-6.19313 Y-25.10523
G01 X-6.14997 Y-25.50000
( Mill infeed pass 2/7 )
G01 Z-0.20000
G04 P0 ( dwell for no time -- G64 should not smooth over this point )
G01 F100.00000
G01 X-6.14997 Y-25.50000
G01 X-6.19041 Y-25.88463
G01 X-6.30618 Y-26.24267
G01 X-6.50331 Y-26.58740
G01 X-6.76209 Y-26.87480
G01 X-7.06620 Y-27.09644
G01 X-7.43842 Y-27.26215
G01 X-7.80661 Y-27.33985
G01 X-8.19335 Y-27.33985
G01 X-8.57166 Y-27.25943
G01 X-8.91565 Y-27.10688
G01 X-9.22975 Y-26.88140
G01 X-9.26097 Y-26.84998
G01 X-10.50976 Y-26.84950
G01 X-10.76333 Y-26.82405
G01 X-11.02545 Y-26.74302
G01 X-11.25786 Y-26.61661
G01 X-11.45456 Y-26.45458
G01 X-20.55917 Y-17.34998
G01 X-23.73902 Y-17.34998
G01 X-23.77023 Y-17.38140
G01 X-24.07498 Y-17.60212
G01 X-24.43841 Y-17.76214
G01 X-24.80661 Y-17.83984
G01 X-25.18291 Y-17.84040
G01 X-25.57168 Y-17.75945
G01 X-25.92499 Y-17.60212
G01 X-26.23787 Y-17.37479
G01 X-26.49667 Y-17.08739
G01 X-26.69004 Y-16.75244
G01 X-26.80957 Y-16.38463
G01 X-26.84998 Y-15.99999
G01 X-26.80957 Y-15.61536
G01 X-26.69004 Y-15.24752
G01 X-26.49667 Y-14.91259
G01 X-26.22974 Y-14.61859
G01 X-25.92499 Y-14.39784
G01 X-25.58141 Y-14.24429
G01 X-25.19337 Y-14.16012
G01 X-24.80661 Y-14.16012
G01 X-24.42830 Y-14.24054
G01 X-24.07498 Y-14.39784
G01 X-23.77023 Y-14.61859
G01 X-23.73902 Y-14.64998
G01 X-19.99999 Y-14.64998
G01 X-19.72709 Y-14.67830
G01 X-19.47448 Y-14.75694
G01 X-19.24995 Y-14.87749
G01 X-19.04538 Y-15.04539
G01 X-9.94077 Y-24.14999
G01 X-9.26097 Y-24.14999
G01 X-9.22975 Y-24.11857
G01 X-8.91565 Y-23.89309
G01 X-8.57166 Y-23.74054
G01 X-8.20369 Y-23.66175
G01 X-7.80661 Y-23.66013
G01 X-7.42831 Y-23.74054
G01 X-7.07499 Y-23.89784
G01 X-6.77022 Y-24.11857
G01 X-6.50331 Y-24.41258
G01 X-6.30992 Y-24.74752
G01 X-6.19313 Y-25.10523
G01 X-6.14997 Y-25.50000
( Mill infeed pass 3/7 )
G01 Z-0.30000
G04 P0 ( dwell for no time -- G64 should not smooth over this point )
G01 F100.00000
G01 X-6.14997 Y-25.50000
G01 X-6.19041 Y-25.88463
G01 X-6.30618 Y-26.24267
G01 X-6.50331 Y-26.58740
G01 X-6.76209 Y-26.87480
G01 X-7.06620 Y-27.09644
G01 X-7.43842 Y-27.26215
G01 X-7.80661 Y-27.33985
G01 X-8.19335 Y-27.33985
G01 X-8.57166 Y-27.25943
G01 X-8.91565 Y-27.10688
G01 X-9.22975 Y-26.88140
G01 X-9.26097 Y-26.84998
G01 X-10.50976 Y-26.84950
G01 X-10.76333 Y-26.82405
G01 X-11.02545 Y-26.74302
G01 X-11.25786 Y-26.61661
G01 X-11.45456 Y-26.45458
G01 X-20.55917 Y-17.34998
G01 X-23.73902 Y-17.34998
G01 X-23.77023 Y-17.38140
G01 X-24.07498 Y-17.60212
G01 X-24.43841 Y-17.76214
G01 X-24.80661 Y-17.83984
G01 X-25.18291 Y-17.84040
G01 X-25.57168 Y-17.75945
G01 X-25.92499 Y-17.60212
G01 X-26.23787 Y-17.37479
G01 X-26.49667 Y-17.08739
G01 X-26.69004 Y-16.75244
G01 X-26.80957 Y-16.38463
G01 X-26.84998 Y-15.99999
G01 X-26.80957 Y-15.61536
G01 X-26.69004 Y-15.24752
G01 X-26.49667 Y-14.91259
G01 X-26.22974 Y-14.61859
G01 X-25.92499 Y-14.39784
G01 X-25.58141 Y-14.24429
G01 X-25.19337 Y-14.16012
G01 X-24.80661 Y-14.16012
G01 X-24.42830 Y-14.24054
G01 X-24.07498 Y-14.39784
G01 X-23.77023 Y-14.61859
G01 X-23.73902 Y-14.64998
G01 X-19.99999 Y-14.64998
G01 X-19.72709 Y-14.67830
G01 X-19.47448 Y-14.75694
G01 X-19.24995 Y-14.87749
G01 X-19.04538 Y-15.04539
G01 X-9.94077 Y-24.14999
G01 X-9.26097 Y-24.14999
G01 X-9.22975 Y-24.11857
G01 X-8.91565 Y-23.89309
G01 X-8.57166 Y-23.74054
G01 X-8.20369 Y-23.66175
G01 X-7.80661 Y-23.66013
G01 X-7.42831 Y-23.74054
G01 X-7.07499 Y-23.89784
G01 X-6.77022 Y-24.11857
G01 X-6.50331 Y-24.41258
G01 X-6.30992 Y-24.74752
G01 X-6.19313 Y-25.10523
G01 X-6.14997 Y-25.50000
( Mill infeed pass 4/7 )
G01 Z-0.40000
G04 P0 ( dwell for no time -- G64 should not smooth over this point )
G01 F100.00000
G01 X-6.14997 Y-25.50000
G01 X-6.19041 Y-25.88463
G01 X-6.30618 Y-26.24267
G01 X-6.50331 Y-26.58740
G01 X-6.76209 Y-26.87480
G01 X-7.06620 Y-27.09644
G01 X-7.43842 Y-27.26215
G01 X-7.80661 Y-27.33985
G01 X-8.19335 Y-27.33985
G01 X-8.57166 Y-27.25943
G01 X-8.91565 Y-27.10688
G01 X-9.22975 Y-26.88140
G01 X-9.26097 Y-26.84998
G01 X-10.50976 Y-26.84950
G01 X-10.76333 Y-26.82405
G01 X-11.02545 Y-26.74302
G01 X-11.25786 Y-26.61661
G01 X-11.45456 Y-26.45458
G01 X-20.55917 Y-17.34998
G01 X-23.73902 Y-17.34998
G01 X-23.77023 Y-17.38140
G01 X-24.07498 Y-17.60212
G01 X-24.43841 Y-17.76214
G01 X-24.80661 Y-17.83984
G01 X-25.18291 Y-17.84040
G01 X-25.57168 Y-17.75945
G01 X-25.92499 Y-17.60212
G01 X-26.23787 Y-17.37479
G01 X-26.49667 Y-17.08739
G01 X-26.69004 Y-16.75244
G01 X-26.80957 Y-16.38463
G01 X-26.84998 Y-15.99999
G01 X-26.80957 Y-15.61536
G01 X-26.69004 Y-15.24752
G01 X-26.49667 Y-14.91259
G01 X-26.22974 Y-14.61859
G01 X-25.92499 Y-14.39784
G01 X-25.58141 Y-14.24429
G01 X-25.19337 Y-14.16012
G01 X-24.80661 Y-14.16012
G01 X-24.42830 Y-14.24054
G01 X-24.07498 Y-14.39784
G01 X-23.77023 Y-14.61859
G01 X-23.73902 Y-14.64998
G01 X-19.99999 Y-14.64998
G01 X-19.72709 Y-14.67830
G01 X-19.47448 Y-14.75694
G01 X-19.24995 Y-14.87749
G01 X-19.04538 Y-15.04539
G01 X-9.94077 Y-24.14999
G01 X-9.26097 Y-24.14999
G01 X-9.22975 Y-24.11857
G01 X-8.91565 Y-23.89309
G01 X-8.57166 Y-23.74054
G01 X-8.20369 Y-23.66175
G01 X-7.80661 Y-23.66013
G01 X-7.42831 Y-23.74054
G01 X-7.07499 Y-23.89784
G01 X-6.77022 Y-24.11857
G01 X-6.50331 Y-24.41258
G01 X-6.30992 Y-24.74752
G01 X-6.19313 Y-25.10523
G01 X-6.14997 Y-25.50000
( Mill infeed pass 5/7 )
G01 Z-0.50000
G04 P0 ( dwell for no time -- G64 should not smooth over this point )
G01 F100.00000
G01 X-6.14997 Y-25.50000
G01 X-6.19041 Y-25.88463
G01 X-6.30618 Y-26.24267
G01 X-6.50331 Y-26.58740
G01 X-6.76209 Y-26.87480
G01 X-7.06620 Y-27.09644
G01 X-7.43842 Y-27.26215
G01 X-7.80661 Y-27.33985
G01 X-8.19335 Y-27.33985
G01 X-8.57166 Y-27.25943
G01 X-8.91565 Y-27.10688
G01 X-9.22975 Y-26.88140
G01 X-9.26097 Y-26.84998
G01 X-10.50976 Y-26.84950
G01 X-10.76333 Y-26.82405
G01 X-11.02545 Y-26.74302
G01 X-11.25786 Y-26.61661
G01 X-11.45456 Y-26.45458
G01 X-20.55917 Y-17.34998
G01 X-23.73902 Y-17.34998
G01 X-23.77023 Y-17.38140
G01 X-24.07498 Y-17.60212
G01 X-24.43841 Y-17.76214
G01 X-24.80661 Y-17.83984
G01 X-25.18291 Y-17.84040
G01 X-25.57168 Y-17.75945
G01 X-25.92499 Y-17.60212
G01 X-26.23787 Y-17.37479
G01 X-26.49667 Y-17.08739
G01 X-26.69004 Y-16.75244
G01 X-26.80957 Y-16.38463
G01 X-26.84998 Y-15.99999
G01 X-26.80957 Y-15.61536
G01 X-26.69004 Y-15.24752
G01 X-26.49667 Y-14.91259
G01 X-26.22974 Y-14.61859
G01 X-25.92499 Y-14.39784
G01 X-25.58141 Y-14.24429
G01 X-25.19337 Y-14.16012
G01 X-24.80661 Y-14.16012
G01 X-24.42830 Y-14.24054
G01 X-24.07498 Y-14.39784
G01 X-23.77023 Y-14.61859
G01 X-23.73902 Y-14.64998
G01 X-19.99999 Y-14.64998
G01 X-19.72709 Y-14.67830
G01 X-19.47448 Y-14.75694
G01 X-19.24995 Y-14.87749
G01 X-19.04538 Y-15.04539
G01 X-9.94077 Y-24.14999
G01 X-9.26097 Y-24.14999
G01 X-9.22975 Y-24.11857
G01 X-8.91565 Y-23.89309
G01 X-8.57166 Y-23.74054
G01 X-8.20369 Y-23.66175
G01 X-7.80661 Y-23.66013
G01 X-7.42831 Y-23.74054
G01 X-7.07499 Y-23.89784
G01 X-6.77022 Y-24.11857
G01 X-6.50331 Y-24.41258
G01 X-6.30992 Y-24.74752
G01 X-6.19313 Y-25.10523
G01 X-6.14997 Y-25.50000
( Mill infeed pass 6/7 )
G01 Z-0.60000
G04 P0 ( dwell for no time -- G64 should not smooth over this point )
G01 F100.00000
G01 X-6.14997 Y-25.50000
G01 X-6.19041 Y-25.88463
G01 X-6.30618 Y-26.24267
G01 X-6.50331 Y-26.58740
G01 X-6.76209 Y-26.87480
G01 X-7.06620 Y-27.09644
G01 X-7.43842 Y-27.26215
G01 X-7.80661 Y-27.33985
G01 X-8.19335 Y-27.33985
G01 X-8.57166 Y-27.25943
G01 X-8.91565 Y-27.10688
G01 X-9.22975 Y-26.88140
G01 X-9.26097 Y-26.84998
G01 X-10.50976 Y-26.84950
G01 X-10.76333 Y-26.82405
G01 X-11.02545 Y-26.74302
G01 X-11.25786 Y-26.61661
G01 X-11.45456 Y-26.45458
G01 X-20.55917 Y-17.34998
G01 X-23.73902 Y-17.34998
G01 X-23.77023 Y-17.38140
G01 X-24.07498 Y-17.60212
G01 X-24.43841 Y-17.76214
G01 X-24.80661 Y-17.83984
G01 X-25.18291 Y-17.84040
G01 X-25.57168 Y-17.75945
G01 X-25.92499 Y-17.60212
G01 X-26.23787 Y-17.37479
G01 X-26.49667 Y-17.08739
G01 X-26.69004 Y-16.75244
G01 X-26.80957 Y-16.38463
G01 X-26.84998 Y-15.99999
G01 X-26.80957 Y-15.61536
G01 X-26.69004 Y-15.24752
G01 X-26.49667 Y-14.91259
G01 X-26.22974 Y-14.61859
G01 X-25.92499 Y-14.39784
G01 X-25.58141 Y-14.24429
G01 X-25.19337 Y-14.16012
G01 X-24.80661 Y-14.16012
G01 X-24.42830 Y-14.24054
G01 X-24.07498 Y-14.39784
G01 X-23.77023 Y-14.61859
G01 X-23.73902 Y-14.64998
G01 X-19.99999 Y-14.64998
G01 X-19.72709 Y-14.67830
G01 X-19.47448 Y-14.75694
G01 X-19.24995 Y-14.87749
G01 X-19.04538 Y-15.04539
G01 X-9.94077 Y-24.14999
G01 X-9.26097 Y-24.14999
G01 X-9.22975 Y-24.11857
G01 X-8.91565 Y-23.89309
G01 X-8.57166 Y-23.74054
G01 X-8.20369 Y-23.66175
G01 X-7.80661 Y-23.66013
G01 X-7.42831 Y-23.74054
G01 X-7.07499 Y-23.89784
G01 X-6.77022 Y-24.11857
G01 X-6.50331 Y-24.41258
G01 X-6.30992 Y-24.74752
G01 X-6.19313 Y-25.10523
G01 X-6.14997 Y-25.50000
( Mill infeed pass 7/7 )
G01 Z-0.70000
G04 P0 ( dwell for no time -- G64 should not smooth over this point )
G01 F100.00000
G01 X-6.14997 Y-25.50000
G01 X-6.19041 Y-25.88463
G01 X-6.30618 Y-26.24267
G01 X-6.50331 Y-26.58740
G01 X-6.76209 Y-26.87480
G01 X-7.06620 Y-27.09644
G01 X-7.43842 Y-27.26215
G01 X-7.80661 Y-27.33985
G01 X-8.19335 Y-27.33985
G01 X-8.57166 Y-27.25943
G01 X-8.91565 Y-27.10688
G01 X-9.22975 Y-26.88140
G01 X-9.26097 Y-26.84998
G01 X-10.50976 Y-26.84950
G01 X-10.76333 Y-26.82405
G01 X-11.02545 Y-26.74302
G01 X-11.25786 Y-26.61661
G01 X-11.45456 Y-26.45458
G01 X-20.55917 Y-17.34998
G01 X-23.73902 Y-17.34998
G01 X-23.77023 Y-17.38140
G01 X-24.07498 Y-17.60212
G01 X-24.43841 Y-17.76214
G01 X-24.80661 Y-17.83984
G01 X-25.18291 Y-17.84040
G01 X-25.57168 Y-17.75945
G01 X-25.92499 Y-17.60212
G01 X-26.23787 Y-17.37479
G01 X-26.49667 Y-17.08739
G01 X-26.69004 Y-16.75244
G01 X-26.80957 Y-16.38463
G01 X-26.84998 Y-15.99999
G01 X-26.80957 Y-15.61536
G01 X-26.69004 Y-15.24752
G01 X-26.49667 Y-14.91259
G01 X-26.22974 Y-14.61859
G01 X-25.92499 Y-14.39784
G01 X-25.58141 Y-14.24429
G01 X-25.19337 Y-14.16012
G01 X-24.80661 Y-14.16012
G01 X-24.42830 Y-14.24054
G01 X-24.07498 Y-14.39784
G01 X-23.77023 Y-14.61859
G01 X-23.73902 Y-14.64998
G01 X-19.99999 Y-14.64998
G01 X-19.72709 Y-14.67830
G01 X-19.47448 Y-14.75694
G01 X-19.24995 Y-14.87749
G01 X-19.04538 Y-15.04539
G01 X-9.94077 Y-24.14999
G01 X-9.26097 Y-24.14999
G01 X-9.22975 Y-24.11857
G01 X-8.91565 Y-23.89309
G01 X-8.57166 Y-23.74054
G01 X-8.20369 Y-23.66175
G01 X-7.80661 Y-23.66013
G01 X-7.42831 Y-23.74054
G01 X-7.07499 Y-23.89784
G01 X-6.77022 Y-24.11857
G01 X-6.50331 Y-24.41258
G01 X-6.30992 Y-24.74752
G01 X-6.19313 Y-25.10523
G01 X-6.14997 Y-25.50000
G04 P0 ( dwell for no time -- G64 should not smooth over this point )
G00 Z2.00000 ( retract )

G00 X-2.64998 Y-27.99999 ( rapid move to begin. )
G01 F50.00000
( Mill infeed pass 1/7 )
G01 Z-0.10000
G04 P0 ( dwell for no time -- G64 should not smooth over this point )
G01 F100.00000
G01 X-2.64998 Y-27.99999
G01 X-2.64998 Y-21.99998
G01 X-2.67447 Y-21.74631
G01 X-2.74945 Y-21.49259
G01 X-2.87749 Y-21.24994
G01 X-3.04538 Y-21.04537
G01 X-4.54538 Y-19.54538
G01 X-4.70030 Y-19.41266
G01 X-4.89422 Y-19.29381
G01 X-5.07543 Y-19.21876
G01 X-5.28109 Y-19.16814
G01 X-5.49999 Y-19.14997
G01 X-6.14997 Y-19.14997
G01 X-6.14997 Y-19.06250
G01 X-6.15899 Y-18.97672
G01 X-6.18566 Y-18.89470
G01 X-6.22308 Y-18.82882
G01 X-6.29460 Y-18.74937
G01 X-6.35625 Y-18.70525
G01 X-6.43501 Y-18.67017
G01 X-6.50903 Y-18.65389
G01 X-6.56255 Y-18.64998
G01 X-9.48063 Y-18.65226
G01 X-9.56495 Y-18.67017
G01 X-9.63440 Y-18.70050
G01 X-9.72091 Y-18.76334
G01 X-9.77120 Y-18.82003
G01 X-9.81433 Y-18.89470
G01 X-9.84098 Y-18.97672
G01 X-9.84999 Y-19.06250
G01 X-9.84999 Y-21.93750
G01 X-9.84098 Y-22.02325
G01 X-9.81433 Y-22.10526
G01 X-9.77120 Y-22.17994
G01 X-9.70537 Y-22.25063
G01 X-9.64374 Y-22.29472
G01 X-9.56495 Y-22.32980
G01 X-9.49094 Y-22.34608
G01 X-9.44273 Y-22.34984
G01 X-6.51932 Y-22.34773
G01 X-6.43501 Y-22.32980
G01 X-6.36554 Y-22.29947
G01 X-6.27906 Y-22.23663
G01 X-6.22877 Y-22.17994
G01 X-6.18190 Y-22.09549
G01 X-6.15737 Y-22.01291
G01 X-6.14997 Y-21.93750
G01 X-6.14997 Y-21.84997
G01 X-6.05917 Y-21.84997
G01 X-5.34998 Y-22.55916
G01 X-5.34998 Y-27.44079
G01 X-6.55917 Y-28.64998
G01 X-11.44077 Y-28.64998
G01 X-20.04538 Y-20.04538
G01 X-20.24995 Y-19.87748
G01 X-20.48335 Y-19.75274
G01 X-20.74631 Y-19.67446
G01 X-20.99998 Y-19.64997
G01 X-23.14999 Y-19.64997
G01 X-23.15190 Y-19.23047
G01 X-23.16683 Y-19.19442
G01 X-23.19444 Y-19.16684
G01 X-23.21171 Y-19.15759
G01 X-23.24999 Y-19.15000
G01 X-26.76949 Y-19.15190
G01 X-26.78826 Y-19.15759
G01 X-26.82070 Y-19.17929
G01 X-26.83314 Y-19.19442
G01 X-26.84805 Y-19.23047
G01 X-26.84998 Y-19.64997
G01 X-27.44079 Y-19.64997
G01 X-27.64998 Y-19.44078
G01 X-27.64998 Y-8.05917
G01 X-27.44079 Y-7.84997
G01 X-23.05916 Y-7.84997
G01 X-22.65456 Y-8.25457
G01 X-22.44156 Y-8.42749
G01 X-22.22546 Y-8.54301
G01 X-21.97285 Y-8.62165
G01 X-21.70976 Y-8.64949
G01 X-9.74999 Y-8.64997
G01 X-9.74999 Y-8.73750
G01 X-9.74098 Y-8.82325
G01 X-9.71433 Y-8.90527
G01 X-9.67120 Y-8.97994
G01 X-9.61349 Y-9.04403
G01 X-9.54375 Y-9.09472
G01 X-9.46495 Y-9.12980
G01 X-9.38060 Y-9.14773
G01 X-6.41934 Y-9.14773
G01 X-6.33501 Y-9.12980
G01 X-6.26557 Y-9.09947
G01 X-6.17906 Y-9.03663
G01 X-6.12877 Y-8.97994
G01 X-6.08566 Y-8.90527
G01 X-6.05899 Y-8.82325
G01 X-6.05053 Y-8.74794
G01 X-6.04998 Y-5.86250
G01 X-6.05899 Y-5.77672
G01 X-6.08566 Y-5.69471
G01 X-6.12877 Y-5.62003
G01 X-6.19460 Y-5.54934
G01 X-6.25625 Y-5.50525
G01 X-6.33501 Y-5.47017
G01 X-6.40903 Y-5.45389
G01 X-6.45724 Y-5.45013
G01 X-9.38063 Y-5.45226
G01 X-9.46495 Y-5.47017
G01 X-9.54375 Y-5.50525
G01 X-9.61349 Y-5.55595
G01 X-9.67120 Y-5.62003
G01 X-9.71433 Y-5.69471
G01 X-9.74098 Y-5.77672
G01 X-9.74999 Y-5.86250
G01 X-9.74999 Y-5.94998
G01 X-21.14078 Y-5.94998
G01 X-21.54537 Y-5.54538
G01 X-21.74994 Y-5.37748
G01 X-21.99259 Y-5.24944
G01 X-22.24631 Y-5.17446
G01 X-22.49998 Y-5.14998
G01 X-28.00782 Y-5.15028
G01 X-28.21887 Y-5.16814
G01 X-28.42453 Y-5.21876
G01 X-28.61973 Y-5.30095
G01 X-28.79966 Y-5.41266
G01 X-28.95458 Y-5.54538
G01 X-29.95458 Y-6.54535
G01 X-30.11663 Y-6.74207
G01 X-30.25051 Y-6.99259
G01 X-30.32404 Y-7.23661
G01 X-30.34998 Y-7.49998
G01 X-30.34949 Y-20.00976
G01 X-30.32549 Y-20.25363
G01 X-30.25051 Y-20.50735
G01 X-30.11663 Y-20.75787
G01 X-29.95458 Y-20.95457
G01 X-28.95458 Y-21.95457
G01 X-28.79966 Y-22.08728
G01 X-28.61973 Y-22.19899
G01 X-28.42453 Y-22.28118
G01 X-28.20337 Y-22.33427
G01 X-27.99999 Y-22.34997
G01 X-26.84998 Y-22.34997
G01 X-26.84805 Y-22.76950
G01 X-26.83314 Y-22.80554
G01 X-26.82070 Y-22.82071
G01 X-26.78826 Y-22.84237
G01 X-26.74998 Y-22.84999
G01 X-23.24999 Y-22.84999
G01 X-23.21171 Y-22.84237
G01 X-23.17928 Y-22.82071
G01 X-23.16683 Y-22.80554
G01 X-23.15190 Y-22.76950
G01 X-23.14999 Y-22.34997
G01 X-21.55916 Y-22.34997
G01 X-12.95456 Y-30.95457
G01 X-12.74153 Y-31.12750
G01 X-12.51659 Y-31.24721
G01 X-12.27285 Y-31.32165
G01 X-11.99998 Y-31.34998
G01 X-5.99999 Y-31.34998
G01 X-5.73662 Y-31.32404
G01 X-5.49260 Y-31.25051
G01 X-5.25838 Y-31.12750
G01 X-5.04538 Y-30.95457
G01 X-3.04005 Y-28.94881
G01 X-2.91267 Y-28.79966
G01 X-2.80096 Y-28.61973
G01 X-2.71877 Y-28.42453
G01 X-2.66814 Y-28.21887
G01 X-2.64998 Y-27.99999
( Mill infeed pass 2/7 )
G01 Z-0.20000
G04 P0 ( dwell for no time -- G64 should not smooth over this point )
G01 F100.00000
G01 X-2.64998 Y-27.99999
G01 X-2.64998 Y-21.99998
G01 X-2.67447 Y-21.74631
G01 X-2.74945 Y-21.49259
G01 X-2.87749 Y-21.24994
G01 X-3.04538 Y-21.04537
G01 X-4.54538 Y-19.54538
G01 X-4.70030 Y-19.41266
G01 X-4.89422 Y-19.29381
G01 X-5.07543 Y-19.21876
G01 X-5.28109 Y-19.16814
G01 X-5.49999 Y-19.14997
G01 X-6.14997 Y-19.14997
G01 X-6.14997 Y-19.06250
G01 X-6.15899 Y-18.97672
G01 X-6.18566 Y-18.89470
G01 X-6.22308 Y-18.82882
G01 X-6.29460 Y-18.74937
G01 X-6.35625 Y-18.70525
G01 X-6.43501 Y-18.67017
G01 X-6.50903 Y-18.65389
G01 X-6.56255 Y-18.64998
G01 X-9.48063 Y-18.65226
G01 X-9.56495 Y-18.67017
G01 X-9.63440 Y-18.70050
G01 X-9.72091 Y-18.76334
G01 X-9.77120 Y-18.82003
G01 X-9.81433 Y-18.89470
G01 X-9.84098 Y-18.97672
G01 X-9.84999 Y-19.06250
G01 X-9.84999 Y-21.93750
G01 X-9.84098 Y-22.02325
G01 X-9.81433 Y-22.10526
G01 X-9.77120 Y-22.17994
G01 X-9.70537 Y-22.25063
G01 X-9.64374 Y-22.29472
G01 X-9.56495 Y-22.32980
G01 X-9.49094 Y-22.34608
G01 X-9.44273 Y-22.34984
G01 X-6.51932 Y-22.34773
G01 X-6.43501 Y-22.32980
G01 X-6.36554 Y-22.29947
G01 X-6.27906 Y-22.23663
G01 X-6.22877 Y-22.17994
G01 X-6.18190 Y-22.09549
G01 X-6.15737 Y-22.01291
G01 X-6.14997 Y-21.93750
G01 X-6.14997 Y-21.84997
G01 X-6.05917 Y-21.84997
G01 X-5.34998 Y-22.55916
G01 X-5.34998 Y-27.44079
G01 X-6.55917 Y-28.64998
G01 X-11.44077 Y-28.64998
G01 X-20.04538 Y-20.04538
G01 X-20.24995 Y-19.87748
G01 X-20.48335 Y-19.75274
G01 X-20.74631 Y-19.67446
G01 X-20.99998 Y-19.64997
G01 X-23.14999 Y-19.64997
G01 X-23.15190 Y-19.23047
G01 X-23.16683 Y-19.19442
G01 X-23.19444 Y-19.16684
G01 X-23.21171 Y-19.15759
G01 X-23.24999 Y-19.15000
G01 X-26.76949 Y-19.15190
G01 X-26.78826 Y-19.15759
G01 X-26.82070 Y-19.17929
G01 X-26.83314 Y-19.19442
G01 X-26.84805 Y-19.23047
G01 X-26.84998 Y-19.64997
G01 X-27.44079 Y-19.64997
G01 X-27.64998 Y-19.44078
G01 X-27.64998 Y-8.05917
G01 X-27.44079 Y-7.84997
G01 X-23.05916 Y-7.84997
G01 X-22.65456 Y-8.25457
G01 X-22.44156 Y-8.42749
G01 X-22.22546 Y-8.54301
G01 X-21.97285 Y-8.62165
G01 X-21.70976 Y-8.64949
G01 X-9.74999 Y-8.64997
G01 X-9.74999 Y-8.73750
G01 X-9.74098 Y-8.82325
G01 X-9.71433 Y-8.90527
G01 X-9.67120 Y-8.97994
G01 X-9.61349 Y-9.04403
G01 X-9.54375 Y-9.09472
G01 X-9.46495 Y-9.12980
G01 X-9.38060 Y-9.14773
G01 X-6.41934 Y-9.14773
G01 X-6.33501 Y-9.12980
G01 X-6.26557 Y-9.09947
G01 X-6.17906 Y-9.03663
G01 X-6.12877 Y-8.97994
G01 X-6.08566 Y-8.90527
G01 X-6.05899 Y-8.82325
G01 X-6.05053 Y-8.74794
G01 X-6.04998 Y-5.86250
G01 X-6.05899 Y-5.77672
G01 X-6.08566 Y-5.69471
G01 X-6.12877 Y-5.62003
G01 X-6.19460 Y-5.54934
G01 X-6.25625 Y-5.50525
G01 X-6.33501 Y-5.47017
G01 X-6.40903 Y-5.45389
G01 X-6.45724 Y-5.45013
G01 X-9.38063 Y-5.45226
G01 X-9.46495 Y-5.47017
G01 X-9.54375 Y-5.50525
G01 X-9.61349 Y-5.55595
G01 X-9.67120 Y-5.62003
G01 X-9.71433 Y-5.69471
G01 X-9.74098 Y-5.77672
G01 X-9.74999 Y-5.86250
G01 X-9.74999 Y-5.94998
G01 X-21.14078 Y-5.94998
G01 X-21.54537 Y-5.54538
G01 X-21.74994 Y-5.37748
G01 X-21.99259 Y-5.24944
G01 X-22.24631 Y-5.17446
G01 X-22.49998 Y-5.14998
G01 X-28.00782 Y-5.15028
G01 X-28.21887 Y-5.16814
G01 X-28.42453 Y-5.21876
G01 X-28.61973 Y-5.30095
G01 X-28.79966 Y-5.41266
G01 X-28.95458 Y-5.54538
G01 X-29.95458 Y-6.54535
G01 X-30.11663 Y-6.74207
G01 X-30.25051 Y-6.99259
G01 X-30.32404 Y-7.23661
G01 X-30.34998 Y-7.49998
G01 X-30.34949 Y-20.00976
G01 X-30.32549 Y-20.25363
G01 X-30.25051 Y-20.50735
G01 X-30.11663 Y-20.75787
G01 X-29.95458 Y-20.95457
G01 X-28.95458 Y-21.95457
G01 X-28.79966 Y-22.08728
G01 X-28.61973 Y-22.19899
G01 X-28.42453 Y-22.28118
G01 X-28.20337 Y-22.33427
G01 X-27.99999 Y-22.34997
G01 X-26.84998 Y-22.34997
G01 X-26.84805 Y-22.76950
G01 X-26.83314 Y-22.80554
G01 X-26.82070 Y-22.82071
G01 X-26.78826 Y-22.84237
G01 X-26.74998 Y-22.84999
G01 X-23.24999 Y-22.84999
G01 X-23.21171 Y-22.84237
G01 X-23.17928 Y-22.82071
G01 X-23.16683 Y-22.80554
G01 X-23.15190 Y-22.76950
G01 X-23.14999 Y-22.34997
G01 X-21.55916 Y-22.34997
G01 X-12.95456 Y-30.95457
G01 X-12.74153 Y-31.12750
G01 X-12.51659 Y-31.24721
G01 X-12.27285 Y-31.32165
G01 X-11.99998 Y-31.34998
G01 X-5.99999 Y-31.34998
G01 X-5.73662 Y-31.32404
G01 X-5.49260 Y-31.25051
G01 X-5.25838 Y-31.12750
G01 X-5.04538 Y-30.95457
G01 X-3.04005 Y-28.94881
G01 X-2.91267 Y-28.79966
G01 X-2.80096 Y-28.61973
G01 X-2.71877 Y-28.42453
G01 X-2.66814 Y-28.21887
G01 X-2.64998 Y-27.99999
( Mill infeed pass 3/7 )
G01 Z-0.30000
G04 P0 ( dwell for no time -- G64 should not smooth over this point )
G01 F100.00000
G01 X-2.64998 Y-27.99999
G01 X-2.64998 Y-21.99998
G01 X-2.67447 Y-21.74631
G01 X-2.74945 Y-21.49259
G01 X-2.87749 Y-21.24994
G01 X-3.04538 Y-21.04537
G01 X-4.54538 Y-19.54538
G01 X-4.70030 Y-19.41266
G01 X-4.89422 Y-19.29381
G01 X-5.07543 Y-19.21876
G01 X-5.28109 Y-19.16814
G01 X-5.49999 Y-19.14997
G01 X-6.14997 Y-19.14997
G01 X-6.14997 Y-19.06250
G01 X-6.15899 Y-18.97672
G01 X-6.18566 Y-18.89470
G01 X-6.22308 Y-18.82882
G01 X-6.29460 Y-18.74937
G01 X-6.35625 Y-18.70525
G01 X-6.43501 Y-18.67017
G01 X-6.50903 Y-18.65389
G01 X-6.56255 Y-18.64998
G01 X-9.48063 Y-18.65226
G01 X-9.56495 Y-18.67017
G01 X-9.63440 Y-18.70050
G01 X-9.72091 Y-18.76334
G01 X-9.77120 Y-18.82003
G01 X-9.81433 Y-18.89470
G01 X-9.84098 Y-18.97672
G01 X-9.84999 Y-19.06250
G01 X-9.84999 Y-21.93750
G01 X-9.84098 Y-22.02325
G01 X-9.81433 Y-22.10526
G01 X-9.77120 Y-22.17994
G01 X-9.70537 Y-22.25063
G01 X-9.64374 Y-22.29472
G01 X-9.56495 Y-22.32980
G01 X-9.49094 Y-22.34608
G01 X-9.44273 Y-22.34984
G01 X-6.51932 Y-22.34773
G01 X-6.43501 Y-22.32980
G01 X-6.36554 Y-22.29947
G01 X-6.27906 Y-22.23663
G01 X-6.22877 Y-22.17994
G01 X-6.18190 Y-22.09549
G01 X-6.15737 Y-22.01291
G01 X-6.14997 Y-21.93750
G01 X-6.14997 Y-21.84997
G01 X-6.05917 Y-21.84997
G01 X-5.34998 Y-22.55916
G01 X-5.34998 Y-27.44079
G01 X-6.55917 Y-28.64998
G01 X-11.44077 Y-28.64998
G01 X-20.04538 Y-20.04538
G01 X-20.24995 Y-19.87748
G01 X-20.48335 Y-19.75274
G01 X-20.74631 Y-19.67446
G01 X-20.99998 Y-19.64997
G01 X-23.14999 Y-19.64997
G01 X-23.15190 Y-19.23047
G01 X-23.16683 Y-19.19442
G01 X-23.19444 Y-19.16684
G01 X-23.21171 Y-19.15759
G01 X-23.24999 Y-19.15000
G01 X-26.76949 Y-19.15190
G01 X-26.78826 Y-19.15759
G01 X-26.82070 Y-19.17929
G01 X-26.83314 Y-19.19442
G01 X-26.84805 Y-19.23047
G01 X-26.84998 Y-19.64997
G01 X-27.44079 Y-19.64997
G01 X-27.64998 Y-19.44078
G01 X-27.64998 Y-8.05917
G01 X-27.44079 Y-7.84997
G01 X-23.05916 Y-7.84997
G01 X-22.65456 Y-8.25457
G01 X-22.44156 Y-8.42749
G01 X-22.22546 Y-8.54301
G01 X-21.97285 Y-8.62165
G01 X-21.70976 Y-8.64949
G01 X-9.74999 Y-8.64997
G01 X-9.74999 Y-8.73750
G01 X-9.74098 Y-8.82325
G01 X-9.71433 Y-8.90527
G01 X-9.67120 Y-8.97994
G01 X-9.61349 Y-9.04403
G01 X-9.54375 Y-9.09472
G01 X-9.46495 Y-9.12980
G01 X-9.38060 Y-9.14773
G01 X-6.41934 Y-9.14773
G01 X-6.33501 Y-9.12980
G01 X-6.26557 Y-9.09947
G01 X-6.17906 Y-9.03663
G01 X-6.12877 Y-8.97994
G01 X-6.08566 Y-8.90527
G01 X-6.05899 Y-8.82325
G01 X-6.05053 Y-8.74794
G01 X-6.04998 Y-5.86250
G01 X-6.05899 Y-5.77672
G01 X-6.08566 Y-5.69471
G01 X-6.12877 Y-5.62003
G01 X-6.19460 Y-5.54934
G01 X-6.25625 Y-5.50525
G01 X-6.33501 Y-5.47017
G01 X-6.40903 Y-5.45389
G01 X-6.45724 Y-5.45013
G01 X-9.38063 Y-5.45226
G01 X-9.46495 Y-5.47017
G01 X-9.54375 Y-5.50525
G01 X-9.61349 Y-5.55595
G01 X-9.67120 Y-5.62003
G01 X-9.71433 Y-5.69471
G01 X-9.74098 Y-5.77672
G01 X-9.74999 Y-5.86250
G01 X-9.74999 Y-5.94998
G01 X-21.14078 Y-5.94998
G01 X-21.54537 Y-5.54538
G01 X-21.74994 Y-5.37748
G01 X-21.99259 Y-5.24944
G01 X-22.24631 Y-5.17446
G01 X-22.49998 Y-5.14998
G01 X-28.00782 Y-5.15028
G01 X-28.21887 Y-5.16814
G01 X-28.42453 Y-5.21876
G01 X-28.61973 Y-5.30095
G01 X-28.79966 Y-5.41266
G01 X-28.95458 Y-5.54538
G01 X-29.95458 Y-6.54535
G01 X-30.11663 Y-6.74207
G01 X-30.25051 Y-6.99259
G01 X-30.32404 Y-7.23661
G01 X-30.34998 Y-7.49998
G01 X-30.34949 Y-20.00976
G01 X-30.32549 Y-20.25363
G01 X-30.25051 Y-20.50735
G01 X-30.11663 Y-20.75787
G01 X-29.95458 Y-20.95457
G01 X-28.95458 Y-21.95457
G01 X-28.79966 Y-22.08728
G01 X-28.61973 Y-22.19899
G01 X-28.42453 Y-22.28118
G01 X-28.20337 Y-22.33427
G01 X-27.99999 Y-22.34997
G01 X-26.84998 Y-22.34997
G01 X-26.84805 Y-22.76950
G01 X-26.83314 Y-22.80554
G01 X-26.82070 Y-22.82071
G01 X-26.78826 Y-22.84237
G01 X-26.74998 Y-22.84999
G01 X-23.24999 Y-22.84999
G01 X-23.21171 Y-22.84237
G01 X-23.17928 Y-22.82071
G01 X-23.16683 Y-22.80554
G01 X-23.15190 Y-22.76950
G01 X-23.14999 Y-22.34997
G01 X-21.55916 Y-22.34997
G01 X-12.95456 Y-30.95457
G01 X-12.74153 Y-31.12750
G01 X-12.51659 Y-31.24721
G01 X-12.27285 Y-31.32165
G01 X-11.99998 Y-31.34998
G01 X-5.99999 Y-31.34998
G01 X-5.73662 Y-31.32404
G01 X-5.49260 Y-31.25051
G01 X-5.25838 Y-31.12750
G01 X-5.04538 Y-30.95457
G01 X-3.04005 Y-28.94881
G01 X-2.91267 Y-28.79966
G01 X-2.80096 Y-28.61973
G01 X-2.71877 Y-28.42453
G01 X-2.66814 Y-28.21887
G01 X-2.64998 Y-27.99999
( Mill infeed pass 4/7 )
G01 Z-0.40000
G04 P0 ( dwell for no time -- G64 should not smooth over this point )
G01 F100.00000
G01 X-2.64998 Y-27.99999
G01 X-2.64998 Y-21.99998
G01 X-2.67447 Y-21.74631
G01 X-2.74945 Y-21.49259
G01 X-2.87749 Y-21.24994
G01 X-3.04538 Y-21.04537
G01 X-4.54538 Y-19.54538
G01 X-4.70030 Y-19.41266
G01 X-4.89422 Y-19.29381
G01 X-5.07543 Y-19.21876
G01 X-5.28109 Y-19.16814
G01 X-5.49999 Y-19.14997
G01 X-6.14997 Y-19.14997
G01 X-6.14997 Y-19.06250
G01 X-6.15899 Y-18.97672
G01 X-6.18566 Y-18.89470
G01 X-6.22308 Y-18.82882
G01 X-6.29460 Y-18.74937
G01 X-6.35625 Y-18.70525
G01 X-6.43501 Y-18.67017
G01 X-6.50903 Y-18.65389
G01 X-6.56255 Y-18.64998
G01 X-9.48063 Y-18.65226
G01 X-9.56495 Y-18.67017
G01 X-9.63440 Y-18.70050
G01 X-9.72091 Y-18.76334
G01 X-9.77120 Y-18.82003
G01 X-9.81433 Y-18.89470
G01 X-9.84098 Y-18.97672
G01 X-9.84999 Y-19.06250
G01 X-9.84999 Y-21.93750
G01 X-9.84098 Y-22.02325
G01 X-9.81433 Y-22.10526
G01 X-9.77120 Y-22.17994
G01 X-9.70537 Y-22.25063
G01 X-9.64374 Y-22.29472
G01 X-9.56495 Y-22.32980
G01 X-9.49094 Y-22.34608
G01 X-9.44273 Y-22.34984
G01 X-6.51932 Y-22.34773
G01 X-6.43501 Y-22.32980
G01 X-6.36554 Y-22.29947
G01 X-6.27906 Y-22.23663
G01 X-6.22877 Y-22.17994
G01 X-6.18190 Y-22.09549
G01 X-6.15737 Y-22.01291
G01 X-6.14997 Y-21.93750
G01 X-6.14997 Y-21.84997
G01 X-6.05917 Y-21.84997
G01 X-5.34998 Y-22.55916
G01 X-5.34998 Y-27.44079
G01 X-6.55917 Y-28.64998
G01 X-11.44077 Y-28.64998
G01 X-20.04538 Y-20.04538
G01 X-20.24995 Y-19.87748
G01 X-20.48335 Y-19.75274
G01 X-20.74631 Y-19.67446
G01 X-20.99998 Y-19.64997
G01 X-23.14999 Y-19.64997
G01 X-23.15190 Y-19.23047
G01 X-23.16683 Y-19.19442
G01 X-23.19444 Y-19.16684
G01 X-23.21171 Y-19.15759
G01 X-23.24999 Y-19.15000
G01 X-26.76949 Y-19.15190
G01 X-26.78826 Y-19.15759
G01 X-26.82070 Y-19.17929
G01 X-26.83314 Y-19.19442
G01 X-26.84805 Y-19.23047
G01 X-26.84998 Y-19.64997
G01 X-27.44079 Y-19.64997
G01 X-27.64998 Y-19.44078
G01 X-27.64998 Y-8.05917
G01 X-27.44079 Y-7.84997
G01 X-23.05916 Y-7.84997
G01 X-22.65456 Y-8.25457
G01 X-22.44156 Y-8.42749
G01 X-22.22546 Y-8.54301
G01 X-21.97285 Y-8.62165
G01 X-21.70976 Y-8.64949
G01 X-9.74999 Y-8.64997
G01 X-9.74999 Y-8.73750
G01 X-9.74098 Y-8.82325
G01 X-9.71433 Y-8.90527
G01 X-9.67120 Y-8.97994
G01 X-9.61349 Y-9.04403
G01 X-9.54375 Y-9.09472
G01 X-9.46495 Y-9.12980
G01 X-9.38060 Y-9.14773
G01 X-6.41934 Y-9.14773
G01 X-6.33501 Y-9.12980
G01 X-6.26557 Y-9.09947
G01 X-6.17906 Y-9.03663
G01 X-6.12877 Y-8.97994
G01 X-6.08566 Y-8.90527
G01 X-6.05899 Y-8.82325
G01 X-6.05053 Y-8.74794
G01 X-6.04998 Y-5.86250
G01 X-6.05899 Y-5.77672
G01 X-6.08566 Y-5.69471
G01 X-6.12877 Y-5.62003
G01 X-6.19460 Y-5.54934
G01 X-6.25625 Y-5.50525
G01 X-6.33501 Y-5.47017
G01 X-6.40903 Y-5.45389
G01 X-6.45724 Y-5.45013
G01 X-9.38063 Y-5.45226
G01 X-9.46495 Y-5.47017
G01 X-9.54375 Y-5.50525
G01 X-9.61349 Y-5.55595
G01 X-9.67120 Y-5.62003
G01 X-9.71433 Y-5.69471
G01 X-9.74098 Y-5.77672
G01 X-9.74999 Y-5.86250
G01 X-9.74999 Y-5.94998
G01 X-21.14078 Y-5.94998
G01 X-21.54537 Y-5.54538
G01 X-21.74994 Y-5.37748
G01 X-21.99259 Y-5.24944
G01 X-22.24631 Y-5.17446
G01 X-22.49998 Y-5.14998
G01 X-28.00782 Y-5.15028
G01 X-28.21887 Y-5.16814
G01 X-28.42453 Y-5.21876
G01 X-28.61973 Y-5.30095
G01 X-28.79966 Y-5.41266
G01 X-28.95458 Y-5.54538
G01 X-29.95458 Y-6.54535
G01 X-30.11663 Y-6.74207
G01 X-30.25051 Y-6.99259
G01 X-30.32404 Y-7.23661
G01 X-30.34998 Y-7.49998
G01 X-30.34949 Y-20.00976
G01 X-30.32549 Y-20.25363
G01 X-30.25051 Y-20.50735
G01 X-30.11663 Y-20.75787
G01 X-29.95458 Y-20.95457
G01 X-28.95458 Y-21.95457
G01 X-28.79966 Y-22.08728
G01 X-28.61973 Y-22.19899
G01 X-28.42453 Y-22.28118
G01 X-28.20337 Y-22.33427
G01 X-27.99999 Y-22.34997
G01 X-26.84998 Y-22.34997
G01 X-26.84805 Y-22.76950
G01 X-26.83314 Y-22.80554
G01 X-26.82070 Y-22.82071
G01 X-26.78826 Y-22.84237
G01 X-26.74998 Y-22.84999
G01 X-23.24999 Y-22.84999
G01 X-23.21171 Y-22.84237
G01 X-23.17928 Y-22.82071
G01 X-23.16683 Y-22.80554
G01 X-23.15190 Y-22.76950
G01 X-23.14999 Y-22.34997
G01 X-21.55916 Y-22.34997
G01 X-12.95456 Y-30.95457
G01 X-12.74153 Y-31.12750
G01 X-12.51659 Y-31.24721
G01 X-12.27285 Y-31.32165
G01 X-11.99998 Y-31.34998
G01 X-5.99999 Y-31.34998
G01 X-5.73662 Y-31.32404
G01 X-5.49260 Y-31.25051
G01 X-5.25838 Y-31.12750
G01 X-5.04538 Y-30.95457
G01 X-3.04005 Y-28.94881
G01 X-2.91267 Y-28.79966
G01 X-2.80096 Y-28.61973
G01 X-2.71877 Y-28.42453
G01 X-2.66814 Y-28.21887
G01 X-2.64998 Y-27.99999
( Mill infeed pass 5/7 )
G01 Z-0.50000
G04 P0 ( dwell for no time -- G64 should not smooth over this point )
G01 F100.00000
G01 X-2.64998 Y-27.99999
G01 X-2.64998 Y-21.99998
G01 X-2.67447 Y-21.74631
G01 X-2.74945 Y-21.49259
G01 X-2.87749 Y-21.24994
G01 X-3.04538 Y-21.04537
G01 X-4.54538 Y-19.54538
G01 X-4.70030 Y-19.41266
G01 X-4.89422 Y-19.29381
G01 X-5.07543 Y-19.21876
G01 X-5.28109 Y-19.16814
G01 X-5.49999 Y-19.14997
G01 X-6.14997 Y-19.14997
G01 X-6.14997 Y-19.06250
G01 X-6.15899 Y-18.97672
G01 X-6.18566 Y-18.89470
G01 X-6.22308 Y-18.82882
G01 X-6.29460 Y-18.74937
G01 X-6.35625 Y-18.70525
G01 X-6.43501 Y-18.67017
G01 X-6.50903 Y-18.65389
G01 X-6.56255 Y-18.64998
G01 X-9.48063 Y-18.65226
G01 X-9.56495 Y-18.67017
G01 X-9.63440 Y-18.70050
G01 X-9.72091 Y-18.76334
G01 X-9.77120 Y-18.82003
G01 X-9.81433 Y-18.89470
G01 X-9.84098 Y-18.97672
G01 X-9.84999 Y-19.06250
G01 X-9.84999 Y-21.93750
G01 X-9.84098 Y-22.02325
G01 X-9.81433 Y-22.10526
G01 X-9.77120 Y-22.17994
G01 X-9.70537 Y-22.25063
G01 X-9.64374 Y-22.29472
G01 X-9.56495 Y-22.32980
G01 X-9.49094 Y-22.34608
G01 X-9.44273 Y-22.34984
G01 X-6.51932 Y-22.34773
G01 X-6.43501 Y-22.32980
G01 X-6.36554 Y-22.29947
G01 X-6.27906 Y-22.23663
G01 X-6.22877 Y-22.17994
G01 X-6.18190 Y-22.09549
G01 X-6.15737 Y-22.01291
G01 X-6.14997 Y-21.93750
G01 X-6.14997 Y-21.84997
G01 X-6.05917 Y-21.84997
G01 X-5.34998 Y-22.55916
G01 X-5.34998 Y-27.44079
G01 X-6.55917 Y-28.64998
G01 X-11.44077 Y-28.64998
G01 X-20.04538 Y-20.04538
G01 X-20.24995 Y-19.87748
G01 X-20.48335 Y-19.75274
G01 X-20.74631 Y-19.67446
G01 X-20.99998 Y-19.64997
G01 X-23.14999 Y-19.64997
G01 X-23.15190 Y-19.23047
G01 X-23.16683 Y-19.19442
G01 X-23.19444 Y-19.16684
G01 X-23.21171 Y-19.15759
G01 X-23.24999 Y-19.15000
G01 X-26.76949 Y-19.15190
G01 X-26.78826 Y-19.15759
G01 X-26.82070 Y-19.17929
G01 X-26.83314 Y-19.19442
G01 X-26.84805 Y-19.23047
G01 X-26.84998 Y-19.64997
G01 X-27.44079 Y-19.64997
G01 X-27.64998 Y-19.44078
G01 X-27.64998 Y-8.05917
G01 X-27.44079 Y-7.84997
G01 X-23.05916 Y-7.84997
G01 X-22.65456 Y-8.25457
G01 X-22.44156 Y-8.42749
G01 X-22.22546 Y-8.54301
G01 X-21.97285 Y-8.62165
G01 X-21.70976 Y-8.64949
G01 X-9.74999 Y-8.64997
G01 X-9.74999 Y-8.73750
G01 X-9.74098 Y-8.82325
G01 X-9.71433 Y-8.90527
G01 X-9.67120 Y-8.97994
G01 X-9.61349 Y-9.04403
G01 X-9.54375 Y-9.09472
G01 X-9.46495 Y-9.12980
G01 X-9.38060 Y-9.14773
G01 X-6.41934 Y-9.14773
G01 X-6.33501 Y-9.12980
G01 X-6.26557 Y-9.09947
G01 X-6.17906 Y-9.03663
G01 X-6.12877 Y-8.97994
G01 X-6.08566 Y-8.90527
G01 X-6.05899 Y-8.82325
G01 X-6.05053 Y-8.74794
G01 X-6.04998 Y-5.86250
G01 X-6.05899 Y-5.77672
G01 X-6.08566 Y-5.69471
G01 X-6.12877 Y-5.62003
G01 X-6.19460 Y-5.54934
G01 X-6.25625 Y-5.50525
G01 X-6.33501 Y-5.47017
G01 X-6.40903 Y-5.45389
G01 X-6.45724 Y-5.45013
G01 X-9.38063 Y-5.45226
G01 X-9.46495 Y-5.47017
G01 X-9.54375 Y-5.50525
G01 X-9.61349 Y-5.55595
G01 X-9.67120 Y-5.62003
G01 X-9.71433 Y-5.69471
G01 X-9.74098 Y-5.77672
G01 X-9.74999 Y-5.86250
G01 X-9.74999 Y-5.94998
G01 X-21.14078 Y-5.94998
G01 X-21.54537 Y-5.54538
G01 X-21.74994 Y-5.37748
G01 X-21.99259 Y-5.24944
G01 X-22.24631 Y-5.17446
G01 X-22.49998 Y-5.14998
G01 X-28.00782 Y-5.15028
G01 X-28.21887 Y-5.16814
G01 X-28.42453 Y-5.21876
G01 X-28.61973 Y-5.30095
G01 X-28.79966 Y-5.41266
G01 X-28.95458 Y-5.54538
G01 X-29.95458 Y-6.54535
G01 X-30.11663 Y-6.74207
G01 X-30.25051 Y-6.99259
G01 X-30.32404 Y-7.23661
G01 X-30.34998 Y-7.49998
G01 X-30.34949 Y-20.00976
G01 X-30.32549 Y-20.25363
G01 X-30.25051 Y-20.50735
G01 X-30.11663 Y-20.75787
G01 X-29.95458 Y-20.95457
G01 X-28.95458 Y-21.95457
G01 X-28.79966 Y-22.08728
G01 X-28.61973 Y-22.19899
G01 X-28.42453 Y-22.28118
G01 X-28.20337 Y-22.33427
G01 X-27.99999 Y-22.34997
G01 X-26.84998 Y-22.34997
G01 X-26.84805 Y-22.76950
G01 X-26.83314 Y-22.80554
G01 X-26.82070 Y-22.82071
G01 X-26.78826 Y-22.84237
G01 X-26.74998 Y-22.84999
G01 X-23.24999 Y-22.84999
G01 X-23.21171 Y-22.84237
G01 X-23.17928 Y-22.82071
G01 X-23.16683 Y-22.80554
G01 X-23.15190 Y-22.76950
G01 X-23.14999 Y-22.34997
G01 X-21.55916 Y-22.34997
G01 X-12.95456 Y-30.95457
G01 X-12.74153 Y-31.12750
G01 X-12.51659 Y-31.24721
G01 X-12.27285 Y-31.32165
G01 X-11.99998 Y-31.34998
G01 X-5.99999 Y-31.34998
G01 X-5.73662 Y-31.32404
G01 X-5.49260 Y-31.25051
G01 X-5.25838 Y-31.12750
G01 X-5.04538 Y-30.95457
G01 X-3.04005 Y-28.94881
G01 X-2.91267 Y-28.79966
G01 X-2.80096 Y-28.61973
G01 X-2.71877 Y-28.42453
G01 X-2.66814 Y-28.21887
G01 X-2.64998 Y-27.99999
( Mill infeed pass 6/7 )
G01 Z-0.60000
G04 P0 ( dwell for no time -- G64 should not smooth over this point )
G01 F100.00000
G01 X-2.64998 Y-27.99999
G01 X-2.64998 Y-21.99998
G01 X-2.67447 Y-21.74631
G01 X-2.74945 Y-21.49259
G01 X-2.87749 Y-21.24994
G01 X-3.04538 Y-21.04537
G01 X-4.54538 Y-19.54538
G01 X-4.70030 Y-19.41266
G01 X-4.89422 Y-19.29381
G01 X-5.07543 Y-19.21876
G01 X-5.28109 Y-19.16814
G01 X-5.49999 Y-19.14997
G01 X-6.14997 Y-19.14997
G01 X-6.14997 Y-19.06250
G01 X-6.15899 Y-18.97672
G01 X-6.18566 Y-18.89470
G01 X-6.22308 Y-18.82882
G01 X-6.29460 Y-18.74937
G01 X-6.35625 Y-18.70525
G01 X-6.43501 Y-18.67017
G01 X-6.50903 Y-18.65389
G01 X-6.56255 Y-18.64998
G01 X-9.48063 Y-18.65226
G01 X-9.56495 Y-18.67017
G01 X-9.63440 Y-18.70050
G01 X-9.72091 Y-18.76334
G01 X-9.77120 Y-18.82003
G01 X-9.81433 Y-18.89470
G01 X-9.84098 Y-18.97672
G01 X-9.84999 Y-19.06250
G01 X-9.84999 Y-21.93750
G01 X-9.84098 Y-22.02325
G01 X-9.81433 Y-22.10526
G01 X-9.77120 Y-22.17994
G01 X-9.70537 Y-22.25063
G01 X-9.64374 Y-22.29472
G01 X-9.56495 Y-22.32980
G01 X-9.49094 Y-22.34608
G01 X-9.44273 Y-22.34984
G01 X-6.51932 Y-22.34773
G01 X-6.43501 Y-22.32980
G01 X-6.36554 Y-22.29947
G01 X-6.27906 Y-22.23663
G01 X-6.22877 Y-22.17994
G01 X-6.18190 Y-22.09549
G01 X-6.15737 Y-22.01291
G01 X-6.14997 Y-21.93750
G01 X-6.14997 Y-21.84997
G01 X-6.05917 Y-21.84997
G01 X-5.34998 Y-22.55916
G01 X-5.34998 Y-27.44079
G01 X-6.55917 Y-28.64998
G01 X-11.44077 Y-28.64998
G01 X-20.04538 Y-20.04538
G01 X-20.24995 Y-19.87748
G01 X-20.48335 Y-19.75274
G01 X-20.74631 Y-19.67446
G01 X-20.99998 Y-19.64997
G01 X-23.14999 Y-19.64997
G01 X-23.15190 Y-19.23047
G01 X-23.16683 Y-19.19442
G01 X-23.19444 Y-19.16684
G01 X-23.21171 Y-19.15759
G01 X-23.24999 Y-19.15000
G01 X-26.76949 Y-19.15190
G01 X-26.78826 Y-19.15759
G01 X-26.82070 Y-19.17929
G01 X-26.83314 Y-19.19442
G01 X-26.84805 Y-19.23047
G01 X-26.84998 Y-19.64997
G01 X-27.44079 Y-19.64997
G01 X-27.64998 Y-19.44078
G01 X-27.64998 Y-8.05917
G01 X-27.44079 Y-7.84997
G01 X-23.05916 Y-7.84997
G01 X-22.65456 Y-8.25457
G01 X-22.44156 Y-8.42749
G01 X-22.22546 Y-8.54301
G01 X-21.97285 Y-8.62165
G01 X-21.70976 Y-8.64949
G01 X-9.74999 Y-8.64997
G01 X-9.74999 Y-8.73750
G01 X-9.74098 Y-8.82325
G01 X-9.71433 Y-8.90527
G01 X-9.67120 Y-8.97994
G01 X-9.61349 Y-9.04403
G01 X-9.54375 Y-9.09472
G01 X-9.46495 Y-9.12980
G01 X-9.38060 Y-9.14773
G01 X-6.41934 Y-9.14773
G01 X-6.33501 Y-9.12980
G01 X-6.26557 Y-9.09947
G01 X-6.17906 Y-9.03663
G01 X-6.12877 Y-8.97994
G01 X-6.08566 Y-8.90527
G01 X-6.05899 Y-8.82325
G01 X-6.05053 Y-8.74794
G01 X-6.04998 Y-5.86250
G01 X-6.05899 Y-5.77672
G01 X-6.08566 Y-5.69471
G01 X-6.12877 Y-5.62003
G01 X-6.19460 Y-5.54934
G01 X-6.25625 Y-5.50525
G01 X-6.33501 Y-5.47017
G01 X-6.40903 Y-5.45389
G01 X-6.45724 Y-5.45013
G01 X-9.38063 Y-5.45226
G01 X-9.46495 Y-5.47017
G01 X-9.54375 Y-5.50525
G01 X-9.61349 Y-5.55595
G01 X-9.67120 Y-5.62003
G01 X-9.71433 Y-5.69471
G01 X-9.74098 Y-5.77672
G01 X-9.74999 Y-5.86250
G01 X-9.74999 Y-5.94998
G01 X-21.14078 Y-5.94998
G01 X-21.54537 Y-5.54538
G01 X-21.74994 Y-5.37748
G01 X-21.99259 Y-5.24944
G01 X-22.24631 Y-5.17446
G01 X-22.49998 Y-5.14998
G01 X-28.00782 Y-5.15028
G01 X-28.21887 Y-5.16814
G01 X-28.42453 Y-5.21876
G01 X-28.61973 Y-5.30095
G01 X-28.79966 Y-5.41266
G01 X-28.95458 Y-5.54538
G01 X-29.95458 Y-6.54535
G01 X-30.11663 Y-6.74207
G01 X-30.25051 Y-6.99259
G01 X-30.32404 Y-7.23661
G01 X-30.34998 Y-7.49998
G01 X-30.34949 Y-20.00976
G01 X-30.32549 Y-20.25363
G01 X-30.25051 Y-20.50735
G01 X-30.11663 Y-20.75787
G01 X-29.95458 Y-20.95457
G01 X-28.95458 Y-21.95457
G01 X-28.79966 Y-22.08728
G01 X-28.61973 Y-22.19899
G01 X-28.42453 Y-22.28118
G01 X-28.20337 Y-22.33427
G01 X-27.99999 Y-22.34997
G01 X-26.84998 Y-22.34997
G01 X-26.84805 Y-22.76950
G01 X-26.83314 Y-22.80554
G01 X-26.82070 Y-22.82071
G01 X-26.78826 Y-22.84237
G01 X-26.74998 Y-22.84999
G01 X-23.24999 Y-22.84999
G01 X-23.21171 Y-22.84237
G01 X-23.17928 Y-22.82071
G01 X-23.16683 Y-22.80554
G01 X-23.15190 Y-22.76950
G01 X-23.14999 Y-22.34997
G01 X-21.55916 Y-22.34997
G01 X-12.95456 Y-30.95457
G01 X-12.74153 Y-31.12750
G01 X-12.51659 Y-31.24721
G01 X-12.27285 Y-31.32165
G01 X-11.99998 Y-31.34998
G01 X-5.99999 Y-31.34998
G01 X-5.73662 Y-31.32404
G01 X-5.49260 Y-31.25051
G01 X-5.25838 Y-31.12750
G01 X-5.04538 Y-30.95457
G01 X-3.04005 Y-28.94881
G01 X-2.91267 Y-28.79966
G01 X-2.80096 Y-28.61973
G01 X-2.71877 Y-28.42453
G01 X-2.66814 Y-28.21887
G01 X-2.64998 Y-27.99999
( Mill infeed pass 7/7 )
G01 Z-0.70000
G04 P0 ( dwell for no time -- G64 should not smooth over this point )
G01 F100.00000
G01 X-2.64998 Y-27.99999
G01 X-2.64998 Y-21.99998
G01 X-2.67447 Y-21.74631
G01 X-2.74945 Y-21.49259
G01 X-2.87749 Y-21.24994
G01 X-3.04538 Y-21.04537
G01 X-4.54538 Y-19.54538
G01 X-4.70030 Y-19.41266
G01 X-4.89422 Y-19.29381
G01 X-5.07543 Y-19.21876
G01 X-5.28109 Y-19.16814
G01 X-5.49999 Y-19.14997
G01 X-6.14997 Y-19.14997
G01 X-6.14997 Y-19.06250
G01 X-6.15899 Y-18.97672
G01 X-6.18566 Y-18.89470
G01 X-6.22308 Y-18.82882
G01 X-6.29460 Y-18.74937
G01 X-6.35625 Y-18.70525
G01 X-6.43501 Y-18.67017
G01 X-6.50903 Y-18.65389
G01 X-6.56255 Y-18.64998
G01 X-9.48063 Y-18.65226
G01 X-9.56495 Y-18.67017
G01 X-9.63440 Y-18.70050
G01 X-9.72091 Y-18.76334
G01 X-9.77120 Y-18.82003
G01 X-9.81433 Y-18.89470
G01 X-9.84098 Y-18.97672
G01 X-9.84999 Y-19.06250
G01 X-9.84999 Y-21.93750
G01 X-9.84098 Y-22.02325
G01 X-9.81433 Y-22.10526
G01 X-9.77120 Y-22.17994
G01 X-9.70537 Y-22.25063
G01 X-9.64374 Y-22.29472
G01 X-9.56495 Y-22.32980
G01 X-9.49094 Y-22.34608
G01 X-9.44273 Y-22.34984
G01 X-6.51932 Y-22.34773
G01 X-6.43501 Y-22.32980
G01 X-6.36554 Y-22.29947
G01 X-6.27906 Y-22.23663
G01 X-6.22877 Y-22.17994
G01 X-6.18190 Y-22.09549
G01 X-6.15737 Y-22.01291
G01 X-6.14997 Y-21.93750
G01 X-6.14997 Y-21.84997
G01 X-6.05917 Y-21.84997
G01 X-5.34998 Y-22.55916
G01 X-5.34998 Y-27.44079
G01 X-6.55917 Y-28.64998
G01 X-11.44077 Y-28.64998
G01 X-20.04538 Y-20.04538
G01 X-20.24995 Y-19.87748
G01 X-20.48335 Y-19.75274
G01 X-20.74631 Y-19.67446
G01 X-20.99998 Y-19.64997
G01 X-23.14999 Y-19.64997
G01 X-23.15190 Y-19.23047
G01 X-23.16683 Y-19.19442
G01 X-23.19444 Y-19.16684
G01 X-23.21171 Y-19.15759
G01 X-23.24999 Y-19.15000
G01 X-26.76949 Y-19.15190
G01 X-26.78826 Y-19.15759
G01 X-26.82070 Y-19.17929
G01 X-26.83314 Y-19.19442
G01 X-26.84805 Y-19.23047
G01 X-26.84998 Y-19.64997
G01 X-27.44079 Y-19.64997
G01 X-27.64998 Y-19.44078
G01 X-27.64998 Y-8.05917
G01 X-27.44079 Y-7.84997
G01 X-23.05916 Y-7.84997
G01 X-22.65456 Y-8.25457
G01 X-22.44156 Y-8.42749
G01 X-22.22546 Y-8.54301
G01 X-21.97285 Y-8.62165
G01 X-21.70976 Y-8.64949
G01 X-9.74999 Y-8.64997
G01 X-9.74999 Y-8.73750
G01 X-9.74098 Y-8.82325
G01 X-9.71433 Y-8.90527
G01 X-9.67120 Y-8.97994
G01 X-9.61349 Y-9.04403
G01 X-9.54375 Y-9.09472
G01 X-9.46495 Y-9.12980
G01 X-9.38060 Y-9.14773
G01 X-6.41934 Y-9.14773
G01 X-6.33501 Y-9.12980
G01 X-6.26557 Y-9.09947
G01 X-6.17906 Y-9.03663
G01 X-6.12877 Y-8.97994
G01 X-6.08566 Y-8.90527
G01 X-6.05899 Y-8.82325
G01 X-6.05053 Y-8.74794
G01 X-6.04998 Y-5.86250
G01 X-6.05899 Y-5.77672
G01 X-6.08566 Y-5.69471
G01 X-6.12877 Y-5.62003
G01 X-6.19460 Y-5.54934
G01 X-6.25625 Y-5.50525
G01 X-6.33501 Y-5.47017
G01 X-6.40903 Y-5.45389
G01 X-6.45724 Y-5.45013
G01 X-9.38063 Y-5.45226
G01 X-9.46495 Y-5.47017
G01 X-9.54375 Y-5.50525
G01 X-9.61349 Y-5.55595
G01 X-9.67120 Y-5.62003
G01 X-9.71433 Y-5.69471
G01 X-9.74098 Y-5.77672
G01 X-9.74999 Y-5.86250
G01 X-9.74999 Y-5.94998
G01 X-21.14078 Y-5.94998
G01 X-21.54537 Y-5.54538
G01 X-21.74994 Y-5.37748
G01 X-21.99259 Y-5.24944
G01 X-22.24631 Y-5.17446
G01 X-22.49998 Y-5.14998
G01 X-28.00782 Y-5.15028
G01 X-28.21887 Y-5.16814
G01 X-28.42453 Y-5.21876
G01 X-28.61973 Y-5.30095
G01 X-28.79966 Y-5.41266
G01 X-28.95458 Y-5.54538
G01 X-29.95458 Y-6.54535
G01 X-30.11663 Y-6.74207
G01 X-30.25051 Y-6.99259
G01 X-30.32404 Y-7.23661
G01 X-30.34998 Y-7.49998
G01 X-30.34949 Y-20.00976
G01 X-30.32549 Y-20.25363
G01 X-30.25051 Y-20.50735
G01 X-30.11663 Y-20.75787
G01 X-29.95458 Y-20.95457
G01 X-28.95458 Y-21.95457
G01 X-28.79966 Y-22.08728
G01 X-28.61973 Y-22.19899
G01 X-28.42453 Y-22.28118
G01 X-28.20337 Y-22.33427
G01 X-27.99999 Y-22.34997
G01 X-26.84998 Y-22.34997
G01 X-26.84805 Y-22.76950
G01 X-26.83314 Y-22.80554
G01 X-26.82070 Y-22.82071
G01 X-26.78826 Y-22.84237
G01 X-26.74998 Y-22.84999
G01 X-23.24999 Y-22.84999
G01 X-23.21171 Y-22.84237
G01 X-23.17928 Y-22.82071
G01 X-23.16683 Y-22.80554
G01 X-23.15190 Y-22.76950
G01 X-23.14999 Y-22.34997
G01 X-21.55916 Y-22.34997
G01 X-12.95456 Y-30.95457
G01 X-12.74153 Y-31.12750
G01 X-12.51659 Y-31.24721
G01 X-12.27285 Y-31.32165
G01 X-11.99998 Y-31.34998
G01 X-5.99999 Y-31.34998
G01 X-5.73662 Y-31.32404
G01 X-5.49260 Y-31.25051
G01 X-5.25838 Y-31.12750
G01 X-5.04538 Y-30.95457
G01 X-3.04005 Y-28.94881
G01 X-2.91267 Y-28.79966
G01 X-2.80096 Y-28.61973
G01 X-2.71877 Y-28.42453
G01 X-2.66814 Y-28.21887
G01 X-2.64998 Y-27.99999

G04 P0 ( dwell for no time -- G64 should not smooth over this point )
G00 Z2.000000 ( retract )

M5 ( Spindle off. )
G04 P1.000000
M9 ( Coolant off. )
M2 ( Program end. )

