( pcb2gcode 2.5.0 )
( Software-independent Gcode )

G94 ( Millimeters per minute feed rate. )
G21 ( Units == Millimeters. )

G90 ( Absolute coordinates. )
G00 S3000 ( RPM spindle speed. )
G01 F100.00000 ( Feedrate. )


G00 Z2.00000 (Retract to tool change height)
T0
M5      (Spindle stop.)
G04 P1.00000 (Wait for spindle to stop)
(MSG, Change tool bit to cutter diameter 1.50000mm)
M0      (Temporary machine stop.)
M3 ( Spindle on clockwise. )
G04 P1.00000 (Wait for spindle to get up to speed)
G04 P0 ( dwell for no time -- G64 should not smooth over this point )
G00 Z2.00000 ( retract )

G00 X-0.24999 Y-31.99999 ( rapid move to begin. )
G01 Z-0.09474 F50.00000 ( plunge. )
G04 P0 ( dwell for no time -- G64 should not smooth over this point )
G01 F100.00000
G01 X-0.24999 Y-17.74999
G01 X-0.24999 Y-15.24999
G01 X-0.24999 Y-1.00000
G01 X-0.26439 Y-0.85367
G01 X-0.30709 Y-0.71298
G01 X-0.37638 Y-0.58331
G01 X-0.46965 Y-0.46965
G01 X-0.58331 Y-0.37638
G01 X-0.71298 Y-0.30709
G01 X-0.85367 Y-0.26439
G01 X-1.00000 Y-0.24999
G01 X-14.74999 Y-0.24999
G01 X-17.24999 Y-0.24999
G01 X-30.99999 Y-0.24999
G01 X-31.14629 Y-0.26439
G01 X-31.28698 Y-0.30709
G01 X-31.41665 Y-0.37638
G01 X-31.53032 Y-0.46965
G01 X-31.62358 Y-0.58331
G01 X-31.69288 Y-0.71298
G01 X-31.73557 Y-0.85367
G01 X-31.74997 Y-1.00000
G01 X-31.74997 Y-15.24999
G01 X-31.74997 Y-17.74999
G01 X-31.74997 Y-31.99999
G01 X-31.73557 Y-32.14629
G01 X-31.69288 Y-32.28698
G01 X-31.62358 Y-32.41665
G01 X-31.53032 Y-32.53031
G01 X-31.41665 Y-32.62358
G01 X-31.28698 Y-32.69287
G01 X-31.14629 Y-32.73557
G01 X-30.99999 Y-32.74997
G01 X-17.24999 Y-32.74997
G01 X-14.74999 Y-32.74997
G01 X-1.00000 Y-32.74997
G01 X-0.85367 Y-32.73557
G01 X-0.71298 Y-32.69287
G01 X-0.58331 Y-32.62358
G01 X-0.46965 Y-32.53031
G01 X-0.37638 Y-32.41665
G01 X-0.30709 Y-32.28698
G01 X-0.26439 Y-32.14629
G01 X-0.24999 Y-31.99999
G01 Z-0.18947 F50.00000 ( plunge. )
G04 P0 ( dwell for no time -- G64 should not smooth over this point )
G01 F100.00000
G01 X-0.24999 Y-17.74999
G01 X-0.24999 Y-15.24999
G01 X-0.24999 Y-1.00000
G01 X-0.26439 Y-0.85367
G01 X-0.30709 Y-0.71298
G01 X-0.37638 Y-0.58331
G01 X-0.46965 Y-0.46965
G01 X-0.58331 Y-0.37638
G01 X-0.71298 Y-0.30709
G01 X-0.85367 Y-0.26439
G01 X-1.00000 Y-0.24999
G01 X-14.74999 Y-0.24999
G01 X-17.24999 Y-0.24999
G01 X-30.99999 Y-0.24999
G01 X-31.14629 Y-0.26439
G01 X-31.28698 Y-0.30709
G01 X-31.41665 Y-0.37638
G01 X-31.53032 Y-0.46965
G01 X-31.62358 Y-0.58331
G01 X-31.69288 Y-0.71298
G01 X-31.73557 Y-0.85367
G01 X-31.74997 Y-1.00000
G01 X-31.74997 Y-15.24999
G01 X-31.74997 Y-17.74999
G01 X-31.74997 Y-31.99999
G01 X-31.73557 Y-32.14629
G01 X-31.69288 Y-32.28698
G01 X-31.62358 Y-32.41665
G01 X-31.53032 Y-32.53031
G01 X-31.41665 Y-32.62358
G01 X-31.28698 Y-32.69287
G01 X-31.14629 Y-32.73557
G01 X-30.99999 Y-32.74997
G01 X-17.24999 Y-32.74997
G01 X-14.74999 Y-32.74997
G01 X-1.00000 Y-32.74997
G01 X-0.85367 Y-32.73557
G01 X-0.71298 Y-32.69287
G01 X-0.58331 Y-32.62358
G01 X-0.46965 Y-32.53031
G01 X-0.37638 Y-32.41665
G01 X-0.30709 Y-32.28698
G01 X-0.26439 Y-32.14629
G01 X-0.24999 Y-31.99999
G01 Z-0.28421 F50.00000 ( plunge. )
G04 P0 ( dwell for no time -- G64 should not smooth over this point )
G01 F100.00000
G01 X-0.24999 Y-17.74999
G01 X-0.24999 Y-15.24999
G01 X-0.24999 Y-1.00000
G01 X-0.26439 Y-0.85367
G01 X-0.30709 Y-0.71298
G01 X-0.37638 Y-0.58331
G01 X-0.46965 Y-0.46965
G01 X-0.58331 Y-0.37638
G01 X-0.71298 Y-0.30709
G01 X-0.85367 Y-0.26439
G01 X-1.00000 Y-0.24999
G01 X-14.74999 Y-0.24999
G01 X-17.24999 Y-0.24999
G01 X-30.99999 Y-0.24999
G01 X-31.14629 Y-0.26439
G01 X-31.28698 Y-0.30709
G01 X-31.41665 Y-0.37638
G01 X-31.53032 Y-0.46965
G01 X-31.62358 Y-0.58331
G01 X-31.69288 Y-0.71298
G01 X-31.73557 Y-0.85367
G01 X-31.74997 Y-1.00000
G01 X-31.74997 Y-15.24999
G01 X-31.74997 Y-17.74999
G01 X-31.74997 Y-31.99999
G01 X-31.73557 Y-32.14629
G01 X-31.69288 Y-32.28698
G01 X-31.62358 Y-32.41665
G01 X-31.53032 Y-32.53031
G01 X-31.41665 Y-32.62358
G01 X-31.28698 Y-32.69287
G01 X-31.14629 Y-32.73557
G01 X-30.99999 Y-32.74997
G01 X-17.24999 Y-32.74997
G01 X-14.74999 Y-32.74997
G01 X-1.00000 Y-32.74997
G01 X-0.85367 Y-32.73557
G01 X-0.71298 Y-32.69287
G01 X-0.58331 Y-32.62358
G01 X-0.46965 Y-32.53031
G01 X-0.37638 Y-32.41665
G01 X-0.30709 Y-32.28698
G01 X-0.26439 Y-32.14629
G01 X-0.24999 Y-31.99999
G01 Z-0.37895 F50.00000 ( plunge. )
G04 P0 ( dwell for no time -- G64 should not smooth over this point )
G01 F100.00000
G01 X-0.24999 Y-17.74999
G01 X-0.24999 Y-15.24999
G01 X-0.24999 Y-1.00000
G01 X-0.26439 Y-0.85367
G01 X-0.30709 Y-0.71298
G01 X-0.37638 Y-0.58331
G01 X-0.46965 Y-0.46965
G01 X-0.58331 Y-0.37638
G01 X-0.71298 Y-0.30709
G01 X-0.85367 Y-0.26439
G01 X-1.00000 Y-0.24999
G01 X-14.74999 Y-0.24999
G01 X-17.24999 Y-0.24999
G01 X-30.99999 Y-0.24999
G01 X-31.14629 Y-0.26439
G01 X-31.28698 Y-0.30709
G01 X-31.41665 Y-0.37638
G01 X-31.53032 Y-0.46965
G01 X-31.62358 Y-0.58331
G01 X-31.69288 Y-0.71298
G01 X-31.73557 Y-0.85367
G01 X-31.74997 Y-1.00000
G01 X-31.74997 Y-15.24999
G01 X-31.74997 Y-17.74999
G01 X-31.74997 Y-31.99999
G01 X-31.73557 Y-32.14629
G01 X-31.69288 Y-32.28698
G01 X-31.62358 Y-32.41665
G01 X-31.53032 Y-32.53031
G01 X-31.41665 Y-32.62358
G01 X-31.28698 Y-32.69287
G01 X-31.14629 Y-32.73557
G01 X-30.99999 Y-32.74997
G01 X-17.24999 Y-32.74997
G01 X-14.74999 Y-32.74997
G01 X-1.00000 Y-32.74997
G01 X-0.85367 Y-32.73557
G01 X-0.71298 Y-32.69287
G01 X-0.58331 Y-32.62358
G01 X-0.46965 Y-32.53031
G01 X-0.37638 Y-32.41665
G01 X-0.30709 Y-32.28698
G01 X-0.26439 Y-32.14629
G01 X-0.24999 Y-31.99999
G01 Z-0.47368 F50.00000 ( plunge. )
G04 P0 ( dwell for no time -- G64 should not smooth over this point )
G01 F100.00000
G01 X-0.24999 Y-17.74999
G01 X-0.24999 Y-15.24999
G01 X-0.24999 Y-1.00000
G01 X-0.26439 Y-0.85367
G01 X-0.30709 Y-0.71298
G01 X-0.37638 Y-0.58331
G01 X-0.46965 Y-0.46965
G01 X-0.58331 Y-0.37638
G01 X-0.71298 Y-0.30709
G01 X-0.85367 Y-0.26439
G01 X-1.00000 Y-0.24999
G01 X-14.74999 Y-0.24999
G01 X-17.24999 Y-0.24999
G01 X-30.99999 Y-0.24999
G01 X-31.14629 Y-0.26439
G01 X-31.28698 Y-0.30709
G01 X-31.41665 Y-0.37638
G01 X-31.53032 Y-0.46965
G01 X-31.62358 Y-0.58331
G01 X-31.69288 Y-0.71298
G01 X-31.73557 Y-0.85367
G01 X-31.74997 Y-1.00000
G01 X-31.74997 Y-15.24999
G01 X-31.74997 Y-17.74999
G01 X-31.74997 Y-31.99999
G01 X-31.73557 Y-32.14629
G01 X-31.69288 Y-32.28698
G01 X-31.62358 Y-32.41665
G01 X-31.53032 Y-32.53031
G01 X-31.41665 Y-32.62358
G01 X-31.28698 Y-32.69287
G01 X-31.14629 Y-32.73557
G01 X-30.99999 Y-32.74997
G01 X-17.24999 Y-32.74997
G01 X-14.74999 Y-32.74997
G01 X-1.00000 Y-32.74997
G01 X-0.85367 Y-32.73557
G01 X-0.71298 Y-32.69287
G01 X-0.58331 Y-32.62358
G01 X-0.46965 Y-32.53031
G01 X-0.37638 Y-32.41665
G01 X-0.30709 Y-32.28698
G01 X-0.26439 Y-32.14629
G01 X-0.24999 Y-31.99999
G01 Z-0.56842 F50.00000 ( plunge. )
G04 P0 ( dwell for no time -- G64 should not smooth over this point )
G01 F100.00000
G01 X-0.24999 Y-17.74999
G00 Z-0.50000
G01 X-0.24999 Y-15.24999
G01 Z-0.56842 F50.00000
G01 F100.00000
G01 X-0.24999 Y-1.00000
G01 X-0.26439 Y-0.85367
G01 X-0.30709 Y-0.71298
G01 X-0.37638 Y-0.58331
G01 X-0.46965 Y-0.46965
G01 X-0.58331 Y-0.37638
G01 X-0.71298 Y-0.30709
G01 X-0.85367 Y-0.26439
G01 X-1.00000 Y-0.24999
G01 X-14.74999 Y-0.24999
G00 Z-0.50000
G01 X-17.24999 Y-0.24999
G01 Z-0.56842 F50.00000
G01 F100.00000
G01 X-30.99999 Y-0.24999
G01 X-31.14629 Y-0.26439
G01 X-31.28698 Y-0.30709
G01 X-31.41665 Y-0.37638
G01 X-31.53032 Y-0.46965
G01 X-31.62358 Y-0.58331
G01 X-31.69288 Y-0.71298
G01 X-31.73557 Y-0.85367
G01 X-31.74997 Y-1.00000
G01 X-31.74997 Y-15.24999
G00 Z-0.50000
G01 X-31.74997 Y-17.74999
G01 Z-0.56842 F50.00000
G01 F100.00000
G01 X-31.74997 Y-31.99999
G01 X-31.73557 Y-32.14629
G01 X-31.69288 Y-32.28698
G01 X-31.62358 Y-32.41665
G01 X-31.53032 Y-32.53031
G01 X-31.41665 Y-32.62358
G01 X-31.28698 Y-32.69287
G01 X-31.14629 Y-32.73557
G01 X-30.99999 Y-32.74997
G01 X-17.24999 Y-32.74997
G00 Z-0.50000
G01 X-14.74999 Y-32.74997
G01 Z-0.56842 F50.00000
G01 F100.00000
G01 X-1.00000 Y-32.74997
G01 X-0.85367 Y-32.73557
G01 X-0.71298 Y-32.69287
G01 X-0.58331 Y-32.62358
G01 X-0.46965 Y-32.53031
G01 X-0.37638 Y-32.41665
G01 X-0.30709 Y-32.28698
G01 X-0.26439 Y-32.14629
G01 X-0.24999 Y-31.99999
G01 Z-0.66316 F50.00000 ( plunge. )
G04 P0 ( dwell for no time -- G64 should not smooth over this point )
G01 F100.00000
G01 X-0.24999 Y-17.74999
G00 Z-0.50000
G01 X-0.24999 Y-15.24999
G01 Z-0.66316 F50.00000
G01 F100.00000
G01 X-0.24999 Y-1.00000
G01 X-0.26439 Y-0.85367
G01 X-0.30709 Y-0.71298
G01 X-0.37638 Y-0.58331
G01 X-0.46965 Y-0.46965
G01 X-0.58331 Y-0.37638
G01 X-0.71298 Y-0.30709
G01 X-0.85367 Y-0.26439
G01 X-1.00000 Y-0.24999
G01 X-14.74999 Y-0.24999
G00 Z-0.50000
G01 X-17.24999 Y-0.24999
G01 Z-0.66316 F50.00000
G01 F100.00000
G01 X-30.99999 Y-0.24999
G01 X-31.14629 Y-0.26439
G01 X-31.28698 Y-0.30709
G01 X-31.41665 Y-0.37638
G01 X-31.53032 Y-0.46965
G01 X-31.62358 Y-0.58331
G01 X-31.69288 Y-0.71298
G01 X-31.73557 Y-0.85367
G01 X-31.74997 Y-1.00000
G01 X-31.74997 Y-15.24999
G00 Z-0.50000
G01 X-31.74997 Y-17.74999
G01 Z-0.66316 F50.00000
G01 F100.00000
G01 X-31.74997 Y-31.99999
G01 X-31.73557 Y-32.14629
G01 X-31.69288 Y-32.28698
G01 X-31.62358 Y-32.41665
G01 X-31.53032 Y-32.53031
G01 X-31.41665 Y-32.62358
G01 X-31.28698 Y-32.69287
G01 X-31.14629 Y-32.73557
G01 X-30.99999 Y-32.74997
G01 X-17.24999 Y-32.74997
G00 Z-0.50000
G01 X-14.74999 Y-32.74997
G01 Z-0.66316 F50.00000
G01 F100.00000
G01 X-1.00000 Y-32.74997
G01 X-0.85367 Y-32.73557
G01 X-0.71298 Y-32.69287
G01 X-0.58331 Y-32.62358
G01 X-0.46965 Y-32.53031
G01 X-0.37638 Y-32.41665
G01 X-0.30709 Y-32.28698
G01 X-0.26439 Y-32.14629
G01 X-0.24999 Y-31.99999
G01 Z-0.75789 F50.00000 ( plunge. )
G04 P0 ( dwell for no time -- G64 should not smooth over this point )
G01 F100.00000
G01 X-0.24999 Y-17.74999
G00 Z-0.50000
G01 X-0.24999 Y-15.24999
G01 Z-0.75789 F50.00000
G01 F100.00000
G01 X-0.24999 Y-1.00000
G01 X-0.26439 Y-0.85367
G01 X-0.30709 Y-0.71298
G01 X-0.37638 Y-0.58331
G01 X-0.46965 Y-0.46965
G01 X-0.58331 Y-0.37638
G01 X-0.71298 Y-0.30709
G01 X-0.85367 Y-0.26439
G01 X-1.00000 Y-0.24999
G01 X-14.74999 Y-0.24999
G00 Z-0.50000
G01 X-17.24999 Y-0.24999
G01 Z-0.75789 F50.00000
G01 F100.00000
G01 X-30.99999 Y-0.24999
G01 X-31.14629 Y-0.26439
G01 X-31.28698 Y-0.30709
G01 X-31.41665 Y-0.37638
G01 X-31.53032 Y-0.46965
G01 X-31.62358 Y-0.58331
G01 X-31.69288 Y-0.71298
G01 X-31.73557 Y-0.85367
G01 X-31.74997 Y-1.00000
G01 X-31.74997 Y-15.24999
G00 Z-0.50000
G01 X-31.74997 Y-17.74999
G01 Z-0.75789 F50.00000
G01 F100.00000
G01 X-31.74997 Y-31.99999
G01 X-31.73557 Y-32.14629
G01 X-31.69288 Y-32.28698
G01 X-31.62358 Y-32.41665
G01 X-31.53032 Y-32.53031
G01 X-31.41665 Y-32.62358
G01 X-31.28698 Y-32.69287
G01 X-31.14629 Y-32.73557
G01 X-30.99999 Y-32.74997
G01 X-17.24999 Y-32.74997
G00 Z-0.50000
G01 X-14.74999 Y-32.74997
G01 Z-0.75789 F50.00000
G01 F100.00000
G01 X-1.00000 Y-32.74997
G01 X-0.85367 Y-32.73557
G01 X-0.71298 Y-32.69287
G01 X-0.58331 Y-32.62358
G01 X-0.46965 Y-32.53031
G01 X-0.37638 Y-32.41665
G01 X-0.30709 Y-32.28698
G01 X-0.26439 Y-32.14629
G01 X-0.24999 Y-31.99999
G01 Z-0.85263 F50.00000 ( plunge. )
G04 P0 ( dwell for no time -- G64 should not smooth over this point )
G01 F100.00000
G01 X-0.24999 Y-17.74999
G00 Z-0.50000
G01 X-0.24999 Y-15.24999
G01 Z-0.85263 F50.00000
G01 F100.00000
G01 X-0.24999 Y-1.00000
G01 X-0.26439 Y-0.85367
G01 X-0.30709 Y-0.71298
G01 X-0.37638 Y-0.58331
G01 X-0.46965 Y-0.46965
G01 X-0.58331 Y-0.37638
G01 X-0.71298 Y-0.30709
G01 X-0.85367 Y-0.26439
G01 X-1.00000 Y-0.24999
G01 X-14.74999 Y-0.24999
G00 Z-0.50000
G01 X-17.24999 Y-0.24999
G01 Z-0.85263 F50.00000
G01 F100.00000
G01 X-30.99999 Y-0.24999
G01 X-31.14629 Y-0.26439
G01 X-31.28698 Y-0.30709
G01 X-31.41665 Y-0.37638
G01 X-31.53032 Y-0.46965
G01 X-31.62358 Y-0.58331
G01 X-31.69288 Y-0.71298
G01 X-31.73557 Y-0.85367
G01 X-31.74997 Y-1.00000
G01 X-31.74997 Y-15.24999
G00 Z-0.50000
G01 X-31.74997 Y-17.74999
G01 Z-0.85263 F50.00000
G01 F100.00000
G01 X-31.74997 Y-31.99999
G01 X-31.73557 Y-32.14629
G01 X-31.69288 Y-32.28698
G01 X-31.62358 Y-32.41665
G01 X-31.53032 Y-32.53031
G01 X-31.41665 Y-32.62358
G01 X-31.28698 Y-32.69287
G01 X-31.14629 Y-32.73557
G01 X-30.99999 Y-32.74997
G01 X-17.24999 Y-32.74997
G00 Z-0.50000
G01 X-14.74999 Y-32.74997
G01 Z-0.85263 F50.00000
G01 F100.00000
G01 X-1.00000 Y-32.74997
G01 X-0.85367 Y-32.73557
G01 X-0.71298 Y-32.69287
G01 X-0.58331 Y-32.62358
G01 X-0.46965 Y-32.53031
G01 X-0.37638 Y-32.41665
G01 X-0.30709 Y-32.28698
G01 X-0.26439 Y-32.14629
G01 X-0.24999 Y-31.99999
G01 Z-0.94737 F50.00000 ( plunge. )
G04 P0 ( dwell for no time -- G64 should not smooth over this point )
G01 F100.00000
G01 X-0.24999 Y-17.74999
G00 Z-0.50000
G01 X-0.24999 Y-15.24999
G01 Z-0.94737 F50.00000
G01 F100.00000
G01 X-0.24999 Y-1.00000
G01 X-0.26439 Y-0.85367
G01 X-0.30709 Y-0.71298
G01 X-0.37638 Y-0.58331
G01 X-0.46965 Y-0.46965
G01 X-0.58331 Y-0.37638
G01 X-0.71298 Y-0.30709
G01 X-0.85367 Y-0.26439
G01 X-1.00000 Y-0.24999
G01 X-14.74999 Y-0.24999
G00 Z-0.50000
G01 X-17.24999 Y-0.24999
G01 Z-0.94737 F50.00000
G01 F100.00000
G01 X-30.99999 Y-0.24999
G01 X-31.14629 Y-0.26439
G01 X-31.28698 Y-0.30709
G01 X-31.41665 Y-0.37638
G01 X-31.53032 Y-0.46965
G01 X-31.62358 Y-0.58331
G01 X-31.69288 Y-0.71298
G01 X-31.73557 Y-0.85367
G01 X-31.74997 Y-1.00000
G01 X-31.74997 Y-15.24999
G00 Z-0.50000
G01 X-31.74997 Y-17.74999
G01 Z-0.94737 F50.00000
G01 F100.00000
G01 X-31.74997 Y-31.99999
G01 X-31.73557 Y-32.14629
G01 X-31.69288 Y-32.28698
G01 X-31.62358 Y-32.41665
G01 X-31.53032 Y-32.53031
G01 X-31.41665 Y-32.62358
G01 X-31.28698 Y-32.69287
G01 X-31.14629 Y-32.73557
G01 X-30.99999 Y-32.74997
G01 X-17.24999 Y-32.74997
G00 Z-0.50000
G01 X-14.74999 Y-32.74997
G01 Z-0.94737 F50.00000
G01 F100.00000
G01 X-1.00000 Y-32.74997
G01 X-0.85367 Y-32.73557
G01 X-0.71298 Y-32.69287
G01 X-0.58331 Y-32.62358
G01 X-0.46965 Y-32.53031
G01 X-0.37638 Y-32.41665
G01 X-0.30709 Y-32.28698
G01 X-0.26439 Y-32.14629
G01 X-0.24999 Y-31.99999
G01 Z-1.04211 F50.00000 ( plunge. )
G04 P0 ( dwell for no time -- G64 should not smooth over this point )
G01 F100.00000
G01 X-0.24999 Y-17.74999
G00 Z-0.50000
G01 X-0.24999 Y-15.24999
G01 Z-1.04211 F50.00000
G01 F100.00000
G01 X-0.24999 Y-1.00000
G01 X-0.26439 Y-0.85367
G01 X-0.30709 Y-0.71298
G01 X-0.37638 Y-0.58331
G01 X-0.46965 Y-0.46965
G01 X-0.58331 Y-0.37638
G01 X-0.71298 Y-0.30709
G01 X-0.85367 Y-0.26439
G01 X-1.00000 Y-0.24999
G01 X-14.74999 Y-0.24999
G00 Z-0.50000
G01 X-17.24999 Y-0.24999
G01 Z-1.04211 F50.00000
G01 F100.00000
G01 X-30.99999 Y-0.24999
G01 X-31.14629 Y-0.26439
G01 X-31.28698 Y-0.30709
G01 X-31.41665 Y-0.37638
G01 X-31.53032 Y-0.46965
G01 X-31.62358 Y-0.58331
G01 X-31.69288 Y-0.71298
G01 X-31.73557 Y-0.85367
G01 X-31.74997 Y-1.00000
G01 X-31.74997 Y-15.24999
G00 Z-0.50000
G01 X-31.74997 Y-17.74999
G01 Z-1.04211 F50.00000
G01 F100.00000
G01 X-31.74997 Y-31.99999
G01 X-31.73557 Y-32.14629
G01 X-31.69288 Y-32.28698
G01 X-31.62358 Y-32.41665
G01 X-31.53032 Y-32.53031
G01 X-31.41665 Y-32.62358
G01 X-31.28698 Y-32.69287
G01 X-31.14629 Y-32.73557
G01 X-30.99999 Y-32.74997
G01 X-17.24999 Y-32.74997
G00 Z-0.50000
G01 X-14.74999 Y-32.74997
G01 Z-1.04211 F50.00000
G01 F100.00000
G01 X-1.00000 Y-32.74997
G01 X-0.85367 Y-32.73557
G01 X-0.71298 Y-32.69287
G01 X-0.58331 Y-32.62358
G01 X-0.46965 Y-32.53031
G01 X-0.37638 Y-32.41665
G01 X-0.30709 Y-32.28698
G01 X-0.26439 Y-32.14629
G01 X-0.24999 Y-31.99999
G01 Z-1.13684 F50.00000 ( plunge. )
G04 P0 ( dwell for no time -- G64 should not smooth over this point )
G01 F100.00000
G01 X-0.24999 Y-17.74999
G00 Z-0.50000
G01 X-0.24999 Y-15.24999
G01 Z-1.13684 F50.00000
G01 F100.00000
G01 X-0.24999 Y-1.00000
G01 X-0.26439 Y-0.85367
G01 X-0.30709 Y-0.71298
G01 X-0.37638 Y-0.58331
G01 X-0.46965 Y-0.46965
G01 X-0.58331 Y-0.37638
G01 X-0.71298 Y-0.30709
G01 X-0.85367 Y-0.26439
G01 X-1.00000 Y-0.24999
G01 X-14.74999 Y-0.24999
G00 Z-0.50000
G01 X-17.24999 Y-0.24999
G01 Z-1.13684 F50.00000
G01 F100.00000
G01 X-30.99999 Y-0.24999
G01 X-31.14629 Y-0.26439
G01 X-31.28698 Y-0.30709
G01 X-31.41665 Y-0.37638
G01 X-31.53032 Y-0.46965
G01 X-31.62358 Y-0.58331
G01 X-31.69288 Y-0.71298
G01 X-31.73557 Y-0.85367
G01 X-31.74997 Y-1.00000
G01 X-31.74997 Y-15.24999
G00 Z-0.50000
G01 X-31.74997 Y-17.74999
G01 Z-1.13684 F50.00000
G01 F100.00000
G01 X-31.74997 Y-31.99999
G01 X-31.73557 Y-32.14629
G01 X-31.69288 Y-32.28698
G01 X-31.62358 Y-32.41665
G01 X-31.53032 Y-32.53031
G01 X-31.41665 Y-32.62358
G01 X-31.28698 Y-32.69287
G01 X-31.14629 Y-32.73557
G01 X-30.99999 Y-32.74997
G01 X-17.24999 Y-32.74997
G00 Z-0.50000
G01 X-14.74999 Y-32.74997
G01 Z-1.13684 F50.00000
G01 F100.00000
G01 X-1.00000 Y-32.74997
G01 X-0.85367 Y-32.73557
G01 X-0.71298 Y-32.69287
G01 X-0.58331 Y-32.62358
G01 X-0.46965 Y-32.53031
G01 X-0.37638 Y-32.41665
G01 X-0.30709 Y-32.28698
G01 X-0.26439 Y-32.14629
G01 X-0.24999 Y-31.99999
G01 Z-1.23158 F50.00000 ( plunge. )
G04 P0 ( dwell for no time -- G64 should not smooth over this point )
G01 F100.00000
G01 X-0.24999 Y-17.74999
G00 Z-0.50000
G01 X-0.24999 Y-15.24999
G01 Z-1.23158 F50.00000
G01 F100.00000
G01 X-0.24999 Y-1.00000
G01 X-0.26439 Y-0.85367
G01 X-0.30709 Y-0.71298
G01 X-0.37638 Y-0.58331
G01 X-0.46965 Y-0.46965
G01 X-0.58331 Y-0.37638
G01 X-0.71298 Y-0.30709
G01 X-0.85367 Y-0.26439
G01 X-1.00000 Y-0.24999
G01 X-14.74999 Y-0.24999
G00 Z-0.50000
G01 X-17.24999 Y-0.24999
G01 Z-1.23158 F50.00000
G01 F100.00000
G01 X-30.99999 Y-0.24999
G01 X-31.14629 Y-0.26439
G01 X-31.28698 Y-0.30709
G01 X-31.41665 Y-0.37638
G01 X-31.53032 Y-0.46965
G01 X-31.62358 Y-0.58331
G01 X-31.69288 Y-0.71298
G01 X-31.73557 Y-0.85367
G01 X-31.74997 Y-1.00000
G01 X-31.74997 Y-15.24999
G00 Z-0.50000
G01 X-31.74997 Y-17.74999
G01 Z-1.23158 F50.00000
G01 F100.00000
G01 X-31.74997 Y-31.99999
G01 X-31.73557 Y-32.14629
G01 X-31.69288 Y-32.28698
G01 X-31.62358 Y-32.41665
G01 X-31.53032 Y-32.53031
G01 X-31.41665 Y-32.62358
G01 X-31.28698 Y-32.69287
G01 X-31.14629 Y-32.73557
G01 X-30.99999 Y-32.74997
G01 X-17.24999 Y-32.74997
G00 Z-0.50000
G01 X-14.74999 Y-32.74997
G01 Z-1.23158 F50.00000
G01 F100.00000
G01 X-1.00000 Y-32.74997
G01 X-0.85367 Y-32.73557
G01 X-0.71298 Y-32.69287
G01 X-0.58331 Y-32.62358
G01 X-0.46965 Y-32.53031
G01 X-0.37638 Y-32.41665
G01 X-0.30709 Y-32.28698
G01 X-0.26439 Y-32.14629
G01 X-0.24999 Y-31.99999
G01 Z-1.32632 F50.00000 ( plunge. )
G04 P0 ( dwell for no time -- G64 should not smooth over this point )
G01 F100.00000
G01 X-0.24999 Y-17.74999
G00 Z-0.50000
G01 X-0.24999 Y-15.24999
G01 Z-1.32632 F50.00000
G01 F100.00000
G01 X-0.24999 Y-1.00000
G01 X-0.26439 Y-0.85367
G01 X-0.30709 Y-0.71298
G01 X-0.37638 Y-0.58331
G01 X-0.46965 Y-0.46965
G01 X-0.58331 Y-0.37638
G01 X-0.71298 Y-0.30709
G01 X-0.85367 Y-0.26439
G01 X-1.00000 Y-0.24999
G01 X-14.74999 Y-0.24999
G00 Z-0.50000
G01 X-17.24999 Y-0.24999
G01 Z-1.32632 F50.00000
G01 F100.00000
G01 X-30.99999 Y-0.24999
G01 X-31.14629 Y-0.26439
G01 X-31.28698 Y-0.30709
G01 X-31.41665 Y-0.37638
G01 X-31.53032 Y-0.46965
G01 X-31.62358 Y-0.58331
G01 X-31.69288 Y-0.71298
G01 X-31.73557 Y-0.85367
G01 X-31.74997 Y-1.00000
G01 X-31.74997 Y-15.24999
G00 Z-0.50000
G01 X-31.74997 Y-17.74999
G01 Z-1.32632 F50.00000
G01 F100.00000
G01 X-31.74997 Y-31.99999
G01 X-31.73557 Y-32.14629
G01 X-31.69288 Y-32.28698
G01 X-31.62358 Y-32.41665
G01 X-31.53032 Y-32.53031
G01 X-31.41665 Y-32.62358
G01 X-31.28698 Y-32.69287
G01 X-31.14629 Y-32.73557
G01 X-30.99999 Y-32.74997
G01 X-17.24999 Y-32.74997
G00 Z-0.50000
G01 X-14.74999 Y-32.74997
G01 Z-1.32632 F50.00000
G01 F100.00000
G01 X-1.00000 Y-32.74997
G01 X-0.85367 Y-32.73557
G01 X-0.71298 Y-32.69287
G01 X-0.58331 Y-32.62358
G01 X-0.46965 Y-32.53031
G01 X-0.37638 Y-32.41665
G01 X-0.30709 Y-32.28698
G01 X-0.26439 Y-32.14629
G01 X-0.24999 Y-31.99999
G01 Z-1.42105 F50.00000 ( plunge. )
G04 P0 ( dwell for no time -- G64 should not smooth over this point )
G01 F100.00000
G01 X-0.24999 Y-17.74999
G00 Z-0.50000
G01 X-0.24999 Y-15.24999
G01 Z-1.42105 F50.00000
G01 F100.00000
G01 X-0.24999 Y-1.00000
G01 X-0.26439 Y-0.85367
G01 X-0.30709 Y-0.71298
G01 X-0.37638 Y-0.58331
G01 X-0.46965 Y-0.46965
G01 X-0.58331 Y-0.37638
G01 X-0.71298 Y-0.30709
G01 X-0.85367 Y-0.26439
G01 X-1.00000 Y-0.24999
G01 X-14.74999 Y-0.24999
G00 Z-0.50000
G01 X-17.24999 Y-0.24999
G01 Z-1.42105 F50.00000
G01 F100.00000
G01 X-30.99999 Y-0.24999
G01 X-31.14629 Y-0.26439
G01 X-31.28698 Y-0.30709
G01 X-31.41665 Y-0.37638
G01 X-31.53032 Y-0.46965
G01 X-31.62358 Y-0.58331
G01 X-31.69288 Y-0.71298
G01 X-31.73557 Y-0.85367
G01 X-31.74997 Y-1.00000
G01 X-31.74997 Y-15.24999
G00 Z-0.50000
G01 X-31.74997 Y-17.74999
G01 Z-1.42105 F50.00000
G01 F100.00000
G01 X-31.74997 Y-31.99999
G01 X-31.73557 Y-32.14629
G01 X-31.69288 Y-32.28698
G01 X-31.62358 Y-32.41665
G01 X-31.53032 Y-32.53031
G01 X-31.41665 Y-32.62358
G01 X-31.28698 Y-32.69287
G01 X-31.14629 Y-32.73557
G01 X-30.99999 Y-32.74997
G01 X-17.24999 Y-32.74997
G00 Z-0.50000
G01 X-14.74999 Y-32.74997
G01 Z-1.42105 F50.00000
G01 F100.00000
G01 X-1.00000 Y-32.74997
G01 X-0.85367 Y-32.73557
G01 X-0.71298 Y-32.69287
G01 X-0.58331 Y-32.62358
G01 X-0.46965 Y-32.53031
G01 X-0.37638 Y-32.41665
G01 X-0.30709 Y-32.28698
G01 X-0.26439 Y-32.14629
G01 X-0.24999 Y-31.99999
G01 Z-1.51579 F50.00000 ( plunge. )
G04 P0 ( dwell for no time -- G64 should not smooth over this point )
G01 F100.00000
G01 X-0.24999 Y-17.74999
G00 Z-0.50000
G01 X-0.24999 Y-15.24999
G01 Z-1.51579 F50.00000
G01 F100.00000
G01 X-0.24999 Y-1.00000
G01 X-0.26439 Y-0.85367
G01 X-0.30709 Y-0.71298
G01 X-0.37638 Y-0.58331
G01 X-0.46965 Y-0.46965
G01 X-0.58331 Y-0.37638
G01 X-0.71298 Y-0.30709
G01 X-0.85367 Y-0.26439
G01 X-1.00000 Y-0.24999
G01 X-14.74999 Y-0.24999
G00 Z-0.50000
G01 X-17.24999 Y-0.24999
G01 Z-1.51579 F50.00000
G01 F100.00000
G01 X-30.99999 Y-0.24999
G01 X-31.14629 Y-0.26439
G01 X-31.28698 Y-0.30709
G01 X-31.41665 Y-0.37638
G01 X-31.53032 Y-0.46965
G01 X-31.62358 Y-0.58331
G01 X-31.69288 Y-0.71298
G01 X-31.73557 Y-0.85367
G01 X-31.74997 Y-1.00000
G01 X-31.74997 Y-15.24999
G00 Z-0.50000
G01 X-31.74997 Y-17.74999
G01 Z-1.51579 F50.00000
G01 F100.00000
G01 X-31.74997 Y-31.99999
G01 X-31.73557 Y-32.14629
G01 X-31.69288 Y-32.28698
G01 X-31.62358 Y-32.41665
G01 X-31.53032 Y-32.53031
G01 X-31.41665 Y-32.62358
G01 X-31.28698 Y-32.69287
G01 X-31.14629 Y-32.73557
G01 X-30.99999 Y-32.74997
G01 X-17.24999 Y-32.74997
G00 Z-0.50000
G01 X-14.74999 Y-32.74997
G01 Z-1.51579 F50.00000
G01 F100.00000
G01 X-1.00000 Y-32.74997
G01 X-0.85367 Y-32.73557
G01 X-0.71298 Y-32.69287
G01 X-0.58331 Y-32.62358
G01 X-0.46965 Y-32.53031
G01 X-0.37638 Y-32.41665
G01 X-0.30709 Y-32.28698
G01 X-0.26439 Y-32.14629
G01 X-0.24999 Y-31.99999
G01 Z-1.61053 F50.00000 ( plunge. )
G04 P0 ( dwell for no time -- G64 should not smooth over this point )
G01 F100.00000
G01 X-0.24999 Y-17.74999
G00 Z-0.50000
G01 X-0.24999 Y-15.24999
G01 Z-1.61053 F50.00000
G01 F100.00000
G01 X-0.24999 Y-1.00000
G01 X-0.26439 Y-0.85367
G01 X-0.30709 Y-0.71298
G01 X-0.37638 Y-0.58331
G01 X-0.46965 Y-0.46965
G01 X-0.58331 Y-0.37638
G01 X-0.71298 Y-0.30709
G01 X-0.85367 Y-0.26439
G01 X-1.00000 Y-0.24999
G01 X-14.74999 Y-0.24999
G00 Z-0.50000
G01 X-17.24999 Y-0.24999
G01 Z-1.61053 F50.00000
G01 F100.00000
G01 X-30.99999 Y-0.24999
G01 X-31.14629 Y-0.26439
G01 X-31.28698 Y-0.30709
G01 X-31.41665 Y-0.37638
G01 X-31.53032 Y-0.46965
G01 X-31.62358 Y-0.58331
G01 X-31.69288 Y-0.71298
G01 X-31.73557 Y-0.85367
G01 X-31.74997 Y-1.00000
G01 X-31.74997 Y-15.24999
G00 Z-0.50000
G01 X-31.74997 Y-17.74999
G01 Z-1.61053 F50.00000
G01 F100.00000
G01 X-31.74997 Y-31.99999
G01 X-31.73557 Y-32.14629
G01 X-31.69288 Y-32.28698
G01 X-31.62358 Y-32.41665
G01 X-31.53032 Y-32.53031
G01 X-31.41665 Y-32.62358
G01 X-31.28698 Y-32.69287
G01 X-31.14629 Y-32.73557
G01 X-30.99999 Y-32.74997
G01 X-17.24999 Y-32.74997
G00 Z-0.50000
G01 X-14.74999 Y-32.74997
G01 Z-1.61053 F50.00000
G01 F100.00000
G01 X-1.00000 Y-32.74997
G01 X-0.85367 Y-32.73557
G01 X-0.71298 Y-32.69287
G01 X-0.58331 Y-32.62358
G01 X-0.46965 Y-32.53031
G01 X-0.37638 Y-32.41665
G01 X-0.30709 Y-32.28698
G01 X-0.26439 Y-32.14629
G01 X-0.24999 Y-31.99999
G01 Z-1.70526 F50.00000 ( plunge. )
G04 P0 ( dwell for no time -- G64 should not smooth over this point )
G01 F100.00000
G01 X-0.24999 Y-17.74999
G00 Z-0.50000
G01 X-0.24999 Y-15.24999
G01 Z-1.70526 F50.00000
G01 F100.00000
G01 X-0.24999 Y-1.00000
G01 X-0.26439 Y-0.85367
G01 X-0.30709 Y-0.71298
G01 X-0.37638 Y-0.58331
G01 X-0.46965 Y-0.46965
G01 X-0.58331 Y-0.37638
G01 X-0.71298 Y-0.30709
G01 X-0.85367 Y-0.26439
G01 X-1.00000 Y-0.24999
G01 X-14.74999 Y-0.24999
G00 Z-0.50000
G01 X-17.24999 Y-0.24999
G01 Z-1.70526 F50.00000
G01 F100.00000
G01 X-30.99999 Y-0.24999
G01 X-31.14629 Y-0.26439
G01 X-31.28698 Y-0.30709
G01 X-31.41665 Y-0.37638
G01 X-31.53032 Y-0.46965
G01 X-31.62358 Y-0.58331
G01 X-31.69288 Y-0.71298
G01 X-31.73557 Y-0.85367
G01 X-31.74997 Y-1.00000
G01 X-31.74997 Y-15.24999
G00 Z-0.50000
G01 X-31.74997 Y-17.74999
G01 Z-1.70526 F50.00000
G01 F100.00000
G01 X-31.74997 Y-31.99999
G01 X-31.73557 Y-32.14629
G01 X-31.69288 Y-32.28698
G01 X-31.62358 Y-32.41665
G01 X-31.53032 Y-32.53031
G01 X-31.41665 Y-32.62358
G01 X-31.28698 Y-32.69287
G01 X-31.14629 Y-32.73557
G01 X-30.99999 Y-32.74997
G01 X-17.24999 Y-32.74997
G00 Z-0.50000
G01 X-14.74999 Y-32.74997
G01 Z-1.70526 F50.00000
G01 F100.00000
G01 X-1.00000 Y-32.74997
G01 X-0.85367 Y-32.73557
G01 X-0.71298 Y-32.69287
G01 X-0.58331 Y-32.62358
G01 X-0.46965 Y-32.53031
G01 X-0.37638 Y-32.41665
G01 X-0.30709 Y-32.28698
G01 X-0.26439 Y-32.14629
G01 X-0.24999 Y-31.99999
G01 Z-1.80000 F50.00000 ( plunge. )
G04 P0 ( dwell for no time -- G64 should not smooth over this point )
G01 F100.00000
G01 X-0.24999 Y-17.74999
G00 Z-0.50000
G01 X-0.24999 Y-15.24999
G01 Z-1.80000 F50.00000
G01 F100.00000
G01 X-0.24999 Y-1.00000
G01 X-0.26439 Y-0.85367
G01 X-0.30709 Y-0.71298
G01 X-0.37638 Y-0.58331
G01 X-0.46965 Y-0.46965
G01 X-0.58331 Y-0.37638
G01 X-0.71298 Y-0.30709
G01 X-0.85367 Y-0.26439
G01 X-1.00000 Y-0.24999
G01 X-14.74999 Y-0.24999
G00 Z-0.50000
G01 X-17.24999 Y-0.24999
G01 Z-1.80000 F50.00000
G01 F100.00000
G01 X-30.99999 Y-0.24999
G01 X-31.14629 Y-0.26439
G01 X-31.28698 Y-0.30709
G01 X-31.41665 Y-0.37638
G01 X-31.53032 Y-0.46965
G01 X-31.62358 Y-0.58331
G01 X-31.69288 Y-0.71298
G01 X-31.73557 Y-0.85367
G01 X-31.74997 Y-1.00000
G01 X-31.74997 Y-15.24999
G00 Z-0.50000
G01 X-31.74997 Y-17.74999
G01 Z-1.80000 F50.00000
G01 F100.00000
G01 X-31.74997 Y-31.99999
G01 X-31.73557 Y-32.14629
G01 X-31.69288 Y-32.28698
G01 X-31.62358 Y-32.41665
G01 X-31.53032 Y-32.53031
G01 X-31.41665 Y-32.62358
G01 X-31.28698 Y-32.69287
G01 X-31.14629 Y-32.73557
G01 X-30.99999 Y-32.74997
G01 X-17.24999 Y-32.74997
G00 Z-0.50000
G01 X-14.74999 Y-32.74997
G01 Z-1.80000 F50.00000
G01 F100.00000
G01 X-1.00000 Y-32.74997
G01 X-0.85367 Y-32.73557
G01 X-0.71298 Y-32.69287
G01 X-0.58331 Y-32.62358
G01 X-0.46965 Y-32.53031
G01 X-0.37638 Y-32.41665
G01 X-0.30709 Y-32.28698
G01 X-0.26439 Y-32.14629
G01 X-0.24999 Y-31.99999

G04 P0 ( dwell for no time -- G64 should not smooth over this point )
G00 Z2.000000 ( retract )

M5 ( Spindle off. )
G04 P1.000000
M9 ( Coolant off. )
M2 ( Program end. )

