( pcb2gcode 2.5.0 )
( Software-independent Gcode )

G94 ( Millimeters per minute feed rate. )
G21 ( Units == Millimeters. )

G90 ( Absolute coordinates. )
G00 S4700 ( RPM spindle speed. )
G01 F100.00000 ( Feedrate. )


G00 Z2.00000 (Retract to tool change height)
T0
M5      (Spindle stop.)
G04 P1.00000 (Wait for spindle to stop)
(MSG, Change tool bit to mill diameter 0.20000mm)
M0      (Temporary machine stop.)
M3 ( Spindle on clockwise. )
G04 P1.00000 (Wait for spindle to get up to speed)
G04 P0 ( dwell for no time -- G64 should not smooth over this point )
G00 Z2.00000 ( retract )

G00 X-23.73874 Y-24.61626 ( rapid move to begin. )
G01 F50.00000
( Mill infeed pass 1/7 )
G01 Z-0.10000
G04 P0 ( dwell for no time -- G64 should not smooth over this point )
G01 F100.00000
G01 X-23.73874 Y-24.61626
G01 X-23.87402 Y-25.26063
G01 X-24.13287 Y-25.84336
G01 X-24.52596 Y-26.38438
G01 X-25.00018 Y-26.81061
G01 X-25.56142 Y-27.13467
G01 X-26.17777 Y-27.33492
G01 X-26.82230 Y-27.40266
G01 X-37.44730 Y-27.40266
G01 X-38.08148 Y-27.33657
G01 X-38.70818 Y-27.13467
G01 X-39.27757 Y-26.80404
G01 X-39.75105 Y-26.37699
G01 X-40.12628 Y-25.86144
G01 X-40.39182 Y-25.27041
G01 X-40.53086 Y-24.61626
G01 X-40.53032 Y-23.97864
G01 X-40.39182 Y-23.33495
G01 X-40.13197 Y-22.75268
G01 X-39.75105 Y-22.22838
G01 X-39.26944 Y-21.79472
G01 X-38.70818 Y-21.47067
G01 X-38.09182 Y-21.27042
G01 X-37.44730 Y-21.20268
G01 X-30.10291 Y-21.20268
G01 X-31.47510 Y-19.83047
G01 X-31.60606 Y-19.67167
G01 X-31.71685 Y-19.46438
G01 X-31.77377 Y-19.27677
G01 X-31.79681 Y-19.06245
G01 X-31.79729 Y-9.31126
G01 X-31.91083 Y-9.18436
G01 X-32.06763 Y-8.91278
G01 X-32.16453 Y-8.61454
G01 X-32.19676 Y-8.29221
G01 X-32.16453 Y-7.99081
G01 X-32.07136 Y-7.70235
G01 X-31.91083 Y-7.42099
G01 X-31.69288 Y-7.18137
G01 X-31.44731 Y-7.00364
G01 X-31.17060 Y-6.87984
G01 X-30.85409 Y-6.81088
G01 X-30.54050 Y-6.81088
G01 X-30.23377 Y-6.87608
G01 X-29.94731 Y-7.00364
G01 X-29.69362 Y-7.18795
G01 X-29.48379 Y-7.42099
G01 X-29.32699 Y-7.69257
G01 X-29.22844 Y-8.00115
G01 X-29.19730 Y-8.30268
G01 X-29.23278 Y-8.62465
G01 X-29.33174 Y-8.92211
G01 X-29.48379 Y-9.18436
G01 X-29.59727 Y-9.31123
G01 X-29.59727 Y-18.59702
G01 X-26.99164 Y-21.20268
G01 X-26.81186 Y-21.20321
G01 X-26.17777 Y-21.27042
G01 X-25.56142 Y-21.47067
G01 X-25.00018 Y-21.79472
G01 X-24.51854 Y-22.22838
G01 X-24.13762 Y-22.75268
G01 X-23.87402 Y-23.34471
G01 X-23.73927 Y-23.97864
G01 X-23.73874 Y-24.61626
( Mill infeed pass 2/7 )
G01 Z-0.20000
G04 P0 ( dwell for no time -- G64 should not smooth over this point )
G01 F100.00000
G01 X-23.73874 Y-24.61626
G01 X-23.87402 Y-25.26063
G01 X-24.13287 Y-25.84336
G01 X-24.52596 Y-26.38438
G01 X-25.00018 Y-26.81061
G01 X-25.56142 Y-27.13467
G01 X-26.17777 Y-27.33492
G01 X-26.82230 Y-27.40266
G01 X-37.44730 Y-27.40266
G01 X-38.08148 Y-27.33657
G01 X-38.70818 Y-27.13467
G01 X-39.27757 Y-26.80404
G01 X-39.75105 Y-26.37699
G01 X-40.12628 Y-25.86144
G01 X-40.39182 Y-25.27041
G01 X-40.53086 Y-24.61626
G01 X-40.53032 Y-23.97864
G01 X-40.39182 Y-23.33495
G01 X-40.13197 Y-22.75268
G01 X-39.75105 Y-22.22838
G01 X-39.26944 Y-21.79472
G01 X-38.70818 Y-21.47067
G01 X-38.09182 Y-21.27042
G01 X-37.44730 Y-21.20268
G01 X-30.10291 Y-21.20268
G01 X-31.47510 Y-19.83047
G01 X-31.60606 Y-19.67167
G01 X-31.71685 Y-19.46438
G01 X-31.77377 Y-19.27677
G01 X-31.79681 Y-19.06245
G01 X-31.79729 Y-9.31126
G01 X-31.91083 Y-9.18436
G01 X-32.06763 Y-8.91278
G01 X-32.16453 Y-8.61454
G01 X-32.19676 Y-8.29221
G01 X-32.16453 Y-7.99081
G01 X-32.07136 Y-7.70235
G01 X-31.91083 Y-7.42099
G01 X-31.69288 Y-7.18137
G01 X-31.44731 Y-7.00364
G01 X-31.17060 Y-6.87984
G01 X-30.85409 Y-6.81088
G01 X-30.54050 Y-6.81088
G01 X-30.23377 Y-6.87608
G01 X-29.94731 Y-7.00364
G01 X-29.69362 Y-7.18795
G01 X-29.48379 Y-7.42099
G01 X-29.32699 Y-7.69257
G01 X-29.22844 Y-8.00115
G01 X-29.19730 Y-8.30268
G01 X-29.23278 Y-8.62465
G01 X-29.33174 Y-8.92211
G01 X-29.48379 Y-9.18436
G01 X-29.59727 Y-9.31123
G01 X-29.59727 Y-18.59702
G01 X-26.99164 Y-21.20268
G01 X-26.81186 Y-21.20321
G01 X-26.17777 Y-21.27042
G01 X-25.56142 Y-21.47067
G01 X-25.00018 Y-21.79472
G01 X-24.51854 Y-22.22838
G01 X-24.13762 Y-22.75268
G01 X-23.87402 Y-23.34471
G01 X-23.73927 Y-23.97864
G01 X-23.73874 Y-24.61626
( Mill infeed pass 3/7 )
G01 Z-0.30000
G04 P0 ( dwell for no time -- G64 should not smooth over this point )
G01 F100.00000
G01 X-23.73874 Y-24.61626
G01 X-23.87402 Y-25.26063
G01 X-24.13287 Y-25.84336
G01 X-24.52596 Y-26.38438
G01 X-25.00018 Y-26.81061
G01 X-25.56142 Y-27.13467
G01 X-26.17777 Y-27.33492
G01 X-26.82230 Y-27.40266
G01 X-37.44730 Y-27.40266
G01 X-38.08148 Y-27.33657
G01 X-38.70818 Y-27.13467
G01 X-39.27757 Y-26.80404
G01 X-39.75105 Y-26.37699
G01 X-40.12628 Y-25.86144
G01 X-40.39182 Y-25.27041
G01 X-40.53086 Y-24.61626
G01 X-40.53032 Y-23.97864
G01 X-40.39182 Y-23.33495
G01 X-40.13197 Y-22.75268
G01 X-39.75105 Y-22.22838
G01 X-39.26944 Y-21.79472
G01 X-38.70818 Y-21.47067
G01 X-38.09182 Y-21.27042
G01 X-37.44730 Y-21.20268
G01 X-30.10291 Y-21.20268
G01 X-31.47510 Y-19.83047
G01 X-31.60606 Y-19.67167
G01 X-31.71685 Y-19.46438
G01 X-31.77377 Y-19.27677
G01 X-31.79681 Y-19.06245
G01 X-31.79729 Y-9.31126
G01 X-31.91083 Y-9.18436
G01 X-32.06763 Y-8.91278
G01 X-32.16453 Y-8.61454
G01 X-32.19676 Y-8.29221
G01 X-32.16453 Y-7.99081
G01 X-32.07136 Y-7.70235
G01 X-31.91083 Y-7.42099
G01 X-31.69288 Y-7.18137
G01 X-31.44731 Y-7.00364
G01 X-31.17060 Y-6.87984
G01 X-30.85409 Y-6.81088
G01 X-30.54050 Y-6.81088
G01 X-30.23377 Y-6.87608
G01 X-29.94731 Y-7.00364
G01 X-29.69362 Y-7.18795
G01 X-29.48379 Y-7.42099
G01 X-29.32699 Y-7.69257
G01 X-29.22844 Y-8.00115
G01 X-29.19730 Y-8.30268
G01 X-29.23278 Y-8.62465
G01 X-29.33174 Y-8.92211
G01 X-29.48379 Y-9.18436
G01 X-29.59727 Y-9.31123
G01 X-29.59727 Y-18.59702
G01 X-26.99164 Y-21.20268
G01 X-26.81186 Y-21.20321
G01 X-26.17777 Y-21.27042
G01 X-25.56142 Y-21.47067
G01 X-25.00018 Y-21.79472
G01 X-24.51854 Y-22.22838
G01 X-24.13762 Y-22.75268
G01 X-23.87402 Y-23.34471
G01 X-23.73927 Y-23.97864
G01 X-23.73874 Y-24.61626
( Mill infeed pass 4/7 )
G01 Z-0.40000
G04 P0 ( dwell for no time -- G64 should not smooth over this point )
G01 F100.00000
G01 X-23.73874 Y-24.61626
G01 X-23.87402 Y-25.26063
G01 X-24.13287 Y-25.84336
G01 X-24.52596 Y-26.38438
G01 X-25.00018 Y-26.81061
G01 X-25.56142 Y-27.13467
G01 X-26.17777 Y-27.33492
G01 X-26.82230 Y-27.40266
G01 X-37.44730 Y-27.40266
G01 X-38.08148 Y-27.33657
G01 X-38.70818 Y-27.13467
G01 X-39.27757 Y-26.80404
G01 X-39.75105 Y-26.37699
G01 X-40.12628 Y-25.86144
G01 X-40.39182 Y-25.27041
G01 X-40.53086 Y-24.61626
G01 X-40.53032 Y-23.97864
G01 X-40.39182 Y-23.33495
G01 X-40.13197 Y-22.75268
G01 X-39.75105 Y-22.22838
G01 X-39.26944 Y-21.79472
G01 X-38.70818 Y-21.47067
G01 X-38.09182 Y-21.27042
G01 X-37.44730 Y-21.20268
G01 X-30.10291 Y-21.20268
G01 X-31.47510 Y-19.83047
G01 X-31.60606 Y-19.67167
G01 X-31.71685 Y-19.46438
G01 X-31.77377 Y-19.27677
G01 X-31.79681 Y-19.06245
G01 X-31.79729 Y-9.31126
G01 X-31.91083 Y-9.18436
G01 X-32.06763 Y-8.91278
G01 X-32.16453 Y-8.61454
G01 X-32.19676 Y-8.29221
G01 X-32.16453 Y-7.99081
G01 X-32.07136 Y-7.70235
G01 X-31.91083 Y-7.42099
G01 X-31.69288 Y-7.18137
G01 X-31.44731 Y-7.00364
G01 X-31.17060 Y-6.87984
G01 X-30.85409 Y-6.81088
G01 X-30.54050 Y-6.81088
G01 X-30.23377 Y-6.87608
G01 X-29.94731 Y-7.00364
G01 X-29.69362 Y-7.18795
G01 X-29.48379 Y-7.42099
G01 X-29.32699 Y-7.69257
G01 X-29.22844 Y-8.00115
G01 X-29.19730 Y-8.30268
G01 X-29.23278 Y-8.62465
G01 X-29.33174 Y-8.92211
G01 X-29.48379 Y-9.18436
G01 X-29.59727 Y-9.31123
G01 X-29.59727 Y-18.59702
G01 X-26.99164 Y-21.20268
G01 X-26.81186 Y-21.20321
G01 X-26.17777 Y-21.27042
G01 X-25.56142 Y-21.47067
G01 X-25.00018 Y-21.79472
G01 X-24.51854 Y-22.22838
G01 X-24.13762 Y-22.75268
G01 X-23.87402 Y-23.34471
G01 X-23.73927 Y-23.97864
G01 X-23.73874 Y-24.61626
( Mill infeed pass 5/7 )
G01 Z-0.50000
G04 P0 ( dwell for no time -- G64 should not smooth over this point )
G01 F100.00000
G01 X-23.73874 Y-24.61626
G01 X-23.87402 Y-25.26063
G01 X-24.13287 Y-25.84336
G01 X-24.52596 Y-26.38438
G01 X-25.00018 Y-26.81061
G01 X-25.56142 Y-27.13467
G01 X-26.17777 Y-27.33492
G01 X-26.82230 Y-27.40266
G01 X-37.44730 Y-27.40266
G01 X-38.08148 Y-27.33657
G01 X-38.70818 Y-27.13467
G01 X-39.27757 Y-26.80404
G01 X-39.75105 Y-26.37699
G01 X-40.12628 Y-25.86144
G01 X-40.39182 Y-25.27041
G01 X-40.53086 Y-24.61626
G01 X-40.53032 Y-23.97864
G01 X-40.39182 Y-23.33495
G01 X-40.13197 Y-22.75268
G01 X-39.75105 Y-22.22838
G01 X-39.26944 Y-21.79472
G01 X-38.70818 Y-21.47067
G01 X-38.09182 Y-21.27042
G01 X-37.44730 Y-21.20268
G01 X-30.10291 Y-21.20268
G01 X-31.47510 Y-19.83047
G01 X-31.60606 Y-19.67167
G01 X-31.71685 Y-19.46438
G01 X-31.77377 Y-19.27677
G01 X-31.79681 Y-19.06245
G01 X-31.79729 Y-9.31126
G01 X-31.91083 Y-9.18436
G01 X-32.06763 Y-8.91278
G01 X-32.16453 Y-8.61454
G01 X-32.19676 Y-8.29221
G01 X-32.16453 Y-7.99081
G01 X-32.07136 Y-7.70235
G01 X-31.91083 Y-7.42099
G01 X-31.69288 Y-7.18137
G01 X-31.44731 Y-7.00364
G01 X-31.17060 Y-6.87984
G01 X-30.85409 Y-6.81088
G01 X-30.54050 Y-6.81088
G01 X-30.23377 Y-6.87608
G01 X-29.94731 Y-7.00364
G01 X-29.69362 Y-7.18795
G01 X-29.48379 Y-7.42099
G01 X-29.32699 Y-7.69257
G01 X-29.22844 Y-8.00115
G01 X-29.19730 Y-8.30268
G01 X-29.23278 Y-8.62465
G01 X-29.33174 Y-8.92211
G01 X-29.48379 Y-9.18436
G01 X-29.59727 Y-9.31123
G01 X-29.59727 Y-18.59702
G01 X-26.99164 Y-21.20268
G01 X-26.81186 Y-21.20321
G01 X-26.17777 Y-21.27042
G01 X-25.56142 Y-21.47067
G01 X-25.00018 Y-21.79472
G01 X-24.51854 Y-22.22838
G01 X-24.13762 Y-22.75268
G01 X-23.87402 Y-23.34471
G01 X-23.73927 Y-23.97864
G01 X-23.73874 Y-24.61626
( Mill infeed pass 6/7 )
G01 Z-0.60000
G04 P0 ( dwell for no time -- G64 should not smooth over this point )
G01 F100.00000
G01 X-23.73874 Y-24.61626
G01 X-23.87402 Y-25.26063
G01 X-24.13287 Y-25.84336
G01 X-24.52596 Y-26.38438
G01 X-25.00018 Y-26.81061
G01 X-25.56142 Y-27.13467
G01 X-26.17777 Y-27.33492
G01 X-26.82230 Y-27.40266
G01 X-37.44730 Y-27.40266
G01 X-38.08148 Y-27.33657
G01 X-38.70818 Y-27.13467
G01 X-39.27757 Y-26.80404
G01 X-39.75105 Y-26.37699
G01 X-40.12628 Y-25.86144
G01 X-40.39182 Y-25.27041
G01 X-40.53086 Y-24.61626
G01 X-40.53032 Y-23.97864
G01 X-40.39182 Y-23.33495
G01 X-40.13197 Y-22.75268
G01 X-39.75105 Y-22.22838
G01 X-39.26944 Y-21.79472
G01 X-38.70818 Y-21.47067
G01 X-38.09182 Y-21.27042
G01 X-37.44730 Y-21.20268
G01 X-30.10291 Y-21.20268
G01 X-31.47510 Y-19.83047
G01 X-31.60606 Y-19.67167
G01 X-31.71685 Y-19.46438
G01 X-31.77377 Y-19.27677
G01 X-31.79681 Y-19.06245
G01 X-31.79729 Y-9.31126
G01 X-31.91083 Y-9.18436
G01 X-32.06763 Y-8.91278
G01 X-32.16453 Y-8.61454
G01 X-32.19676 Y-8.29221
G01 X-32.16453 Y-7.99081
G01 X-32.07136 Y-7.70235
G01 X-31.91083 Y-7.42099
G01 X-31.69288 Y-7.18137
G01 X-31.44731 Y-7.00364
G01 X-31.17060 Y-6.87984
G01 X-30.85409 Y-6.81088
G01 X-30.54050 Y-6.81088
G01 X-30.23377 Y-6.87608
G01 X-29.94731 Y-7.00364
G01 X-29.69362 Y-7.18795
G01 X-29.48379 Y-7.42099
G01 X-29.32699 Y-7.69257
G01 X-29.22844 Y-8.00115
G01 X-29.19730 Y-8.30268
G01 X-29.23278 Y-8.62465
G01 X-29.33174 Y-8.92211
G01 X-29.48379 Y-9.18436
G01 X-29.59727 Y-9.31123
G01 X-29.59727 Y-18.59702
G01 X-26.99164 Y-21.20268
G01 X-26.81186 Y-21.20321
G01 X-26.17777 Y-21.27042
G01 X-25.56142 Y-21.47067
G01 X-25.00018 Y-21.79472
G01 X-24.51854 Y-22.22838
G01 X-24.13762 Y-22.75268
G01 X-23.87402 Y-23.34471
G01 X-23.73927 Y-23.97864
G01 X-23.73874 Y-24.61626
( Mill infeed pass 7/7 )
G01 Z-0.70000
G04 P0 ( dwell for no time -- G64 should not smooth over this point )
G01 F100.00000
G01 X-23.73874 Y-24.61626
G01 X-23.87402 Y-25.26063
G01 X-24.13287 Y-25.84336
G01 X-24.52596 Y-26.38438
G01 X-25.00018 Y-26.81061
G01 X-25.56142 Y-27.13467
G01 X-26.17777 Y-27.33492
G01 X-26.82230 Y-27.40266
G01 X-37.44730 Y-27.40266
G01 X-38.08148 Y-27.33657
G01 X-38.70818 Y-27.13467
G01 X-39.27757 Y-26.80404
G01 X-39.75105 Y-26.37699
G01 X-40.12628 Y-25.86144
G01 X-40.39182 Y-25.27041
G01 X-40.53086 Y-24.61626
G01 X-40.53032 Y-23.97864
G01 X-40.39182 Y-23.33495
G01 X-40.13197 Y-22.75268
G01 X-39.75105 Y-22.22838
G01 X-39.26944 Y-21.79472
G01 X-38.70818 Y-21.47067
G01 X-38.09182 Y-21.27042
G01 X-37.44730 Y-21.20268
G01 X-30.10291 Y-21.20268
G01 X-31.47510 Y-19.83047
G01 X-31.60606 Y-19.67167
G01 X-31.71685 Y-19.46438
G01 X-31.77377 Y-19.27677
G01 X-31.79681 Y-19.06245
G01 X-31.79729 Y-9.31126
G01 X-31.91083 Y-9.18436
G01 X-32.06763 Y-8.91278
G01 X-32.16453 Y-8.61454
G01 X-32.19676 Y-8.29221
G01 X-32.16453 Y-7.99081
G01 X-32.07136 Y-7.70235
G01 X-31.91083 Y-7.42099
G01 X-31.69288 Y-7.18137
G01 X-31.44731 Y-7.00364
G01 X-31.17060 Y-6.87984
G01 X-30.85409 Y-6.81088
G01 X-30.54050 Y-6.81088
G01 X-30.23377 Y-6.87608
G01 X-29.94731 Y-7.00364
G01 X-29.69362 Y-7.18795
G01 X-29.48379 Y-7.42099
G01 X-29.32699 Y-7.69257
G01 X-29.22844 Y-8.00115
G01 X-29.19730 Y-8.30268
G01 X-29.23278 Y-8.62465
G01 X-29.33174 Y-8.92211
G01 X-29.48379 Y-9.18436
G01 X-29.59727 Y-9.31123
G01 X-29.59727 Y-18.59702
G01 X-26.99164 Y-21.20268
G01 X-26.81186 Y-21.20321
G01 X-26.17777 Y-21.27042
G01 X-25.56142 Y-21.47067
G01 X-25.00018 Y-21.79472
G01 X-24.51854 Y-22.22838
G01 X-24.13762 Y-22.75268
G01 X-23.87402 Y-23.34471
G01 X-23.73927 Y-23.97864
G01 X-23.73874 Y-24.61626
G04 P0 ( dwell for no time -- G64 should not smooth over this point )
G00 Z2.00000 ( retract )

G00 X-24.19731 Y-9.45266 ( rapid move to begin. )
G01 F50.00000
( Mill infeed pass 1/7 )
G01 Z-0.10000
G04 P0 ( dwell for no time -- G64 should not smooth over this point )
G01 F100.00000
G01 X-24.19731 Y-9.45266
G01 X-24.20496 Y-9.52543
G01 X-24.22756 Y-9.59503
G01 X-24.26414 Y-9.65840
G01 X-24.30572 Y-9.70537
G01 X-24.38164 Y-9.76053
G01 X-24.43914 Y-9.78555
G01 X-24.51593 Y-9.80117
G01 X-26.85252 Y-9.80255
G01 X-26.89423 Y-9.79912
G01 X-26.95545 Y-9.78555
G01 X-27.02230 Y-9.75578
G01 X-27.07335 Y-9.71936
G01 X-27.13045 Y-9.65840
G01 X-27.16705 Y-9.59503
G01 X-27.18966 Y-9.52543
G01 X-27.19675 Y-9.46313
G01 X-27.19730 Y-8.35828
G01 X-31.65292 Y-3.90266
G01 X-76.74165 Y-3.90266
G01 X-81.59727 Y-8.75830
G01 X-81.59727 Y-20.80268
G01 X-81.60990 Y-20.96694
G01 X-81.64899 Y-21.13504
G01 X-81.72102 Y-21.30890
G01 X-81.81223 Y-21.45541
G01 X-81.91947 Y-21.58047
G01 X-86.37085 Y-26.03180
G01 X-86.37951 Y-26.09345
G01 X-86.46401 Y-26.35176
G01 X-86.60514 Y-26.59619
G01 X-86.79398 Y-26.80592
G01 X-87.01352 Y-26.96611
G01 X-87.28014 Y-27.08661
G01 X-87.55619 Y-27.14528
G01 X-87.83841 Y-27.14528
G01 X-88.12426 Y-27.08285
G01 X-88.38108 Y-26.96611
G01 X-88.60064 Y-26.80592
G01 X-88.78288 Y-26.60432
G01 X-88.93058 Y-26.35176
G01 X-89.01781 Y-26.08336
G01 X-89.04729 Y-25.80264
G01 X-89.01509 Y-25.51189
G01 X-88.93058 Y-25.25357
G01 X-88.79517 Y-25.01793
G01 X-88.60803 Y-24.80683
G01 X-88.36297 Y-24.62878
G01 X-88.11448 Y-24.51875
G01 X-87.92908 Y-24.47877
G01 X-83.79729 Y-20.34703
G01 X-83.79729 Y-8.30268
G01 X-83.77377 Y-8.07855
G01 X-83.70936 Y-7.87283
G01 X-83.60606 Y-7.68365
G01 X-83.47509 Y-7.52485
G01 X-77.97510 Y-2.02484
G01 X-77.85003 Y-1.91760
G01 X-77.70353 Y-1.82639
G01 X-77.52966 Y-1.75435
G01 X-77.36157 Y-1.71526
G01 X-77.19731 Y-1.70264
G01 X-31.19730 Y-1.70264
G01 X-31.03301 Y-1.71526
G01 X-30.86491 Y-1.75435
G01 X-30.70502 Y-1.81925
G01 X-30.55724 Y-1.90838
G01 X-30.41947 Y-2.02484
G01 X-25.64160 Y-6.80273
G01 X-24.51067 Y-6.80458
G01 X-24.43914 Y-6.81980
G01 X-24.37229 Y-6.84957
G01 X-24.31311 Y-6.89257
G01 X-24.27074 Y-6.93882
G01 X-24.22380 Y-7.02008
G01 X-24.20496 Y-7.07989
G01 X-24.19731 Y-7.15267
G01 X-24.19731 Y-9.45266
( Mill infeed pass 2/7 )
G01 Z-0.20000
G04 P0 ( dwell for no time -- G64 should not smooth over this point )
G01 F100.00000
G01 X-24.19731 Y-9.45266
G01 X-24.20496 Y-9.52543
G01 X-24.22756 Y-9.59503
G01 X-24.26414 Y-9.65840
G01 X-24.30572 Y-9.70537
G01 X-24.38164 Y-9.76053
G01 X-24.43914 Y-9.78555
G01 X-24.51593 Y-9.80117
G01 X-26.85252 Y-9.80255
G01 X-26.89423 Y-9.79912
G01 X-26.95545 Y-9.78555
G01 X-27.02230 Y-9.75578
G01 X-27.07335 Y-9.71936
G01 X-27.13045 Y-9.65840
G01 X-27.16705 Y-9.59503
G01 X-27.18966 Y-9.52543
G01 X-27.19675 Y-9.46313
G01 X-27.19730 Y-8.35828
G01 X-31.65292 Y-3.90266
G01 X-76.74165 Y-3.90266
G01 X-81.59727 Y-8.75830
G01 X-81.59727 Y-20.80268
G01 X-81.60990 Y-20.96694
G01 X-81.64899 Y-21.13504
G01 X-81.72102 Y-21.30890
G01 X-81.81223 Y-21.45541
G01 X-81.91947 Y-21.58047
G01 X-86.37085 Y-26.03180
G01 X-86.37951 Y-26.09345
G01 X-86.46401 Y-26.35176
G01 X-86.60514 Y-26.59619
G01 X-86.79398 Y-26.80592
G01 X-87.01352 Y-26.96611
G01 X-87.28014 Y-27.08661
G01 X-87.55619 Y-27.14528
G01 X-87.83841 Y-27.14528
G01 X-88.12426 Y-27.08285
G01 X-88.38108 Y-26.96611
G01 X-88.60064 Y-26.80592
G01 X-88.78288 Y-26.60432
G01 X-88.93058 Y-26.35176
G01 X-89.01781 Y-26.08336
G01 X-89.04729 Y-25.80264
G01 X-89.01509 Y-25.51189
G01 X-88.93058 Y-25.25357
G01 X-88.79517 Y-25.01793
G01 X-88.60803 Y-24.80683
G01 X-88.36297 Y-24.62878
G01 X-88.11448 Y-24.51875
G01 X-87.92908 Y-24.47877
G01 X-83.79729 Y-20.34703
G01 X-83.79729 Y-8.30268
G01 X-83.77377 Y-8.07855
G01 X-83.70936 Y-7.87283
G01 X-83.60606 Y-7.68365
G01 X-83.47509 Y-7.52485
G01 X-77.97510 Y-2.02484
G01 X-77.85003 Y-1.91760
G01 X-77.70353 Y-1.82639
G01 X-77.52966 Y-1.75435
G01 X-77.36157 Y-1.71526
G01 X-77.19731 Y-1.70264
G01 X-31.19730 Y-1.70264
G01 X-31.03301 Y-1.71526
G01 X-30.86491 Y-1.75435
G01 X-30.70502 Y-1.81925
G01 X-30.55724 Y-1.90838
G01 X-30.41947 Y-2.02484
G01 X-25.64160 Y-6.80273
G01 X-24.51067 Y-6.80458
G01 X-24.43914 Y-6.81980
G01 X-24.37229 Y-6.84957
G01 X-24.31311 Y-6.89257
G01 X-24.27074 Y-6.93882
G01 X-24.22380 Y-7.02008
G01 X-24.20496 Y-7.07989
G01 X-24.19731 Y-7.15267
G01 X-24.19731 Y-9.45266
( Mill infeed pass 3/7 )
G01 Z-0.30000
G04 P0 ( dwell for no time -- G64 should not smooth over this point )
G01 F100.00000
G01 X-24.19731 Y-9.45266
G01 X-24.20496 Y-9.52543
G01 X-24.22756 Y-9.59503
G01 X-24.26414 Y-9.65840
G01 X-24.30572 Y-9.70537
G01 X-24.38164 Y-9.76053
G01 X-24.43914 Y-9.78555
G01 X-24.51593 Y-9.80117
G01 X-26.85252 Y-9.80255
G01 X-26.89423 Y-9.79912
G01 X-26.95545 Y-9.78555
G01 X-27.02230 Y-9.75578
G01 X-27.07335 Y-9.71936
G01 X-27.13045 Y-9.65840
G01 X-27.16705 Y-9.59503
G01 X-27.18966 Y-9.52543
G01 X-27.19675 Y-9.46313
G01 X-27.19730 Y-8.35828
G01 X-31.65292 Y-3.90266
G01 X-76.74165 Y-3.90266
G01 X-81.59727 Y-8.75830
G01 X-81.59727 Y-20.80268
G01 X-81.60990 Y-20.96694
G01 X-81.64899 Y-21.13504
G01 X-81.72102 Y-21.30890
G01 X-81.81223 Y-21.45541
G01 X-81.91947 Y-21.58047
G01 X-86.37085 Y-26.03180
G01 X-86.37951 Y-26.09345
G01 X-86.46401 Y-26.35176
G01 X-86.60514 Y-26.59619
G01 X-86.79398 Y-26.80592
G01 X-87.01352 Y-26.96611
G01 X-87.28014 Y-27.08661
G01 X-87.55619 Y-27.14528
G01 X-87.83841 Y-27.14528
G01 X-88.12426 Y-27.08285
G01 X-88.38108 Y-26.96611
G01 X-88.60064 Y-26.80592
G01 X-88.78288 Y-26.60432
G01 X-88.93058 Y-26.35176
G01 X-89.01781 Y-26.08336
G01 X-89.04729 Y-25.80264
G01 X-89.01509 Y-25.51189
G01 X-88.93058 Y-25.25357
G01 X-88.79517 Y-25.01793
G01 X-88.60803 Y-24.80683
G01 X-88.36297 Y-24.62878
G01 X-88.11448 Y-24.51875
G01 X-87.92908 Y-24.47877
G01 X-83.79729 Y-20.34703
G01 X-83.79729 Y-8.30268
G01 X-83.77377 Y-8.07855
G01 X-83.70936 Y-7.87283
G01 X-83.60606 Y-7.68365
G01 X-83.47509 Y-7.52485
G01 X-77.97510 Y-2.02484
G01 X-77.85003 Y-1.91760
G01 X-77.70353 Y-1.82639
G01 X-77.52966 Y-1.75435
G01 X-77.36157 Y-1.71526
G01 X-77.19731 Y-1.70264
G01 X-31.19730 Y-1.70264
G01 X-31.03301 Y-1.71526
G01 X-30.86491 Y-1.75435
G01 X-30.70502 Y-1.81925
G01 X-30.55724 Y-1.90838
G01 X-30.41947 Y-2.02484
G01 X-25.64160 Y-6.80273
G01 X-24.51067 Y-6.80458
G01 X-24.43914 Y-6.81980
G01 X-24.37229 Y-6.84957
G01 X-24.31311 Y-6.89257
G01 X-24.27074 Y-6.93882
G01 X-24.22380 Y-7.02008
G01 X-24.20496 Y-7.07989
G01 X-24.19731 Y-7.15267
G01 X-24.19731 Y-9.45266
( Mill infeed pass 4/7 )
G01 Z-0.40000
G04 P0 ( dwell for no time -- G64 should not smooth over this point )
G01 F100.00000
G01 X-24.19731 Y-9.45266
G01 X-24.20496 Y-9.52543
G01 X-24.22756 Y-9.59503
G01 X-24.26414 Y-9.65840
G01 X-24.30572 Y-9.70537
G01 X-24.38164 Y-9.76053
G01 X-24.43914 Y-9.78555
G01 X-24.51593 Y-9.80117
G01 X-26.85252 Y-9.80255
G01 X-26.89423 Y-9.79912
G01 X-26.95545 Y-9.78555
G01 X-27.02230 Y-9.75578
G01 X-27.07335 Y-9.71936
G01 X-27.13045 Y-9.65840
G01 X-27.16705 Y-9.59503
G01 X-27.18966 Y-9.52543
G01 X-27.19675 Y-9.46313
G01 X-27.19730 Y-8.35828
G01 X-31.65292 Y-3.90266
G01 X-76.74165 Y-3.90266
G01 X-81.59727 Y-8.75830
G01 X-81.59727 Y-20.80268
G01 X-81.60990 Y-20.96694
G01 X-81.64899 Y-21.13504
G01 X-81.72102 Y-21.30890
G01 X-81.81223 Y-21.45541
G01 X-81.91947 Y-21.58047
G01 X-86.37085 Y-26.03180
G01 X-86.37951 Y-26.09345
G01 X-86.46401 Y-26.35176
G01 X-86.60514 Y-26.59619
G01 X-86.79398 Y-26.80592
G01 X-87.01352 Y-26.96611
G01 X-87.28014 Y-27.08661
G01 X-87.55619 Y-27.14528
G01 X-87.83841 Y-27.14528
G01 X-88.12426 Y-27.08285
G01 X-88.38108 Y-26.96611
G01 X-88.60064 Y-26.80592
G01 X-88.78288 Y-26.60432
G01 X-88.93058 Y-26.35176
G01 X-89.01781 Y-26.08336
G01 X-89.04729 Y-25.80264
G01 X-89.01509 Y-25.51189
G01 X-88.93058 Y-25.25357
G01 X-88.79517 Y-25.01793
G01 X-88.60803 Y-24.80683
G01 X-88.36297 Y-24.62878
G01 X-88.11448 Y-24.51875
G01 X-87.92908 Y-24.47877
G01 X-83.79729 Y-20.34703
G01 X-83.79729 Y-8.30268
G01 X-83.77377 Y-8.07855
G01 X-83.70936 Y-7.87283
G01 X-83.60606 Y-7.68365
G01 X-83.47509 Y-7.52485
G01 X-77.97510 Y-2.02484
G01 X-77.85003 Y-1.91760
G01 X-77.70353 Y-1.82639
G01 X-77.52966 Y-1.75435
G01 X-77.36157 Y-1.71526
G01 X-77.19731 Y-1.70264
G01 X-31.19730 Y-1.70264
G01 X-31.03301 Y-1.71526
G01 X-30.86491 Y-1.75435
G01 X-30.70502 Y-1.81925
G01 X-30.55724 Y-1.90838
G01 X-30.41947 Y-2.02484
G01 X-25.64160 Y-6.80273
G01 X-24.51067 Y-6.80458
G01 X-24.43914 Y-6.81980
G01 X-24.37229 Y-6.84957
G01 X-24.31311 Y-6.89257
G01 X-24.27074 Y-6.93882
G01 X-24.22380 Y-7.02008
G01 X-24.20496 Y-7.07989
G01 X-24.19731 Y-7.15267
G01 X-24.19731 Y-9.45266
( Mill infeed pass 5/7 )
G01 Z-0.50000
G04 P0 ( dwell for no time -- G64 should not smooth over this point )
G01 F100.00000
G01 X-24.19731 Y-9.45266
G01 X-24.20496 Y-9.52543
G01 X-24.22756 Y-9.59503
G01 X-24.26414 Y-9.65840
G01 X-24.30572 Y-9.70537
G01 X-24.38164 Y-9.76053
G01 X-24.43914 Y-9.78555
G01 X-24.51593 Y-9.80117
G01 X-26.85252 Y-9.80255
G01 X-26.89423 Y-9.79912
G01 X-26.95545 Y-9.78555
G01 X-27.02230 Y-9.75578
G01 X-27.07335 Y-9.71936
G01 X-27.13045 Y-9.65840
G01 X-27.16705 Y-9.59503
G01 X-27.18966 Y-9.52543
G01 X-27.19675 Y-9.46313
G01 X-27.19730 Y-8.35828
G01 X-31.65292 Y-3.90266
G01 X-76.74165 Y-3.90266
G01 X-81.59727 Y-8.75830
G01 X-81.59727 Y-20.80268
G01 X-81.60990 Y-20.96694
G01 X-81.64899 Y-21.13504
G01 X-81.72102 Y-21.30890
G01 X-81.81223 Y-21.45541
G01 X-81.91947 Y-21.58047
G01 X-86.37085 Y-26.03180
G01 X-86.37951 Y-26.09345
G01 X-86.46401 Y-26.35176
G01 X-86.60514 Y-26.59619
G01 X-86.79398 Y-26.80592
G01 X-87.01352 Y-26.96611
G01 X-87.28014 Y-27.08661
G01 X-87.55619 Y-27.14528
G01 X-87.83841 Y-27.14528
G01 X-88.12426 Y-27.08285
G01 X-88.38108 Y-26.96611
G01 X-88.60064 Y-26.80592
G01 X-88.78288 Y-26.60432
G01 X-88.93058 Y-26.35176
G01 X-89.01781 Y-26.08336
G01 X-89.04729 Y-25.80264
G01 X-89.01509 Y-25.51189
G01 X-88.93058 Y-25.25357
G01 X-88.79517 Y-25.01793
G01 X-88.60803 Y-24.80683
G01 X-88.36297 Y-24.62878
G01 X-88.11448 Y-24.51875
G01 X-87.92908 Y-24.47877
G01 X-83.79729 Y-20.34703
G01 X-83.79729 Y-8.30268
G01 X-83.77377 Y-8.07855
G01 X-83.70936 Y-7.87283
G01 X-83.60606 Y-7.68365
G01 X-83.47509 Y-7.52485
G01 X-77.97510 Y-2.02484
G01 X-77.85003 Y-1.91760
G01 X-77.70353 Y-1.82639
G01 X-77.52966 Y-1.75435
G01 X-77.36157 Y-1.71526
G01 X-77.19731 Y-1.70264
G01 X-31.19730 Y-1.70264
G01 X-31.03301 Y-1.71526
G01 X-30.86491 Y-1.75435
G01 X-30.70502 Y-1.81925
G01 X-30.55724 Y-1.90838
G01 X-30.41947 Y-2.02484
G01 X-25.64160 Y-6.80273
G01 X-24.51067 Y-6.80458
G01 X-24.43914 Y-6.81980
G01 X-24.37229 Y-6.84957
G01 X-24.31311 Y-6.89257
G01 X-24.27074 Y-6.93882
G01 X-24.22380 Y-7.02008
G01 X-24.20496 Y-7.07989
G01 X-24.19731 Y-7.15267
G01 X-24.19731 Y-9.45266
( Mill infeed pass 6/7 )
G01 Z-0.60000
G04 P0 ( dwell for no time -- G64 should not smooth over this point )
G01 F100.00000
G01 X-24.19731 Y-9.45266
G01 X-24.20496 Y-9.52543
G01 X-24.22756 Y-9.59503
G01 X-24.26414 Y-9.65840
G01 X-24.30572 Y-9.70537
G01 X-24.38164 Y-9.76053
G01 X-24.43914 Y-9.78555
G01 X-24.51593 Y-9.80117
G01 X-26.85252 Y-9.80255
G01 X-26.89423 Y-9.79912
G01 X-26.95545 Y-9.78555
G01 X-27.02230 Y-9.75578
G01 X-27.07335 Y-9.71936
G01 X-27.13045 Y-9.65840
G01 X-27.16705 Y-9.59503
G01 X-27.18966 Y-9.52543
G01 X-27.19675 Y-9.46313
G01 X-27.19730 Y-8.35828
G01 X-31.65292 Y-3.90266
G01 X-76.74165 Y-3.90266
G01 X-81.59727 Y-8.75830
G01 X-81.59727 Y-20.80268
G01 X-81.60990 Y-20.96694
G01 X-81.64899 Y-21.13504
G01 X-81.72102 Y-21.30890
G01 X-81.81223 Y-21.45541
G01 X-81.91947 Y-21.58047
G01 X-86.37085 Y-26.03180
G01 X-86.37951 Y-26.09345
G01 X-86.46401 Y-26.35176
G01 X-86.60514 Y-26.59619
G01 X-86.79398 Y-26.80592
G01 X-87.01352 Y-26.96611
G01 X-87.28014 Y-27.08661
G01 X-87.55619 Y-27.14528
G01 X-87.83841 Y-27.14528
G01 X-88.12426 Y-27.08285
G01 X-88.38108 Y-26.96611
G01 X-88.60064 Y-26.80592
G01 X-88.78288 Y-26.60432
G01 X-88.93058 Y-26.35176
G01 X-89.01781 Y-26.08336
G01 X-89.04729 Y-25.80264
G01 X-89.01509 Y-25.51189
G01 X-88.93058 Y-25.25357
G01 X-88.79517 Y-25.01793
G01 X-88.60803 Y-24.80683
G01 X-88.36297 Y-24.62878
G01 X-88.11448 Y-24.51875
G01 X-87.92908 Y-24.47877
G01 X-83.79729 Y-20.34703
G01 X-83.79729 Y-8.30268
G01 X-83.77377 Y-8.07855
G01 X-83.70936 Y-7.87283
G01 X-83.60606 Y-7.68365
G01 X-83.47509 Y-7.52485
G01 X-77.97510 Y-2.02484
G01 X-77.85003 Y-1.91760
G01 X-77.70353 Y-1.82639
G01 X-77.52966 Y-1.75435
G01 X-77.36157 Y-1.71526
G01 X-77.19731 Y-1.70264
G01 X-31.19730 Y-1.70264
G01 X-31.03301 Y-1.71526
G01 X-30.86491 Y-1.75435
G01 X-30.70502 Y-1.81925
G01 X-30.55724 Y-1.90838
G01 X-30.41947 Y-2.02484
G01 X-25.64160 Y-6.80273
G01 X-24.51067 Y-6.80458
G01 X-24.43914 Y-6.81980
G01 X-24.37229 Y-6.84957
G01 X-24.31311 Y-6.89257
G01 X-24.27074 Y-6.93882
G01 X-24.22380 Y-7.02008
G01 X-24.20496 Y-7.07989
G01 X-24.19731 Y-7.15267
G01 X-24.19731 Y-9.45266
( Mill infeed pass 7/7 )
G01 Z-0.70000
G04 P0 ( dwell for no time -- G64 should not smooth over this point )
G01 F100.00000
G01 X-24.19731 Y-9.45266
G01 X-24.20496 Y-9.52543
G01 X-24.22756 Y-9.59503
G01 X-24.26414 Y-9.65840
G01 X-24.30572 Y-9.70537
G01 X-24.38164 Y-9.76053
G01 X-24.43914 Y-9.78555
G01 X-24.51593 Y-9.80117
G01 X-26.85252 Y-9.80255
G01 X-26.89423 Y-9.79912
G01 X-26.95545 Y-9.78555
G01 X-27.02230 Y-9.75578
G01 X-27.07335 Y-9.71936
G01 X-27.13045 Y-9.65840
G01 X-27.16705 Y-9.59503
G01 X-27.18966 Y-9.52543
G01 X-27.19675 Y-9.46313
G01 X-27.19730 Y-8.35828
G01 X-31.65292 Y-3.90266
G01 X-76.74165 Y-3.90266
G01 X-81.59727 Y-8.75830
G01 X-81.59727 Y-20.80268
G01 X-81.60990 Y-20.96694
G01 X-81.64899 Y-21.13504
G01 X-81.72102 Y-21.30890
G01 X-81.81223 Y-21.45541
G01 X-81.91947 Y-21.58047
G01 X-86.37085 Y-26.03180
G01 X-86.37951 Y-26.09345
G01 X-86.46401 Y-26.35176
G01 X-86.60514 Y-26.59619
G01 X-86.79398 Y-26.80592
G01 X-87.01352 Y-26.96611
G01 X-87.28014 Y-27.08661
G01 X-87.55619 Y-27.14528
G01 X-87.83841 Y-27.14528
G01 X-88.12426 Y-27.08285
G01 X-88.38108 Y-26.96611
G01 X-88.60064 Y-26.80592
G01 X-88.78288 Y-26.60432
G01 X-88.93058 Y-26.35176
G01 X-89.01781 Y-26.08336
G01 X-89.04729 Y-25.80264
G01 X-89.01509 Y-25.51189
G01 X-88.93058 Y-25.25357
G01 X-88.79517 Y-25.01793
G01 X-88.60803 Y-24.80683
G01 X-88.36297 Y-24.62878
G01 X-88.11448 Y-24.51875
G01 X-87.92908 Y-24.47877
G01 X-83.79729 Y-20.34703
G01 X-83.79729 Y-8.30268
G01 X-83.77377 Y-8.07855
G01 X-83.70936 Y-7.87283
G01 X-83.60606 Y-7.68365
G01 X-83.47509 Y-7.52485
G01 X-77.97510 Y-2.02484
G01 X-77.85003 Y-1.91760
G01 X-77.70353 Y-1.82639
G01 X-77.52966 Y-1.75435
G01 X-77.36157 Y-1.71526
G01 X-77.19731 Y-1.70264
G01 X-31.19730 Y-1.70264
G01 X-31.03301 Y-1.71526
G01 X-30.86491 Y-1.75435
G01 X-30.70502 Y-1.81925
G01 X-30.55724 Y-1.90838
G01 X-30.41947 Y-2.02484
G01 X-25.64160 Y-6.80273
G01 X-24.51067 Y-6.80458
G01 X-24.43914 Y-6.81980
G01 X-24.37229 Y-6.84957
G01 X-24.31311 Y-6.89257
G01 X-24.27074 Y-6.93882
G01 X-24.22380 Y-7.02008
G01 X-24.20496 Y-7.07989
G01 X-24.19731 Y-7.15267
G01 X-24.19731 Y-9.45266
G04 P0 ( dwell for no time -- G64 should not smooth over this point )
G00 Z2.00000 ( retract )

G00 X-47.86373 Y-24.61626 ( rapid move to begin. )
G01 F50.00000
( Mill infeed pass 1/7 )
G01 Z-0.10000
G04 P0 ( dwell for no time -- G64 should not smooth over this point )
G01 F100.00000
G01 X-47.86373 Y-24.61626
G01 X-47.86429 Y-23.97864
G01 X-47.99901 Y-23.34471
G01 X-48.26262 Y-22.75268
G01 X-48.63696 Y-22.23651
G01 X-49.13394 Y-21.78901
G01 X-49.68641 Y-21.47067
G01 X-50.30277 Y-21.27042
G01 X-50.94729 Y-21.20268
G01 X-61.57229 Y-21.20268
G01 X-61.84727 Y-21.23102
G01 X-61.84727 Y-10.26940
G01 X-61.76033 Y-10.26820
G01 X-61.68916 Y-10.25304
G01 X-61.62230 Y-10.22327
G01 X-61.57125 Y-10.18685
G01 X-61.50844 Y-10.11712
G01 X-61.47755 Y-10.06254
G01 X-61.45332 Y-9.98261
G01 X-61.44730 Y-9.92017
G01 X-61.44730 Y-7.62018
G01 X-61.45494 Y-7.54741
G01 X-61.47755 Y-7.47781
G01 X-61.50844 Y-7.42323
G01 X-61.56310 Y-7.36008
G01 X-61.62230 Y-7.31705
G01 X-61.67938 Y-7.29104
G01 X-61.76594 Y-7.27169
G01 X-64.10254 Y-7.27032
G01 X-64.14422 Y-7.27372
G01 X-64.21524 Y-7.29104
G01 X-64.27231 Y-7.31705
G01 X-64.33149 Y-7.36008
G01 X-64.38047 Y-7.41444
G01 X-64.41704 Y-7.47781
G01 X-64.43965 Y-7.54741
G01 X-64.44729 Y-7.62018
G01 X-64.44676 Y-9.93061
G01 X-64.43965 Y-9.99294
G01 X-64.41704 Y-10.06254
G01 X-64.38047 Y-10.12589
G01 X-64.33149 Y-10.18027
G01 X-64.27231 Y-10.22327
G01 X-64.20546 Y-10.25304
G01 X-64.13426 Y-10.26820
G01 X-64.04729 Y-10.26940
G01 X-64.04729 Y-22.46312
G01 X-64.25697 Y-22.75268
G01 X-64.52057 Y-23.34471
G01 X-64.65532 Y-23.97864
G01 X-64.65588 Y-24.61626
G01 X-64.51684 Y-25.27041
G01 X-64.25697 Y-25.85268
G01 X-63.87605 Y-26.37699
G01 X-63.39444 Y-26.81061
G01 X-62.83317 Y-27.13467
G01 X-62.21682 Y-27.33492
G01 X-61.58276 Y-27.40213
G01 X-50.94729 Y-27.40266
G01 X-50.31311 Y-27.33657
G01 X-49.67709 Y-27.12992
G01 X-49.12517 Y-26.81061
G01 X-48.64357 Y-26.37699
G01 X-48.26262 Y-25.85268
G01 X-48.00277 Y-25.27041
G01 X-47.86373 Y-24.61626
( Mill infeed pass 2/7 )
G01 Z-0.20000
G04 P0 ( dwell for no time -- G64 should not smooth over this point )
G01 F100.00000
G01 X-47.86373 Y-24.61626
G01 X-47.86429 Y-23.97864
G01 X-47.99901 Y-23.34471
G01 X-48.26262 Y-22.75268
G01 X-48.63696 Y-22.23651
G01 X-49.13394 Y-21.78901
G01 X-49.68641 Y-21.47067
G01 X-50.30277 Y-21.27042
G01 X-50.94729 Y-21.20268
G01 X-61.57229 Y-21.20268
G01 X-61.84727 Y-21.23102
G01 X-61.84727 Y-10.26940
G01 X-61.76033 Y-10.26820
G01 X-61.68916 Y-10.25304
G01 X-61.62230 Y-10.22327
G01 X-61.57125 Y-10.18685
G01 X-61.50844 Y-10.11712
G01 X-61.47755 Y-10.06254
G01 X-61.45332 Y-9.98261
G01 X-61.44730 Y-9.92017
G01 X-61.44730 Y-7.62018
G01 X-61.45494 Y-7.54741
G01 X-61.47755 Y-7.47781
G01 X-61.50844 Y-7.42323
G01 X-61.56310 Y-7.36008
G01 X-61.62230 Y-7.31705
G01 X-61.67938 Y-7.29104
G01 X-61.76594 Y-7.27169
G01 X-64.10254 Y-7.27032
G01 X-64.14422 Y-7.27372
G01 X-64.21524 Y-7.29104
G01 X-64.27231 Y-7.31705
G01 X-64.33149 Y-7.36008
G01 X-64.38047 Y-7.41444
G01 X-64.41704 Y-7.47781
G01 X-64.43965 Y-7.54741
G01 X-64.44729 Y-7.62018
G01 X-64.44676 Y-9.93061
G01 X-64.43965 Y-9.99294
G01 X-64.41704 Y-10.06254
G01 X-64.38047 Y-10.12589
G01 X-64.33149 Y-10.18027
G01 X-64.27231 Y-10.22327
G01 X-64.20546 Y-10.25304
G01 X-64.13426 Y-10.26820
G01 X-64.04729 Y-10.26940
G01 X-64.04729 Y-22.46312
G01 X-64.25697 Y-22.75268
G01 X-64.52057 Y-23.34471
G01 X-64.65532 Y-23.97864
G01 X-64.65588 Y-24.61626
G01 X-64.51684 Y-25.27041
G01 X-64.25697 Y-25.85268
G01 X-63.87605 Y-26.37699
G01 X-63.39444 Y-26.81061
G01 X-62.83317 Y-27.13467
G01 X-62.21682 Y-27.33492
G01 X-61.58276 Y-27.40213
G01 X-50.94729 Y-27.40266
G01 X-50.31311 Y-27.33657
G01 X-49.67709 Y-27.12992
G01 X-49.12517 Y-26.81061
G01 X-48.64357 Y-26.37699
G01 X-48.26262 Y-25.85268
G01 X-48.00277 Y-25.27041
G01 X-47.86373 Y-24.61626
( Mill infeed pass 3/7 )
G01 Z-0.30000
G04 P0 ( dwell for no time -- G64 should not smooth over this point )
G01 F100.00000
G01 X-47.86373 Y-24.61626
G01 X-47.86429 Y-23.97864
G01 X-47.99901 Y-23.34471
G01 X-48.26262 Y-22.75268
G01 X-48.63696 Y-22.23651
G01 X-49.13394 Y-21.78901
G01 X-49.68641 Y-21.47067
G01 X-50.30277 Y-21.27042
G01 X-50.94729 Y-21.20268
G01 X-61.57229 Y-21.20268
G01 X-61.84727 Y-21.23102
G01 X-61.84727 Y-10.26940
G01 X-61.76033 Y-10.26820
G01 X-61.68916 Y-10.25304
G01 X-61.62230 Y-10.22327
G01 X-61.57125 Y-10.18685
G01 X-61.50844 Y-10.11712
G01 X-61.47755 Y-10.06254
G01 X-61.45332 Y-9.98261
G01 X-61.44730 Y-9.92017
G01 X-61.44730 Y-7.62018
G01 X-61.45494 Y-7.54741
G01 X-61.47755 Y-7.47781
G01 X-61.50844 Y-7.42323
G01 X-61.56310 Y-7.36008
G01 X-61.62230 Y-7.31705
G01 X-61.67938 Y-7.29104
G01 X-61.76594 Y-7.27169
G01 X-64.10254 Y-7.27032
G01 X-64.14422 Y-7.27372
G01 X-64.21524 Y-7.29104
G01 X-64.27231 Y-7.31705
G01 X-64.33149 Y-7.36008
G01 X-64.38047 Y-7.41444
G01 X-64.41704 Y-7.47781
G01 X-64.43965 Y-7.54741
G01 X-64.44729 Y-7.62018
G01 X-64.44676 Y-9.93061
G01 X-64.43965 Y-9.99294
G01 X-64.41704 Y-10.06254
G01 X-64.38047 Y-10.12589
G01 X-64.33149 Y-10.18027
G01 X-64.27231 Y-10.22327
G01 X-64.20546 Y-10.25304
G01 X-64.13426 Y-10.26820
G01 X-64.04729 Y-10.26940
G01 X-64.04729 Y-22.46312
G01 X-64.25697 Y-22.75268
G01 X-64.52057 Y-23.34471
G01 X-64.65532 Y-23.97864
G01 X-64.65588 Y-24.61626
G01 X-64.51684 Y-25.27041
G01 X-64.25697 Y-25.85268
G01 X-63.87605 Y-26.37699
G01 X-63.39444 Y-26.81061
G01 X-62.83317 Y-27.13467
G01 X-62.21682 Y-27.33492
G01 X-61.58276 Y-27.40213
G01 X-50.94729 Y-27.40266
G01 X-50.31311 Y-27.33657
G01 X-49.67709 Y-27.12992
G01 X-49.12517 Y-26.81061
G01 X-48.64357 Y-26.37699
G01 X-48.26262 Y-25.85268
G01 X-48.00277 Y-25.27041
G01 X-47.86373 Y-24.61626
( Mill infeed pass 4/7 )
G01 Z-0.40000
G04 P0 ( dwell for no time -- G64 should not smooth over this point )
G01 F100.00000
G01 X-47.86373 Y-24.61626
G01 X-47.86429 Y-23.97864
G01 X-47.99901 Y-23.34471
G01 X-48.26262 Y-22.75268
G01 X-48.63696 Y-22.23651
G01 X-49.13394 Y-21.78901
G01 X-49.68641 Y-21.47067
G01 X-50.30277 Y-21.27042
G01 X-50.94729 Y-21.20268
G01 X-61.57229 Y-21.20268
G01 X-61.84727 Y-21.23102
G01 X-61.84727 Y-10.26940
G01 X-61.76033 Y-10.26820
G01 X-61.68916 Y-10.25304
G01 X-61.62230 Y-10.22327
G01 X-61.57125 Y-10.18685
G01 X-61.50844 Y-10.11712
G01 X-61.47755 Y-10.06254
G01 X-61.45332 Y-9.98261
G01 X-61.44730 Y-9.92017
G01 X-61.44730 Y-7.62018
G01 X-61.45494 Y-7.54741
G01 X-61.47755 Y-7.47781
G01 X-61.50844 Y-7.42323
G01 X-61.56310 Y-7.36008
G01 X-61.62230 Y-7.31705
G01 X-61.67938 Y-7.29104
G01 X-61.76594 Y-7.27169
G01 X-64.10254 Y-7.27032
G01 X-64.14422 Y-7.27372
G01 X-64.21524 Y-7.29104
G01 X-64.27231 Y-7.31705
G01 X-64.33149 Y-7.36008
G01 X-64.38047 Y-7.41444
G01 X-64.41704 Y-7.47781
G01 X-64.43965 Y-7.54741
G01 X-64.44729 Y-7.62018
G01 X-64.44676 Y-9.93061
G01 X-64.43965 Y-9.99294
G01 X-64.41704 Y-10.06254
G01 X-64.38047 Y-10.12589
G01 X-64.33149 Y-10.18027
G01 X-64.27231 Y-10.22327
G01 X-64.20546 Y-10.25304
G01 X-64.13426 Y-10.26820
G01 X-64.04729 Y-10.26940
G01 X-64.04729 Y-22.46312
G01 X-64.25697 Y-22.75268
G01 X-64.52057 Y-23.34471
G01 X-64.65532 Y-23.97864
G01 X-64.65588 Y-24.61626
G01 X-64.51684 Y-25.27041
G01 X-64.25697 Y-25.85268
G01 X-63.87605 Y-26.37699
G01 X-63.39444 Y-26.81061
G01 X-62.83317 Y-27.13467
G01 X-62.21682 Y-27.33492
G01 X-61.58276 Y-27.40213
G01 X-50.94729 Y-27.40266
G01 X-50.31311 Y-27.33657
G01 X-49.67709 Y-27.12992
G01 X-49.12517 Y-26.81061
G01 X-48.64357 Y-26.37699
G01 X-48.26262 Y-25.85268
G01 X-48.00277 Y-25.27041
G01 X-47.86373 Y-24.61626
( Mill infeed pass 5/7 )
G01 Z-0.50000
G04 P0 ( dwell for no time -- G64 should not smooth over this point )
G01 F100.00000
G01 X-47.86373 Y-24.61626
G01 X-47.86429 Y-23.97864
G01 X-47.99901 Y-23.34471
G01 X-48.26262 Y-22.75268
G01 X-48.63696 Y-22.23651
G01 X-49.13394 Y-21.78901
G01 X-49.68641 Y-21.47067
G01 X-50.30277 Y-21.27042
G01 X-50.94729 Y-21.20268
G01 X-61.57229 Y-21.20268
G01 X-61.84727 Y-21.23102
G01 X-61.84727 Y-10.26940
G01 X-61.76033 Y-10.26820
G01 X-61.68916 Y-10.25304
G01 X-61.62230 Y-10.22327
G01 X-61.57125 Y-10.18685
G01 X-61.50844 Y-10.11712
G01 X-61.47755 Y-10.06254
G01 X-61.45332 Y-9.98261
G01 X-61.44730 Y-9.92017
G01 X-61.44730 Y-7.62018
G01 X-61.45494 Y-7.54741
G01 X-61.47755 Y-7.47781
G01 X-61.50844 Y-7.42323
G01 X-61.56310 Y-7.36008
G01 X-61.62230 Y-7.31705
G01 X-61.67938 Y-7.29104
G01 X-61.76594 Y-7.27169
G01 X-64.10254 Y-7.27032
G01 X-64.14422 Y-7.27372
G01 X-64.21524 Y-7.29104
G01 X-64.27231 Y-7.31705
G01 X-64.33149 Y-7.36008
G01 X-64.38047 Y-7.41444
G01 X-64.41704 Y-7.47781
G01 X-64.43965 Y-7.54741
G01 X-64.44729 Y-7.62018
G01 X-64.44676 Y-9.93061
G01 X-64.43965 Y-9.99294
G01 X-64.41704 Y-10.06254
G01 X-64.38047 Y-10.12589
G01 X-64.33149 Y-10.18027
G01 X-64.27231 Y-10.22327
G01 X-64.20546 Y-10.25304
G01 X-64.13426 Y-10.26820
G01 X-64.04729 Y-10.26940
G01 X-64.04729 Y-22.46312
G01 X-64.25697 Y-22.75268
G01 X-64.52057 Y-23.34471
G01 X-64.65532 Y-23.97864
G01 X-64.65588 Y-24.61626
G01 X-64.51684 Y-25.27041
G01 X-64.25697 Y-25.85268
G01 X-63.87605 Y-26.37699
G01 X-63.39444 Y-26.81061
G01 X-62.83317 Y-27.13467
G01 X-62.21682 Y-27.33492
G01 X-61.58276 Y-27.40213
G01 X-50.94729 Y-27.40266
G01 X-50.31311 Y-27.33657
G01 X-49.67709 Y-27.12992
G01 X-49.12517 Y-26.81061
G01 X-48.64357 Y-26.37699
G01 X-48.26262 Y-25.85268
G01 X-48.00277 Y-25.27041
G01 X-47.86373 Y-24.61626
( Mill infeed pass 6/7 )
G01 Z-0.60000
G04 P0 ( dwell for no time -- G64 should not smooth over this point )
G01 F100.00000
G01 X-47.86373 Y-24.61626
G01 X-47.86429 Y-23.97864
G01 X-47.99901 Y-23.34471
G01 X-48.26262 Y-22.75268
G01 X-48.63696 Y-22.23651
G01 X-49.13394 Y-21.78901
G01 X-49.68641 Y-21.47067
G01 X-50.30277 Y-21.27042
G01 X-50.94729 Y-21.20268
G01 X-61.57229 Y-21.20268
G01 X-61.84727 Y-21.23102
G01 X-61.84727 Y-10.26940
G01 X-61.76033 Y-10.26820
G01 X-61.68916 Y-10.25304
G01 X-61.62230 Y-10.22327
G01 X-61.57125 Y-10.18685
G01 X-61.50844 Y-10.11712
G01 X-61.47755 Y-10.06254
G01 X-61.45332 Y-9.98261
G01 X-61.44730 Y-9.92017
G01 X-61.44730 Y-7.62018
G01 X-61.45494 Y-7.54741
G01 X-61.47755 Y-7.47781
G01 X-61.50844 Y-7.42323
G01 X-61.56310 Y-7.36008
G01 X-61.62230 Y-7.31705
G01 X-61.67938 Y-7.29104
G01 X-61.76594 Y-7.27169
G01 X-64.10254 Y-7.27032
G01 X-64.14422 Y-7.27372
G01 X-64.21524 Y-7.29104
G01 X-64.27231 Y-7.31705
G01 X-64.33149 Y-7.36008
G01 X-64.38047 Y-7.41444
G01 X-64.41704 Y-7.47781
G01 X-64.43965 Y-7.54741
G01 X-64.44729 Y-7.62018
G01 X-64.44676 Y-9.93061
G01 X-64.43965 Y-9.99294
G01 X-64.41704 Y-10.06254
G01 X-64.38047 Y-10.12589
G01 X-64.33149 Y-10.18027
G01 X-64.27231 Y-10.22327
G01 X-64.20546 Y-10.25304
G01 X-64.13426 Y-10.26820
G01 X-64.04729 Y-10.26940
G01 X-64.04729 Y-22.46312
G01 X-64.25697 Y-22.75268
G01 X-64.52057 Y-23.34471
G01 X-64.65532 Y-23.97864
G01 X-64.65588 Y-24.61626
G01 X-64.51684 Y-25.27041
G01 X-64.25697 Y-25.85268
G01 X-63.87605 Y-26.37699
G01 X-63.39444 Y-26.81061
G01 X-62.83317 Y-27.13467
G01 X-62.21682 Y-27.33492
G01 X-61.58276 Y-27.40213
G01 X-50.94729 Y-27.40266
G01 X-50.31311 Y-27.33657
G01 X-49.67709 Y-27.12992
G01 X-49.12517 Y-26.81061
G01 X-48.64357 Y-26.37699
G01 X-48.26262 Y-25.85268
G01 X-48.00277 Y-25.27041
G01 X-47.86373 Y-24.61626
( Mill infeed pass 7/7 )
G01 Z-0.70000
G04 P0 ( dwell for no time -- G64 should not smooth over this point )
G01 F100.00000
G01 X-47.86373 Y-24.61626
G01 X-47.86429 Y-23.97864
G01 X-47.99901 Y-23.34471
G01 X-48.26262 Y-22.75268
G01 X-48.63696 Y-22.23651
G01 X-49.13394 Y-21.78901
G01 X-49.68641 Y-21.47067
G01 X-50.30277 Y-21.27042
G01 X-50.94729 Y-21.20268
G01 X-61.57229 Y-21.20268
G01 X-61.84727 Y-21.23102
G01 X-61.84727 Y-10.26940
G01 X-61.76033 Y-10.26820
G01 X-61.68916 Y-10.25304
G01 X-61.62230 Y-10.22327
G01 X-61.57125 Y-10.18685
G01 X-61.50844 Y-10.11712
G01 X-61.47755 Y-10.06254
G01 X-61.45332 Y-9.98261
G01 X-61.44730 Y-9.92017
G01 X-61.44730 Y-7.62018
G01 X-61.45494 Y-7.54741
G01 X-61.47755 Y-7.47781
G01 X-61.50844 Y-7.42323
G01 X-61.56310 Y-7.36008
G01 X-61.62230 Y-7.31705
G01 X-61.67938 Y-7.29104
G01 X-61.76594 Y-7.27169
G01 X-64.10254 Y-7.27032
G01 X-64.14422 Y-7.27372
G01 X-64.21524 Y-7.29104
G01 X-64.27231 Y-7.31705
G01 X-64.33149 Y-7.36008
G01 X-64.38047 Y-7.41444
G01 X-64.41704 Y-7.47781
G01 X-64.43965 Y-7.54741
G01 X-64.44729 Y-7.62018
G01 X-64.44676 Y-9.93061
G01 X-64.43965 Y-9.99294
G01 X-64.41704 Y-10.06254
G01 X-64.38047 Y-10.12589
G01 X-64.33149 Y-10.18027
G01 X-64.27231 Y-10.22327
G01 X-64.20546 Y-10.25304
G01 X-64.13426 Y-10.26820
G01 X-64.04729 Y-10.26940
G01 X-64.04729 Y-22.46312
G01 X-64.25697 Y-22.75268
G01 X-64.52057 Y-23.34471
G01 X-64.65532 Y-23.97864
G01 X-64.65588 Y-24.61626
G01 X-64.51684 Y-25.27041
G01 X-64.25697 Y-25.85268
G01 X-63.87605 Y-26.37699
G01 X-63.39444 Y-26.81061
G01 X-62.83317 Y-27.13467
G01 X-62.21682 Y-27.33492
G01 X-61.58276 Y-27.40213
G01 X-50.94729 Y-27.40266
G01 X-50.31311 Y-27.33657
G01 X-49.67709 Y-27.12992
G01 X-49.12517 Y-26.81061
G01 X-48.64357 Y-26.37699
G01 X-48.26262 Y-25.85268
G01 X-48.00277 Y-25.27041
G01 X-47.86373 Y-24.61626
G04 P0 ( dwell for no time -- G64 should not smooth over this point )
G00 Z2.00000 ( retract )

G00 X-66.44731 Y-8.77016 ( rapid move to begin. )
G01 F50.00000
( Mill infeed pass 1/7 )
G01 Z-0.10000
G04 P0 ( dwell for no time -- G64 should not smooth over this point )
G01 F100.00000
G01 X-66.44731 Y-8.77016
G01 X-66.48008 Y-9.08205
G01 X-66.57698 Y-9.38027
G01 X-66.73378 Y-9.65185
G01 X-66.84729 Y-9.77875
G01 X-66.84729 Y-14.05268
G01 X-66.87081 Y-14.27678
G01 X-66.93522 Y-14.48250
G01 X-67.03852 Y-14.67168
G01 X-67.16949 Y-14.83048
G01 X-71.09727 Y-18.75831
G01 X-71.09727 Y-24.80267
G01 X-71.10989 Y-24.96693
G01 X-71.14898 Y-25.13503
G01 X-71.22102 Y-25.30889
G01 X-71.31223 Y-25.45540
G01 X-71.41947 Y-25.58044
G01 X-73.41949 Y-27.58046
G01 X-73.57829 Y-27.71143
G01 X-73.76747 Y-27.81473
G01 X-73.97318 Y-27.87914
G01 X-74.18751 Y-27.90218
G01 X-75.02619 Y-27.90266
G01 X-75.12230 Y-27.97180
G01 X-75.37036 Y-28.08285
G01 X-75.65619 Y-28.14528
G01 X-75.93841 Y-28.14528
G01 X-76.20437 Y-28.08930
G01 X-76.47231 Y-27.97180
G01 X-76.70063 Y-27.80591
G01 X-76.88948 Y-27.59619
G01 X-77.03058 Y-27.35176
G01 X-77.11780 Y-27.08336
G01 X-77.14729 Y-26.80266
G01 X-77.11780 Y-26.52199
G01 X-77.03058 Y-26.25357
G01 X-76.88288 Y-26.00104
G01 X-76.70063 Y-25.79941
G01 X-76.47231 Y-25.63350
G01 X-76.21448 Y-25.51874
G01 X-75.93841 Y-25.46007
G01 X-75.65619 Y-25.46007
G01 X-75.39025 Y-25.51600
G01 X-75.12230 Y-25.63350
G01 X-75.02624 Y-25.70262
G01 X-74.65294 Y-25.70262
G01 X-73.29729 Y-24.34702
G01 X-73.29729 Y-18.30268
G01 X-73.27377 Y-18.07855
G01 X-73.20935 Y-17.87284
G01 X-73.10605 Y-17.68366
G01 X-72.97509 Y-17.52486
G01 X-69.04731 Y-13.59703
G01 X-69.04731 Y-9.77875
G01 X-69.16082 Y-9.65185
G01 X-69.31287 Y-9.38959
G01 X-69.41452 Y-9.08205
G01 X-69.44731 Y-8.77016
G01 X-69.41617 Y-8.46864
G01 X-69.31287 Y-8.15073
G01 X-69.16082 Y-7.88850
G01 X-68.95099 Y-7.65546
G01 X-68.69730 Y-7.47113
G01 X-68.42059 Y-7.34733
G01 X-68.09364 Y-7.27784
G01 X-67.79052 Y-7.27840
G01 X-67.49390 Y-7.34088
G01 X-67.18851 Y-7.47685
G01 X-66.94360 Y-7.65546
G01 X-66.73378 Y-7.88850
G01 X-66.57322 Y-8.16983
G01 X-66.48008 Y-8.45830
G01 X-66.44731 Y-8.77016
( Mill infeed pass 2/7 )
G01 Z-0.20000
G04 P0 ( dwell for no time -- G64 should not smooth over this point )
G01 F100.00000
G01 X-66.44731 Y-8.77016
G01 X-66.48008 Y-9.08205
G01 X-66.57698 Y-9.38027
G01 X-66.73378 Y-9.65185
G01 X-66.84729 Y-9.77875
G01 X-66.84729 Y-14.05268
G01 X-66.87081 Y-14.27678
G01 X-66.93522 Y-14.48250
G01 X-67.03852 Y-14.67168
G01 X-67.16949 Y-14.83048
G01 X-71.09727 Y-18.75831
G01 X-71.09727 Y-24.80267
G01 X-71.10989 Y-24.96693
G01 X-71.14898 Y-25.13503
G01 X-71.22102 Y-25.30889
G01 X-71.31223 Y-25.45540
G01 X-71.41947 Y-25.58044
G01 X-73.41949 Y-27.58046
G01 X-73.57829 Y-27.71143
G01 X-73.76747 Y-27.81473
G01 X-73.97318 Y-27.87914
G01 X-74.18751 Y-27.90218
G01 X-75.02619 Y-27.90266
G01 X-75.12230 Y-27.97180
G01 X-75.37036 Y-28.08285
G01 X-75.65619 Y-28.14528
G01 X-75.93841 Y-28.14528
G01 X-76.20437 Y-28.08930
G01 X-76.47231 Y-27.97180
G01 X-76.70063 Y-27.80591
G01 X-76.88948 Y-27.59619
G01 X-77.03058 Y-27.35176
G01 X-77.11780 Y-27.08336
G01 X-77.14729 Y-26.80266
G01 X-77.11780 Y-26.52199
G01 X-77.03058 Y-26.25357
G01 X-76.88288 Y-26.00104
G01 X-76.70063 Y-25.79941
G01 X-76.47231 Y-25.63350
G01 X-76.21448 Y-25.51874
G01 X-75.93841 Y-25.46007
G01 X-75.65619 Y-25.46007
G01 X-75.39025 Y-25.51600
G01 X-75.12230 Y-25.63350
G01 X-75.02624 Y-25.70262
G01 X-74.65294 Y-25.70262
G01 X-73.29729 Y-24.34702
G01 X-73.29729 Y-18.30268
G01 X-73.27377 Y-18.07855
G01 X-73.20935 Y-17.87284
G01 X-73.10605 Y-17.68366
G01 X-72.97509 Y-17.52486
G01 X-69.04731 Y-13.59703
G01 X-69.04731 Y-9.77875
G01 X-69.16082 Y-9.65185
G01 X-69.31287 Y-9.38959
G01 X-69.41452 Y-9.08205
G01 X-69.44731 Y-8.77016
G01 X-69.41617 Y-8.46864
G01 X-69.31287 Y-8.15073
G01 X-69.16082 Y-7.88850
G01 X-68.95099 Y-7.65546
G01 X-68.69730 Y-7.47113
G01 X-68.42059 Y-7.34733
G01 X-68.09364 Y-7.27784
G01 X-67.79052 Y-7.27840
G01 X-67.49390 Y-7.34088
G01 X-67.18851 Y-7.47685
G01 X-66.94360 Y-7.65546
G01 X-66.73378 Y-7.88850
G01 X-66.57322 Y-8.16983
G01 X-66.48008 Y-8.45830
G01 X-66.44731 Y-8.77016
( Mill infeed pass 3/7 )
G01 Z-0.30000
G04 P0 ( dwell for no time -- G64 should not smooth over this point )
G01 F100.00000
G01 X-66.44731 Y-8.77016
G01 X-66.48008 Y-9.08205
G01 X-66.57698 Y-9.38027
G01 X-66.73378 Y-9.65185
G01 X-66.84729 Y-9.77875
G01 X-66.84729 Y-14.05268
G01 X-66.87081 Y-14.27678
G01 X-66.93522 Y-14.48250
G01 X-67.03852 Y-14.67168
G01 X-67.16949 Y-14.83048
G01 X-71.09727 Y-18.75831
G01 X-71.09727 Y-24.80267
G01 X-71.10989 Y-24.96693
G01 X-71.14898 Y-25.13503
G01 X-71.22102 Y-25.30889
G01 X-71.31223 Y-25.45540
G01 X-71.41947 Y-25.58044
G01 X-73.41949 Y-27.58046
G01 X-73.57829 Y-27.71143
G01 X-73.76747 Y-27.81473
G01 X-73.97318 Y-27.87914
G01 X-74.18751 Y-27.90218
G01 X-75.02619 Y-27.90266
G01 X-75.12230 Y-27.97180
G01 X-75.37036 Y-28.08285
G01 X-75.65619 Y-28.14528
G01 X-75.93841 Y-28.14528
G01 X-76.20437 Y-28.08930
G01 X-76.47231 Y-27.97180
G01 X-76.70063 Y-27.80591
G01 X-76.88948 Y-27.59619
G01 X-77.03058 Y-27.35176
G01 X-77.11780 Y-27.08336
G01 X-77.14729 Y-26.80266
G01 X-77.11780 Y-26.52199
G01 X-77.03058 Y-26.25357
G01 X-76.88288 Y-26.00104
G01 X-76.70063 Y-25.79941
G01 X-76.47231 Y-25.63350
G01 X-76.21448 Y-25.51874
G01 X-75.93841 Y-25.46007
G01 X-75.65619 Y-25.46007
G01 X-75.39025 Y-25.51600
G01 X-75.12230 Y-25.63350
G01 X-75.02624 Y-25.70262
G01 X-74.65294 Y-25.70262
G01 X-73.29729 Y-24.34702
G01 X-73.29729 Y-18.30268
G01 X-73.27377 Y-18.07855
G01 X-73.20935 Y-17.87284
G01 X-73.10605 Y-17.68366
G01 X-72.97509 Y-17.52486
G01 X-69.04731 Y-13.59703
G01 X-69.04731 Y-9.77875
G01 X-69.16082 Y-9.65185
G01 X-69.31287 Y-9.38959
G01 X-69.41452 Y-9.08205
G01 X-69.44731 Y-8.77016
G01 X-69.41617 Y-8.46864
G01 X-69.31287 Y-8.15073
G01 X-69.16082 Y-7.88850
G01 X-68.95099 Y-7.65546
G01 X-68.69730 Y-7.47113
G01 X-68.42059 Y-7.34733
G01 X-68.09364 Y-7.27784
G01 X-67.79052 Y-7.27840
G01 X-67.49390 Y-7.34088
G01 X-67.18851 Y-7.47685
G01 X-66.94360 Y-7.65546
G01 X-66.73378 Y-7.88850
G01 X-66.57322 Y-8.16983
G01 X-66.48008 Y-8.45830
G01 X-66.44731 Y-8.77016
( Mill infeed pass 4/7 )
G01 Z-0.40000
G04 P0 ( dwell for no time -- G64 should not smooth over this point )
G01 F100.00000
G01 X-66.44731 Y-8.77016
G01 X-66.48008 Y-9.08205
G01 X-66.57698 Y-9.38027
G01 X-66.73378 Y-9.65185
G01 X-66.84729 Y-9.77875
G01 X-66.84729 Y-14.05268
G01 X-66.87081 Y-14.27678
G01 X-66.93522 Y-14.48250
G01 X-67.03852 Y-14.67168
G01 X-67.16949 Y-14.83048
G01 X-71.09727 Y-18.75831
G01 X-71.09727 Y-24.80267
G01 X-71.10989 Y-24.96693
G01 X-71.14898 Y-25.13503
G01 X-71.22102 Y-25.30889
G01 X-71.31223 Y-25.45540
G01 X-71.41947 Y-25.58044
G01 X-73.41949 Y-27.58046
G01 X-73.57829 Y-27.71143
G01 X-73.76747 Y-27.81473
G01 X-73.97318 Y-27.87914
G01 X-74.18751 Y-27.90218
G01 X-75.02619 Y-27.90266
G01 X-75.12230 Y-27.97180
G01 X-75.37036 Y-28.08285
G01 X-75.65619 Y-28.14528
G01 X-75.93841 Y-28.14528
G01 X-76.20437 Y-28.08930
G01 X-76.47231 Y-27.97180
G01 X-76.70063 Y-27.80591
G01 X-76.88948 Y-27.59619
G01 X-77.03058 Y-27.35176
G01 X-77.11780 Y-27.08336
G01 X-77.14729 Y-26.80266
G01 X-77.11780 Y-26.52199
G01 X-77.03058 Y-26.25357
G01 X-76.88288 Y-26.00104
G01 X-76.70063 Y-25.79941
G01 X-76.47231 Y-25.63350
G01 X-76.21448 Y-25.51874
G01 X-75.93841 Y-25.46007
G01 X-75.65619 Y-25.46007
G01 X-75.39025 Y-25.51600
G01 X-75.12230 Y-25.63350
G01 X-75.02624 Y-25.70262
G01 X-74.65294 Y-25.70262
G01 X-73.29729 Y-24.34702
G01 X-73.29729 Y-18.30268
G01 X-73.27377 Y-18.07855
G01 X-73.20935 Y-17.87284
G01 X-73.10605 Y-17.68366
G01 X-72.97509 Y-17.52486
G01 X-69.04731 Y-13.59703
G01 X-69.04731 Y-9.77875
G01 X-69.16082 Y-9.65185
G01 X-69.31287 Y-9.38959
G01 X-69.41452 Y-9.08205
G01 X-69.44731 Y-8.77016
G01 X-69.41617 Y-8.46864
G01 X-69.31287 Y-8.15073
G01 X-69.16082 Y-7.88850
G01 X-68.95099 Y-7.65546
G01 X-68.69730 Y-7.47113
G01 X-68.42059 Y-7.34733
G01 X-68.09364 Y-7.27784
G01 X-67.79052 Y-7.27840
G01 X-67.49390 Y-7.34088
G01 X-67.18851 Y-7.47685
G01 X-66.94360 Y-7.65546
G01 X-66.73378 Y-7.88850
G01 X-66.57322 Y-8.16983
G01 X-66.48008 Y-8.45830
G01 X-66.44731 Y-8.77016
( Mill infeed pass 5/7 )
G01 Z-0.50000
G04 P0 ( dwell for no time -- G64 should not smooth over this point )
G01 F100.00000
G01 X-66.44731 Y-8.77016
G01 X-66.48008 Y-9.08205
G01 X-66.57698 Y-9.38027
G01 X-66.73378 Y-9.65185
G01 X-66.84729 Y-9.77875
G01 X-66.84729 Y-14.05268
G01 X-66.87081 Y-14.27678
G01 X-66.93522 Y-14.48250
G01 X-67.03852 Y-14.67168
G01 X-67.16949 Y-14.83048
G01 X-71.09727 Y-18.75831
G01 X-71.09727 Y-24.80267
G01 X-71.10989 Y-24.96693
G01 X-71.14898 Y-25.13503
G01 X-71.22102 Y-25.30889
G01 X-71.31223 Y-25.45540
G01 X-71.41947 Y-25.58044
G01 X-73.41949 Y-27.58046
G01 X-73.57829 Y-27.71143
G01 X-73.76747 Y-27.81473
G01 X-73.97318 Y-27.87914
G01 X-74.18751 Y-27.90218
G01 X-75.02619 Y-27.90266
G01 X-75.12230 Y-27.97180
G01 X-75.37036 Y-28.08285
G01 X-75.65619 Y-28.14528
G01 X-75.93841 Y-28.14528
G01 X-76.20437 Y-28.08930
G01 X-76.47231 Y-27.97180
G01 X-76.70063 Y-27.80591
G01 X-76.88948 Y-27.59619
G01 X-77.03058 Y-27.35176
G01 X-77.11780 Y-27.08336
G01 X-77.14729 Y-26.80266
G01 X-77.11780 Y-26.52199
G01 X-77.03058 Y-26.25357
G01 X-76.88288 Y-26.00104
G01 X-76.70063 Y-25.79941
G01 X-76.47231 Y-25.63350
G01 X-76.21448 Y-25.51874
G01 X-75.93841 Y-25.46007
G01 X-75.65619 Y-25.46007
G01 X-75.39025 Y-25.51600
G01 X-75.12230 Y-25.63350
G01 X-75.02624 Y-25.70262
G01 X-74.65294 Y-25.70262
G01 X-73.29729 Y-24.34702
G01 X-73.29729 Y-18.30268
G01 X-73.27377 Y-18.07855
G01 X-73.20935 Y-17.87284
G01 X-73.10605 Y-17.68366
G01 X-72.97509 Y-17.52486
G01 X-69.04731 Y-13.59703
G01 X-69.04731 Y-9.77875
G01 X-69.16082 Y-9.65185
G01 X-69.31287 Y-9.38959
G01 X-69.41452 Y-9.08205
G01 X-69.44731 Y-8.77016
G01 X-69.41617 Y-8.46864
G01 X-69.31287 Y-8.15073
G01 X-69.16082 Y-7.88850
G01 X-68.95099 Y-7.65546
G01 X-68.69730 Y-7.47113
G01 X-68.42059 Y-7.34733
G01 X-68.09364 Y-7.27784
G01 X-67.79052 Y-7.27840
G01 X-67.49390 Y-7.34088
G01 X-67.18851 Y-7.47685
G01 X-66.94360 Y-7.65546
G01 X-66.73378 Y-7.88850
G01 X-66.57322 Y-8.16983
G01 X-66.48008 Y-8.45830
G01 X-66.44731 Y-8.77016
( Mill infeed pass 6/7 )
G01 Z-0.60000
G04 P0 ( dwell for no time -- G64 should not smooth over this point )
G01 F100.00000
G01 X-66.44731 Y-8.77016
G01 X-66.48008 Y-9.08205
G01 X-66.57698 Y-9.38027
G01 X-66.73378 Y-9.65185
G01 X-66.84729 Y-9.77875
G01 X-66.84729 Y-14.05268
G01 X-66.87081 Y-14.27678
G01 X-66.93522 Y-14.48250
G01 X-67.03852 Y-14.67168
G01 X-67.16949 Y-14.83048
G01 X-71.09727 Y-18.75831
G01 X-71.09727 Y-24.80267
G01 X-71.10989 Y-24.96693
G01 X-71.14898 Y-25.13503
G01 X-71.22102 Y-25.30889
G01 X-71.31223 Y-25.45540
G01 X-71.41947 Y-25.58044
G01 X-73.41949 Y-27.58046
G01 X-73.57829 Y-27.71143
G01 X-73.76747 Y-27.81473
G01 X-73.97318 Y-27.87914
G01 X-74.18751 Y-27.90218
G01 X-75.02619 Y-27.90266
G01 X-75.12230 Y-27.97180
G01 X-75.37036 Y-28.08285
G01 X-75.65619 Y-28.14528
G01 X-75.93841 Y-28.14528
G01 X-76.20437 Y-28.08930
G01 X-76.47231 Y-27.97180
G01 X-76.70063 Y-27.80591
G01 X-76.88948 Y-27.59619
G01 X-77.03058 Y-27.35176
G01 X-77.11780 Y-27.08336
G01 X-77.14729 Y-26.80266
G01 X-77.11780 Y-26.52199
G01 X-77.03058 Y-26.25357
G01 X-76.88288 Y-26.00104
G01 X-76.70063 Y-25.79941
G01 X-76.47231 Y-25.63350
G01 X-76.21448 Y-25.51874
G01 X-75.93841 Y-25.46007
G01 X-75.65619 Y-25.46007
G01 X-75.39025 Y-25.51600
G01 X-75.12230 Y-25.63350
G01 X-75.02624 Y-25.70262
G01 X-74.65294 Y-25.70262
G01 X-73.29729 Y-24.34702
G01 X-73.29729 Y-18.30268
G01 X-73.27377 Y-18.07855
G01 X-73.20935 Y-17.87284
G01 X-73.10605 Y-17.68366
G01 X-72.97509 Y-17.52486
G01 X-69.04731 Y-13.59703
G01 X-69.04731 Y-9.77875
G01 X-69.16082 Y-9.65185
G01 X-69.31287 Y-9.38959
G01 X-69.41452 Y-9.08205
G01 X-69.44731 Y-8.77016
G01 X-69.41617 Y-8.46864
G01 X-69.31287 Y-8.15073
G01 X-69.16082 Y-7.88850
G01 X-68.95099 Y-7.65546
G01 X-68.69730 Y-7.47113
G01 X-68.42059 Y-7.34733
G01 X-68.09364 Y-7.27784
G01 X-67.79052 Y-7.27840
G01 X-67.49390 Y-7.34088
G01 X-67.18851 Y-7.47685
G01 X-66.94360 Y-7.65546
G01 X-66.73378 Y-7.88850
G01 X-66.57322 Y-8.16983
G01 X-66.48008 Y-8.45830
G01 X-66.44731 Y-8.77016
( Mill infeed pass 7/7 )
G01 Z-0.70000
G04 P0 ( dwell for no time -- G64 should not smooth over this point )
G01 F100.00000
G01 X-66.44731 Y-8.77016
G01 X-66.48008 Y-9.08205
G01 X-66.57698 Y-9.38027
G01 X-66.73378 Y-9.65185
G01 X-66.84729 Y-9.77875
G01 X-66.84729 Y-14.05268
G01 X-66.87081 Y-14.27678
G01 X-66.93522 Y-14.48250
G01 X-67.03852 Y-14.67168
G01 X-67.16949 Y-14.83048
G01 X-71.09727 Y-18.75831
G01 X-71.09727 Y-24.80267
G01 X-71.10989 Y-24.96693
G01 X-71.14898 Y-25.13503
G01 X-71.22102 Y-25.30889
G01 X-71.31223 Y-25.45540
G01 X-71.41947 Y-25.58044
G01 X-73.41949 Y-27.58046
G01 X-73.57829 Y-27.71143
G01 X-73.76747 Y-27.81473
G01 X-73.97318 Y-27.87914
G01 X-74.18751 Y-27.90218
G01 X-75.02619 Y-27.90266
G01 X-75.12230 Y-27.97180
G01 X-75.37036 Y-28.08285
G01 X-75.65619 Y-28.14528
G01 X-75.93841 Y-28.14528
G01 X-76.20437 Y-28.08930
G01 X-76.47231 Y-27.97180
G01 X-76.70063 Y-27.80591
G01 X-76.88948 Y-27.59619
G01 X-77.03058 Y-27.35176
G01 X-77.11780 Y-27.08336
G01 X-77.14729 Y-26.80266
G01 X-77.11780 Y-26.52199
G01 X-77.03058 Y-26.25357
G01 X-76.88288 Y-26.00104
G01 X-76.70063 Y-25.79941
G01 X-76.47231 Y-25.63350
G01 X-76.21448 Y-25.51874
G01 X-75.93841 Y-25.46007
G01 X-75.65619 Y-25.46007
G01 X-75.39025 Y-25.51600
G01 X-75.12230 Y-25.63350
G01 X-75.02624 Y-25.70262
G01 X-74.65294 Y-25.70262
G01 X-73.29729 Y-24.34702
G01 X-73.29729 Y-18.30268
G01 X-73.27377 Y-18.07855
G01 X-73.20935 Y-17.87284
G01 X-73.10605 Y-17.68366
G01 X-72.97509 Y-17.52486
G01 X-69.04731 Y-13.59703
G01 X-69.04731 Y-9.77875
G01 X-69.16082 Y-9.65185
G01 X-69.31287 Y-9.38959
G01 X-69.41452 Y-9.08205
G01 X-69.44731 Y-8.77016
G01 X-69.41617 Y-8.46864
G01 X-69.31287 Y-8.15073
G01 X-69.16082 Y-7.88850
G01 X-68.95099 Y-7.65546
G01 X-68.69730 Y-7.47113
G01 X-68.42059 Y-7.34733
G01 X-68.09364 Y-7.27784
G01 X-67.79052 Y-7.27840
G01 X-67.49390 Y-7.34088
G01 X-67.18851 Y-7.47685
G01 X-66.94360 Y-7.65546
G01 X-66.73378 Y-7.88850
G01 X-66.57322 Y-8.16983
G01 X-66.48008 Y-8.45830
G01 X-66.44731 Y-8.77016
G04 P0 ( dwell for no time -- G64 should not smooth over this point )
G00 Z2.00000 ( retract )

G00 X-77.34729 Y-19.30268 ( rapid move to begin. )
G01 F50.00000
( Mill infeed pass 1/7 )
G01 Z-0.10000
G04 P0 ( dwell for no time -- G64 should not smooth over this point )
G01 F100.00000
G01 X-77.34729 Y-19.30268
G01 X-77.37950 Y-19.59346
G01 X-77.46401 Y-19.85178
G01 X-77.59728 Y-20.08370
G01 X-77.59776 Y-23.31245
G01 X-77.61844 Y-23.51725
G01 X-77.67772 Y-23.71438
G01 X-77.78852 Y-23.92167
G01 X-77.91948 Y-24.08047
G01 X-81.09727 Y-27.25829
G01 X-81.09727 Y-27.80266
G01 X-81.11843 Y-28.01724
G01 X-81.18102 Y-28.22359
G01 X-81.28851 Y-28.42166
G01 X-81.41947 Y-28.58046
G01 X-86.37085 Y-33.53184
G01 X-86.37951 Y-33.59346
G01 X-86.46876 Y-33.86110
G01 X-86.60514 Y-34.09617
G01 X-86.79398 Y-34.30593
G01 X-87.02230 Y-34.47181
G01 X-87.27036 Y-34.58284
G01 X-87.56665 Y-34.64583
G01 X-87.83841 Y-34.64527
G01 X-88.11448 Y-34.58660
G01 X-88.37232 Y-34.47181
G01 X-88.59248 Y-34.31250
G01 X-88.79517 Y-34.08741
G01 X-88.93058 Y-33.85177
G01 X-89.01943 Y-33.57301
G01 X-89.04729 Y-33.30268
G01 X-89.01781 Y-33.02198
G01 X-88.93058 Y-32.75358
G01 X-88.78948 Y-32.50916
G01 X-88.60064 Y-32.29943
G01 X-88.37232 Y-32.13354
G01 X-88.11448 Y-32.01876
G01 X-87.92903 Y-31.97878
G01 X-83.29729 Y-27.34701
G01 X-83.29729 Y-26.80266
G01 X-83.27614 Y-26.58806
G01 X-83.21355 Y-26.38171
G01 X-83.10606 Y-26.18364
G01 X-82.97509 Y-26.02484
G01 X-79.79730 Y-22.84702
G01 X-79.79730 Y-20.08375
G01 X-79.93060 Y-19.85178
G01 X-80.01508 Y-19.59346
G01 X-80.04731 Y-19.30268
G01 X-80.01780 Y-19.02198
G01 X-79.93433 Y-18.76336
G01 X-79.78948 Y-18.50916
G01 X-79.60063 Y-18.29943
G01 X-79.38107 Y-18.13923
G01 X-79.11447 Y-18.01873
G01 X-78.82796 Y-17.95953
G01 X-78.55618 Y-17.96006
G01 X-78.28013 Y-18.01873
G01 X-78.01353 Y-18.13923
G01 X-77.79398 Y-18.29943
G01 X-77.60513 Y-18.50916
G01 X-77.46401 Y-18.75358
G01 X-77.37950 Y-19.01187
G01 X-77.34729 Y-19.30268
( Mill infeed pass 2/7 )
G01 Z-0.20000
G04 P0 ( dwell for no time -- G64 should not smooth over this point )
G01 F100.00000
G01 X-77.34729 Y-19.30268
G01 X-77.37950 Y-19.59346
G01 X-77.46401 Y-19.85178
G01 X-77.59728 Y-20.08370
G01 X-77.59776 Y-23.31245
G01 X-77.61844 Y-23.51725
G01 X-77.67772 Y-23.71438
G01 X-77.78852 Y-23.92167
G01 X-77.91948 Y-24.08047
G01 X-81.09727 Y-27.25829
G01 X-81.09727 Y-27.80266
G01 X-81.11843 Y-28.01724
G01 X-81.18102 Y-28.22359
G01 X-81.28851 Y-28.42166
G01 X-81.41947 Y-28.58046
G01 X-86.37085 Y-33.53184
G01 X-86.37951 Y-33.59346
G01 X-86.46876 Y-33.86110
G01 X-86.60514 Y-34.09617
G01 X-86.79398 Y-34.30593
G01 X-87.02230 Y-34.47181
G01 X-87.27036 Y-34.58284
G01 X-87.56665 Y-34.64583
G01 X-87.83841 Y-34.64527
G01 X-88.11448 Y-34.58660
G01 X-88.37232 Y-34.47181
G01 X-88.59248 Y-34.31250
G01 X-88.79517 Y-34.08741
G01 X-88.93058 Y-33.85177
G01 X-89.01943 Y-33.57301
G01 X-89.04729 Y-33.30268
G01 X-89.01781 Y-33.02198
G01 X-88.93058 Y-32.75358
G01 X-88.78948 Y-32.50916
G01 X-88.60064 Y-32.29943
G01 X-88.37232 Y-32.13354
G01 X-88.11448 Y-32.01876
G01 X-87.92903 Y-31.97878
G01 X-83.29729 Y-27.34701
G01 X-83.29729 Y-26.80266
G01 X-83.27614 Y-26.58806
G01 X-83.21355 Y-26.38171
G01 X-83.10606 Y-26.18364
G01 X-82.97509 Y-26.02484
G01 X-79.79730 Y-22.84702
G01 X-79.79730 Y-20.08375
G01 X-79.93060 Y-19.85178
G01 X-80.01508 Y-19.59346
G01 X-80.04731 Y-19.30268
G01 X-80.01780 Y-19.02198
G01 X-79.93433 Y-18.76336
G01 X-79.78948 Y-18.50916
G01 X-79.60063 Y-18.29943
G01 X-79.38107 Y-18.13923
G01 X-79.11447 Y-18.01873
G01 X-78.82796 Y-17.95953
G01 X-78.55618 Y-17.96006
G01 X-78.28013 Y-18.01873
G01 X-78.01353 Y-18.13923
G01 X-77.79398 Y-18.29943
G01 X-77.60513 Y-18.50916
G01 X-77.46401 Y-18.75358
G01 X-77.37950 Y-19.01187
G01 X-77.34729 Y-19.30268
( Mill infeed pass 3/7 )
G01 Z-0.30000
G04 P0 ( dwell for no time -- G64 should not smooth over this point )
G01 F100.00000
G01 X-77.34729 Y-19.30268
G01 X-77.37950 Y-19.59346
G01 X-77.46401 Y-19.85178
G01 X-77.59728 Y-20.08370
G01 X-77.59776 Y-23.31245
G01 X-77.61844 Y-23.51725
G01 X-77.67772 Y-23.71438
G01 X-77.78852 Y-23.92167
G01 X-77.91948 Y-24.08047
G01 X-81.09727 Y-27.25829
G01 X-81.09727 Y-27.80266
G01 X-81.11843 Y-28.01724
G01 X-81.18102 Y-28.22359
G01 X-81.28851 Y-28.42166
G01 X-81.41947 Y-28.58046
G01 X-86.37085 Y-33.53184
G01 X-86.37951 Y-33.59346
G01 X-86.46876 Y-33.86110
G01 X-86.60514 Y-34.09617
G01 X-86.79398 Y-34.30593
G01 X-87.02230 Y-34.47181
G01 X-87.27036 Y-34.58284
G01 X-87.56665 Y-34.64583
G01 X-87.83841 Y-34.64527
G01 X-88.11448 Y-34.58660
G01 X-88.37232 Y-34.47181
G01 X-88.59248 Y-34.31250
G01 X-88.79517 Y-34.08741
G01 X-88.93058 Y-33.85177
G01 X-89.01943 Y-33.57301
G01 X-89.04729 Y-33.30268
G01 X-89.01781 Y-33.02198
G01 X-88.93058 Y-32.75358
G01 X-88.78948 Y-32.50916
G01 X-88.60064 Y-32.29943
G01 X-88.37232 Y-32.13354
G01 X-88.11448 Y-32.01876
G01 X-87.92903 Y-31.97878
G01 X-83.29729 Y-27.34701
G01 X-83.29729 Y-26.80266
G01 X-83.27614 Y-26.58806
G01 X-83.21355 Y-26.38171
G01 X-83.10606 Y-26.18364
G01 X-82.97509 Y-26.02484
G01 X-79.79730 Y-22.84702
G01 X-79.79730 Y-20.08375
G01 X-79.93060 Y-19.85178
G01 X-80.01508 Y-19.59346
G01 X-80.04731 Y-19.30268
G01 X-80.01780 Y-19.02198
G01 X-79.93433 Y-18.76336
G01 X-79.78948 Y-18.50916
G01 X-79.60063 Y-18.29943
G01 X-79.38107 Y-18.13923
G01 X-79.11447 Y-18.01873
G01 X-78.82796 Y-17.95953
G01 X-78.55618 Y-17.96006
G01 X-78.28013 Y-18.01873
G01 X-78.01353 Y-18.13923
G01 X-77.79398 Y-18.29943
G01 X-77.60513 Y-18.50916
G01 X-77.46401 Y-18.75358
G01 X-77.37950 Y-19.01187
G01 X-77.34729 Y-19.30268
( Mill infeed pass 4/7 )
G01 Z-0.40000
G04 P0 ( dwell for no time -- G64 should not smooth over this point )
G01 F100.00000
G01 X-77.34729 Y-19.30268
G01 X-77.37950 Y-19.59346
G01 X-77.46401 Y-19.85178
G01 X-77.59728 Y-20.08370
G01 X-77.59776 Y-23.31245
G01 X-77.61844 Y-23.51725
G01 X-77.67772 Y-23.71438
G01 X-77.78852 Y-23.92167
G01 X-77.91948 Y-24.08047
G01 X-81.09727 Y-27.25829
G01 X-81.09727 Y-27.80266
G01 X-81.11843 Y-28.01724
G01 X-81.18102 Y-28.22359
G01 X-81.28851 Y-28.42166
G01 X-81.41947 Y-28.58046
G01 X-86.37085 Y-33.53184
G01 X-86.37951 Y-33.59346
G01 X-86.46876 Y-33.86110
G01 X-86.60514 Y-34.09617
G01 X-86.79398 Y-34.30593
G01 X-87.02230 Y-34.47181
G01 X-87.27036 Y-34.58284
G01 X-87.56665 Y-34.64583
G01 X-87.83841 Y-34.64527
G01 X-88.11448 Y-34.58660
G01 X-88.37232 Y-34.47181
G01 X-88.59248 Y-34.31250
G01 X-88.79517 Y-34.08741
G01 X-88.93058 Y-33.85177
G01 X-89.01943 Y-33.57301
G01 X-89.04729 Y-33.30268
G01 X-89.01781 Y-33.02198
G01 X-88.93058 Y-32.75358
G01 X-88.78948 Y-32.50916
G01 X-88.60064 Y-32.29943
G01 X-88.37232 Y-32.13354
G01 X-88.11448 Y-32.01876
G01 X-87.92903 Y-31.97878
G01 X-83.29729 Y-27.34701
G01 X-83.29729 Y-26.80266
G01 X-83.27614 Y-26.58806
G01 X-83.21355 Y-26.38171
G01 X-83.10606 Y-26.18364
G01 X-82.97509 Y-26.02484
G01 X-79.79730 Y-22.84702
G01 X-79.79730 Y-20.08375
G01 X-79.93060 Y-19.85178
G01 X-80.01508 Y-19.59346
G01 X-80.04731 Y-19.30268
G01 X-80.01780 Y-19.02198
G01 X-79.93433 Y-18.76336
G01 X-79.78948 Y-18.50916
G01 X-79.60063 Y-18.29943
G01 X-79.38107 Y-18.13923
G01 X-79.11447 Y-18.01873
G01 X-78.82796 Y-17.95953
G01 X-78.55618 Y-17.96006
G01 X-78.28013 Y-18.01873
G01 X-78.01353 Y-18.13923
G01 X-77.79398 Y-18.29943
G01 X-77.60513 Y-18.50916
G01 X-77.46401 Y-18.75358
G01 X-77.37950 Y-19.01187
G01 X-77.34729 Y-19.30268
( Mill infeed pass 5/7 )
G01 Z-0.50000
G04 P0 ( dwell for no time -- G64 should not smooth over this point )
G01 F100.00000
G01 X-77.34729 Y-19.30268
G01 X-77.37950 Y-19.59346
G01 X-77.46401 Y-19.85178
G01 X-77.59728 Y-20.08370
G01 X-77.59776 Y-23.31245
G01 X-77.61844 Y-23.51725
G01 X-77.67772 Y-23.71438
G01 X-77.78852 Y-23.92167
G01 X-77.91948 Y-24.08047
G01 X-81.09727 Y-27.25829
G01 X-81.09727 Y-27.80266
G01 X-81.11843 Y-28.01724
G01 X-81.18102 Y-28.22359
G01 X-81.28851 Y-28.42166
G01 X-81.41947 Y-28.58046
G01 X-86.37085 Y-33.53184
G01 X-86.37951 Y-33.59346
G01 X-86.46876 Y-33.86110
G01 X-86.60514 Y-34.09617
G01 X-86.79398 Y-34.30593
G01 X-87.02230 Y-34.47181
G01 X-87.27036 Y-34.58284
G01 X-87.56665 Y-34.64583
G01 X-87.83841 Y-34.64527
G01 X-88.11448 Y-34.58660
G01 X-88.37232 Y-34.47181
G01 X-88.59248 Y-34.31250
G01 X-88.79517 Y-34.08741
G01 X-88.93058 Y-33.85177
G01 X-89.01943 Y-33.57301
G01 X-89.04729 Y-33.30268
G01 X-89.01781 Y-33.02198
G01 X-88.93058 Y-32.75358
G01 X-88.78948 Y-32.50916
G01 X-88.60064 Y-32.29943
G01 X-88.37232 Y-32.13354
G01 X-88.11448 Y-32.01876
G01 X-87.92903 Y-31.97878
G01 X-83.29729 Y-27.34701
G01 X-83.29729 Y-26.80266
G01 X-83.27614 Y-26.58806
G01 X-83.21355 Y-26.38171
G01 X-83.10606 Y-26.18364
G01 X-82.97509 Y-26.02484
G01 X-79.79730 Y-22.84702
G01 X-79.79730 Y-20.08375
G01 X-79.93060 Y-19.85178
G01 X-80.01508 Y-19.59346
G01 X-80.04731 Y-19.30268
G01 X-80.01780 Y-19.02198
G01 X-79.93433 Y-18.76336
G01 X-79.78948 Y-18.50916
G01 X-79.60063 Y-18.29943
G01 X-79.38107 Y-18.13923
G01 X-79.11447 Y-18.01873
G01 X-78.82796 Y-17.95953
G01 X-78.55618 Y-17.96006
G01 X-78.28013 Y-18.01873
G01 X-78.01353 Y-18.13923
G01 X-77.79398 Y-18.29943
G01 X-77.60513 Y-18.50916
G01 X-77.46401 Y-18.75358
G01 X-77.37950 Y-19.01187
G01 X-77.34729 Y-19.30268
( Mill infeed pass 6/7 )
G01 Z-0.60000
G04 P0 ( dwell for no time -- G64 should not smooth over this point )
G01 F100.00000
G01 X-77.34729 Y-19.30268
G01 X-77.37950 Y-19.59346
G01 X-77.46401 Y-19.85178
G01 X-77.59728 Y-20.08370
G01 X-77.59776 Y-23.31245
G01 X-77.61844 Y-23.51725
G01 X-77.67772 Y-23.71438
G01 X-77.78852 Y-23.92167
G01 X-77.91948 Y-24.08047
G01 X-81.09727 Y-27.25829
G01 X-81.09727 Y-27.80266
G01 X-81.11843 Y-28.01724
G01 X-81.18102 Y-28.22359
G01 X-81.28851 Y-28.42166
G01 X-81.41947 Y-28.58046
G01 X-86.37085 Y-33.53184
G01 X-86.37951 Y-33.59346
G01 X-86.46876 Y-33.86110
G01 X-86.60514 Y-34.09617
G01 X-86.79398 Y-34.30593
G01 X-87.02230 Y-34.47181
G01 X-87.27036 Y-34.58284
G01 X-87.56665 Y-34.64583
G01 X-87.83841 Y-34.64527
G01 X-88.11448 Y-34.58660
G01 X-88.37232 Y-34.47181
G01 X-88.59248 Y-34.31250
G01 X-88.79517 Y-34.08741
G01 X-88.93058 Y-33.85177
G01 X-89.01943 Y-33.57301
G01 X-89.04729 Y-33.30268
G01 X-89.01781 Y-33.02198
G01 X-88.93058 Y-32.75358
G01 X-88.78948 Y-32.50916
G01 X-88.60064 Y-32.29943
G01 X-88.37232 Y-32.13354
G01 X-88.11448 Y-32.01876
G01 X-87.92903 Y-31.97878
G01 X-83.29729 Y-27.34701
G01 X-83.29729 Y-26.80266
G01 X-83.27614 Y-26.58806
G01 X-83.21355 Y-26.38171
G01 X-83.10606 Y-26.18364
G01 X-82.97509 Y-26.02484
G01 X-79.79730 Y-22.84702
G01 X-79.79730 Y-20.08375
G01 X-79.93060 Y-19.85178
G01 X-80.01508 Y-19.59346
G01 X-80.04731 Y-19.30268
G01 X-80.01780 Y-19.02198
G01 X-79.93433 Y-18.76336
G01 X-79.78948 Y-18.50916
G01 X-79.60063 Y-18.29943
G01 X-79.38107 Y-18.13923
G01 X-79.11447 Y-18.01873
G01 X-78.82796 Y-17.95953
G01 X-78.55618 Y-17.96006
G01 X-78.28013 Y-18.01873
G01 X-78.01353 Y-18.13923
G01 X-77.79398 Y-18.29943
G01 X-77.60513 Y-18.50916
G01 X-77.46401 Y-18.75358
G01 X-77.37950 Y-19.01187
G01 X-77.34729 Y-19.30268
( Mill infeed pass 7/7 )
G01 Z-0.70000
G04 P0 ( dwell for no time -- G64 should not smooth over this point )
G01 F100.00000
G01 X-77.34729 Y-19.30268
G01 X-77.37950 Y-19.59346
G01 X-77.46401 Y-19.85178
G01 X-77.59728 Y-20.08370
G01 X-77.59776 Y-23.31245
G01 X-77.61844 Y-23.51725
G01 X-77.67772 Y-23.71438
G01 X-77.78852 Y-23.92167
G01 X-77.91948 Y-24.08047
G01 X-81.09727 Y-27.25829
G01 X-81.09727 Y-27.80266
G01 X-81.11843 Y-28.01724
G01 X-81.18102 Y-28.22359
G01 X-81.28851 Y-28.42166
G01 X-81.41947 Y-28.58046
G01 X-86.37085 Y-33.53184
G01 X-86.37951 Y-33.59346
G01 X-86.46876 Y-33.86110
G01 X-86.60514 Y-34.09617
G01 X-86.79398 Y-34.30593
G01 X-87.02230 Y-34.47181
G01 X-87.27036 Y-34.58284
G01 X-87.56665 Y-34.64583
G01 X-87.83841 Y-34.64527
G01 X-88.11448 Y-34.58660
G01 X-88.37232 Y-34.47181
G01 X-88.59248 Y-34.31250
G01 X-88.79517 Y-34.08741
G01 X-88.93058 Y-33.85177
G01 X-89.01943 Y-33.57301
G01 X-89.04729 Y-33.30268
G01 X-89.01781 Y-33.02198
G01 X-88.93058 Y-32.75358
G01 X-88.78948 Y-32.50916
G01 X-88.60064 Y-32.29943
G01 X-88.37232 Y-32.13354
G01 X-88.11448 Y-32.01876
G01 X-87.92903 Y-31.97878
G01 X-83.29729 Y-27.34701
G01 X-83.29729 Y-26.80266
G01 X-83.27614 Y-26.58806
G01 X-83.21355 Y-26.38171
G01 X-83.10606 Y-26.18364
G01 X-82.97509 Y-26.02484
G01 X-79.79730 Y-22.84702
G01 X-79.79730 Y-20.08375
G01 X-79.93060 Y-19.85178
G01 X-80.01508 Y-19.59346
G01 X-80.04731 Y-19.30268
G01 X-80.01780 Y-19.02198
G01 X-79.93433 Y-18.76336
G01 X-79.78948 Y-18.50916
G01 X-79.60063 Y-18.29943
G01 X-79.38107 Y-18.13923
G01 X-79.11447 Y-18.01873
G01 X-78.82796 Y-17.95953
G01 X-78.55618 Y-17.96006
G01 X-78.28013 Y-18.01873
G01 X-78.01353 Y-18.13923
G01 X-77.79398 Y-18.29943
G01 X-77.60513 Y-18.50916
G01 X-77.46401 Y-18.75358
G01 X-77.37950 Y-19.01187
G01 X-77.34729 Y-19.30268
G04 P0 ( dwell for no time -- G64 should not smooth over this point )
G00 Z2.00000 ( retract )

G00 X-6.84731 Y-73.80267 ( rapid move to begin. )
G01 F50.00000
( Mill infeed pass 1/7 )
G01 Z-0.10000
G04 P0 ( dwell for no time -- G64 should not smooth over this point )
G01 F100.00000
G01 X-6.84731 Y-73.80267
G01 X-6.87680 Y-74.08334
G01 X-6.96402 Y-74.35177
G01 X-7.10514 Y-74.59619
G01 X-7.28657 Y-74.79850
G01 X-7.52231 Y-74.97181
G01 X-7.77037 Y-75.08286
G01 X-8.06663 Y-75.14582
G01 X-8.33841 Y-75.14526
G01 X-8.61449 Y-75.08659
G01 X-8.87230 Y-74.97181
G01 X-9.10062 Y-74.80592
G01 X-9.28947 Y-74.59619
G01 X-9.42584 Y-74.36109
G01 X-9.51509 Y-74.09345
G01 X-9.52378 Y-74.03181
G01 X-10.65294 Y-72.90267
G01 X-25.59731 Y-72.90267
G01 X-25.59731 Y-73.55268
G01 X-25.60495 Y-73.62543
G01 X-25.63231 Y-73.70435
G01 X-25.66413 Y-73.75840
G01 X-25.70569 Y-73.80536
G01 X-25.77231 Y-73.85578
G01 X-25.83914 Y-73.88555
G01 X-25.90038 Y-73.89912
G01 X-25.94729 Y-73.90267
G01 X-28.24168 Y-73.90267
G01 X-42.23664 Y-87.89767
G01 X-40.15552 Y-89.97879
G01 X-39.97013 Y-90.01874
G01 X-39.72164 Y-90.12878
G01 X-39.48397 Y-90.29944
G01 X-39.28943 Y-90.51793
G01 X-39.15402 Y-90.75359
G01 X-39.06680 Y-91.02199
G01 X-39.03731 Y-91.30266
G01 X-39.06680 Y-91.58336
G01 X-39.15402 Y-91.85176
G01 X-39.28727 Y-92.08369
G01 X-39.28775 Y-99.50244
G01 X-39.31079 Y-99.71677
G01 X-39.36771 Y-99.90437
G01 X-39.47851 Y-100.11166
G01 X-39.60947 Y-100.27046
G01 X-40.64996 Y-101.31097
G01 X-40.64996 Y-101.96827
G01 X-40.56301 Y-101.96944
G01 X-40.49184 Y-101.98461
G01 X-40.42499 Y-102.01438
G01 X-40.36578 Y-102.05738
G01 X-40.31684 Y-102.11176
G01 X-40.28023 Y-102.17513
G01 X-40.25763 Y-102.24468
G01 X-40.25054 Y-102.30698
G01 X-40.24998 Y-104.61749
G01 X-40.25763 Y-104.69027
G01 X-40.27650 Y-104.75006
G01 X-40.31684 Y-104.82316
G01 X-40.36578 Y-104.87757
G01 X-40.42499 Y-104.92059
G01 X-40.49184 Y-104.95034
G01 X-40.55306 Y-104.96390
G01 X-40.59476 Y-104.96735
G01 X-42.90522 Y-104.96735
G01 X-42.94690 Y-104.96390
G01 X-43.00814 Y-104.95034
G01 X-43.08376 Y-104.91490
G01 X-43.13418 Y-104.87757
G01 X-43.17655 Y-104.83134
G01 X-43.21498 Y-104.76918
G01 X-43.24233 Y-104.69027
G01 X-43.24944 Y-104.62793
G01 X-43.24944 Y-102.30698
G01 X-43.24233 Y-102.24468
G01 X-43.21973 Y-102.17513
G01 X-43.18315 Y-102.11176
G01 X-43.13418 Y-102.05738
G01 X-43.07500 Y-102.01438
G01 X-43.00814 Y-101.98461
G01 X-42.93695 Y-101.96944
G01 X-42.84998 Y-101.96822
G01 X-42.84998 Y-100.85535
G01 X-42.82646 Y-100.63122
G01 X-42.76204 Y-100.42550
G01 X-42.66458 Y-100.24420
G01 X-42.53438 Y-100.08479
G01 X-41.48729 Y-99.03701
G01 X-41.48729 Y-92.08376
G01 X-41.62059 Y-91.85176
G01 X-41.70510 Y-91.59347
G01 X-41.71376 Y-91.53180
G01 X-58.84294 Y-74.40265
G01 X-61.49424 Y-74.39911
G01 X-61.55545 Y-74.38555
G01 X-61.61298 Y-74.36053
G01 X-61.68149 Y-74.31278
G01 X-61.73615 Y-74.24961
G01 X-61.76703 Y-74.19503
G01 X-61.78695 Y-74.13556
G01 X-61.79731 Y-74.05268
G01 X-61.79731 Y-73.40267
G01 X-64.24165 Y-73.40267
G01 X-65.31412 Y-74.47511
G01 X-65.47292 Y-74.60607
G01 X-65.68021 Y-74.71687
G01 X-65.87734 Y-74.77615
G01 X-66.08214 Y-74.79683
G01 X-79.42621 Y-74.79731
G01 X-79.52229 Y-74.86645
G01 X-79.78013 Y-74.98123
G01 X-80.05618 Y-75.03991
G01 X-80.32796 Y-75.04046
G01 X-80.61447 Y-74.98123
G01 X-80.87230 Y-74.86645
G01 X-81.10063 Y-74.70054
G01 X-81.29516 Y-74.48205
G01 X-81.43060 Y-74.24638
G01 X-81.51510 Y-73.98809
G01 X-81.54675 Y-73.70775
G01 X-81.51779 Y-73.41662
G01 X-81.43060 Y-73.14822
G01 X-81.28947 Y-72.90379
G01 X-81.09250 Y-72.68746
G01 X-80.87230 Y-72.52818
G01 X-80.62425 Y-72.41713
G01 X-80.34876 Y-72.35635
G01 X-80.05618 Y-72.35469
G01 X-79.79024 Y-72.41068
G01 X-79.52229 Y-72.52818
G01 X-79.42621 Y-72.59729
G01 X-66.54757 Y-72.59729
G01 X-65.46784 Y-71.51825
G01 X-65.30000 Y-71.38299
G01 X-65.12712 Y-71.29059
G01 X-64.92141 Y-71.22617
G01 X-64.69731 Y-71.20265
G01 X-61.79731 Y-71.20265
G01 X-61.79731 Y-70.55267
G01 X-61.78967 Y-70.47989
G01 X-61.76703 Y-70.41032
G01 X-61.73046 Y-70.34695
G01 X-61.68149 Y-70.29257
G01 X-61.62230 Y-70.24957
G01 X-61.56523 Y-70.22356
G01 X-61.47867 Y-70.20418
G01 X-61.29731 Y-70.20268
G01 X-61.29731 Y-54.90251
G01 X-61.98398 Y-54.90075
G01 X-62.05545 Y-54.88554
G01 X-62.11298 Y-54.86055
G01 X-62.18890 Y-54.80538
G01 X-62.23046 Y-54.75839
G01 X-62.26228 Y-54.70436
G01 X-62.29129 Y-54.61511
G01 X-62.29731 Y-54.55267
G01 X-62.29731 Y-53.90264
G01 X-69.74164 Y-53.90264
G01 X-70.41944 Y-54.58046
G01 X-70.54454 Y-54.68770
G01 X-70.70501 Y-54.78605
G01 X-70.86491 Y-54.85094
G01 X-71.03300 Y-54.89003
G01 X-71.19729 Y-54.90266
G01 X-72.69731 Y-54.90266
G01 X-72.91189 Y-54.88150
G01 X-73.12713 Y-54.81472
G01 X-73.31631 Y-54.71142
G01 X-73.47511 Y-54.58046
G01 X-79.92900 Y-48.12657
G01 X-80.12425 Y-48.08283
G01 X-80.37231 Y-47.97181
G01 X-80.46839 Y-47.90267
G01 X-93.20708 Y-47.90219
G01 X-93.42140 Y-47.87915
G01 X-93.60901 Y-47.82223
G01 X-93.81630 Y-47.71144
G01 X-93.97510 Y-47.58047
G01 X-94.98170 Y-46.57321
G01 X-95.11695 Y-46.40537
G01 X-95.21355 Y-46.22361
G01 X-95.27614 Y-46.01726
G01 X-95.29729 Y-45.80268
G01 X-95.29729 Y-15.80266
G01 X-95.27377 Y-15.57853
G01 X-95.21355 Y-15.38171
G01 X-95.11695 Y-15.19994
G01 X-94.97510 Y-15.02484
G01 X-94.79999 Y-14.88298
G01 X-94.62712 Y-14.79057
G01 X-94.42140 Y-14.72616
G01 X-94.20708 Y-14.70312
G01 X-88.46835 Y-14.70264
G01 X-88.37232 Y-14.63355
G01 X-88.10437 Y-14.51605
G01 X-87.83841 Y-14.46007
G01 X-87.55619 Y-14.46007
G01 X-87.28014 Y-14.51874
G01 X-87.03163 Y-14.62877
G01 X-86.78657 Y-14.80683
G01 X-86.60514 Y-15.00916
G01 X-86.46401 Y-15.25359
G01 X-86.37681 Y-15.52199
G01 X-86.34786 Y-15.79222
G01 X-86.37681 Y-16.08336
G01 X-86.46025 Y-16.34200
G01 X-86.61171 Y-16.60431
G01 X-86.79398 Y-16.80591
G01 X-87.02230 Y-16.97180
G01 X-87.28014 Y-17.08661
G01 X-87.54585 Y-17.14363
G01 X-87.83841 Y-17.14528
G01 X-88.10437 Y-17.08930
G01 X-88.37232 Y-16.97180
G01 X-88.46843 Y-16.90266
G01 X-93.09727 Y-16.90266
G01 X-93.09727 Y-45.34703
G01 X-92.74165 Y-45.70265
G01 X-80.46837 Y-45.70265
G01 X-80.37231 Y-45.63354
G01 X-80.12425 Y-45.52249
G01 X-79.83842 Y-45.46006
G01 X-79.55618 Y-45.46006
G01 X-79.28013 Y-45.51876
G01 X-79.02230 Y-45.63354
G01 X-78.78658 Y-45.80682
G01 X-78.60513 Y-46.00915
G01 X-78.46878 Y-46.24426
G01 X-78.37952 Y-46.51187
G01 X-78.37084 Y-46.57347
G01 X-72.24166 Y-52.70264
G01 X-71.65292 Y-52.70264
G01 X-70.97512 Y-52.02479
G01 X-70.85002 Y-51.91757
G01 X-70.68955 Y-51.81923
G01 X-70.52965 Y-51.75433
G01 X-70.36156 Y-51.71524
G01 X-70.19729 Y-51.70261
G01 X-62.29731 Y-51.70261
G01 X-62.29731 Y-51.05268
G01 X-62.28966 Y-50.97991
G01 X-62.26228 Y-50.90099
G01 X-62.23046 Y-50.84691
G01 X-62.18890 Y-50.79997
G01 X-62.12230 Y-50.74956
G01 X-62.04534 Y-50.71709
G01 X-61.99424 Y-50.70622
G01 X-61.94730 Y-50.70267
G01 X-58.44730 Y-50.70267
G01 X-58.40039 Y-50.70622
G01 X-58.32937 Y-50.72355
G01 X-58.27230 Y-50.74956
G01 X-58.21312 Y-50.79258
G01 X-58.16415 Y-50.84691
G01 X-58.12757 Y-50.91031
G01 X-58.10494 Y-50.97991
G01 X-58.09729 Y-51.05268
G01 X-58.09729 Y-54.55267
G01 X-58.10494 Y-54.62544
G01 X-58.12757 Y-54.69504
G01 X-58.17072 Y-54.76654
G01 X-58.21312 Y-54.81277
G01 X-58.26354 Y-54.85008
G01 X-58.33915 Y-54.88554
G01 X-58.42099 Y-54.90131
G01 X-59.09729 Y-54.90251
G01 X-59.09729 Y-70.20268
G01 X-57.91594 Y-70.20418
G01 X-57.83915 Y-70.21980
G01 X-57.78162 Y-70.24482
G01 X-57.70570 Y-70.29996
G01 X-57.66415 Y-70.34695
G01 X-57.62757 Y-70.41032
G01 X-57.60494 Y-70.47989
G01 X-57.59729 Y-70.55267
G01 X-57.59729 Y-72.53702
G01 X-43.79229 Y-86.34202
G01 X-29.79730 Y-72.34705
G01 X-29.79730 Y-70.05267
G01 X-29.78965 Y-69.97990
G01 X-29.77081 Y-69.92008
G01 X-29.73045 Y-69.84695
G01 X-29.68150 Y-69.79257
G01 X-29.62229 Y-69.74957
G01 X-29.54536 Y-69.71708
G01 X-29.47360 Y-69.70405
G01 X-28.79730 Y-69.70286
G01 X-28.79730 Y-54.00787
G01 X-29.47360 Y-54.00667
G01 X-29.55547 Y-53.99090
G01 X-29.63108 Y-53.95544
G01 X-29.68150 Y-53.91815
G01 X-29.72387 Y-53.87190
G01 X-29.76705 Y-53.80040
G01 X-29.78965 Y-53.73080
G01 X-29.79730 Y-53.65803
G01 X-29.79677 Y-50.14760
G01 X-29.78965 Y-50.08527
G01 X-29.77081 Y-50.02545
G01 X-29.73045 Y-49.95233
G01 X-29.68150 Y-49.89794
G01 X-29.63108 Y-49.86063
G01 X-29.55547 Y-49.82517
G01 X-29.49423 Y-49.81161
G01 X-29.44731 Y-49.80805
G01 X-25.94729 Y-49.80805
G01 X-25.90038 Y-49.81161
G01 X-25.84925 Y-49.82246
G01 X-25.77231 Y-49.85494
G01 X-25.70569 Y-49.90534
G01 X-25.66413 Y-49.95233
G01 X-25.63231 Y-50.00635
G01 X-25.60495 Y-50.08527
G01 X-25.59731 Y-50.15804
G01 X-25.59731 Y-50.80803
G01 X-11.25830 Y-50.80803
G01 X-9.52376 Y-49.07351
G01 X-9.51509 Y-49.01189
G01 X-9.43059 Y-48.75357
G01 X-9.28947 Y-48.50917
G01 X-9.10062 Y-48.29942
G01 X-8.87230 Y-48.13353
G01 X-8.60438 Y-48.01603
G01 X-8.33841 Y-47.96008
G01 X-8.05619 Y-47.96008
G01 X-7.78012 Y-48.01875
G01 X-7.53163 Y-48.12878
G01 X-7.28657 Y-48.30684
G01 X-7.10514 Y-48.50917
G01 X-6.96402 Y-48.75357
G01 X-6.87680 Y-49.02200
G01 X-6.84784 Y-49.29223
G01 X-6.87951 Y-49.59347
G01 X-6.96402 Y-49.85177
G01 X-7.10514 Y-50.09619
G01 X-7.29397 Y-50.30592
G01 X-7.52231 Y-50.47181
G01 X-7.78012 Y-50.58659
G01 X-7.96557 Y-50.62657
G01 X-10.03211 Y-52.69245
G01 X-10.19995 Y-52.82771
G01 X-10.37283 Y-52.92011
G01 X-10.57854 Y-52.98453
G01 X-10.80267 Y-53.00802
G01 X-25.59731 Y-53.00802
G01 X-25.59731 Y-53.65803
G01 X-25.60328 Y-53.72047
G01 X-25.63231 Y-53.80972
G01 X-25.66413 Y-53.86377
G01 X-25.71311 Y-53.91815
G01 X-25.78164 Y-53.96591
G01 X-25.83914 Y-53.99090
G01 X-25.91062 Y-54.00611
G01 X-26.59728 Y-54.00787
G01 X-26.59728 Y-69.70286
G01 X-25.91062 Y-69.70461
G01 X-25.83914 Y-69.71980
G01 X-25.78164 Y-69.74482
G01 X-25.70569 Y-69.79996
G01 X-25.66413 Y-69.84695
G01 X-25.63231 Y-69.90098
G01 X-25.60328 Y-69.99023
G01 X-25.59731 Y-70.05267
G01 X-25.59731 Y-70.70265
G01 X-10.19731 Y-70.70265
G01 X-9.97318 Y-70.72617
G01 X-9.76747 Y-70.79059
G01 X-9.59460 Y-70.88299
G01 X-9.42675 Y-71.01825
G01 X-7.96554 Y-72.47877
G01 X-7.78012 Y-72.51875
G01 X-7.53163 Y-72.62879
G01 X-7.29397 Y-72.79942
G01 X-7.10514 Y-73.00915
G01 X-6.96402 Y-73.25357
G01 X-6.87680 Y-73.52200
G01 X-6.84731 Y-73.80267
( Mill infeed pass 2/7 )
G01 Z-0.20000
G04 P0 ( dwell for no time -- G64 should not smooth over this point )
G01 F100.00000
G01 X-6.84731 Y-73.80267
G01 X-6.87680 Y-74.08334
G01 X-6.96402 Y-74.35177
G01 X-7.10514 Y-74.59619
G01 X-7.28657 Y-74.79850
G01 X-7.52231 Y-74.97181
G01 X-7.77037 Y-75.08286
G01 X-8.06663 Y-75.14582
G01 X-8.33841 Y-75.14526
G01 X-8.61449 Y-75.08659
G01 X-8.87230 Y-74.97181
G01 X-9.10062 Y-74.80592
G01 X-9.28947 Y-74.59619
G01 X-9.42584 Y-74.36109
G01 X-9.51509 Y-74.09345
G01 X-9.52378 Y-74.03181
G01 X-10.65294 Y-72.90267
G01 X-25.59731 Y-72.90267
G01 X-25.59731 Y-73.55268
G01 X-25.60495 Y-73.62543
G01 X-25.63231 Y-73.70435
G01 X-25.66413 Y-73.75840
G01 X-25.70569 Y-73.80536
G01 X-25.77231 Y-73.85578
G01 X-25.83914 Y-73.88555
G01 X-25.90038 Y-73.89912
G01 X-25.94729 Y-73.90267
G01 X-28.24168 Y-73.90267
G01 X-42.23664 Y-87.89767
G01 X-40.15552 Y-89.97879
G01 X-39.97013 Y-90.01874
G01 X-39.72164 Y-90.12878
G01 X-39.48397 Y-90.29944
G01 X-39.28943 Y-90.51793
G01 X-39.15402 Y-90.75359
G01 X-39.06680 Y-91.02199
G01 X-39.03731 Y-91.30266
G01 X-39.06680 Y-91.58336
G01 X-39.15402 Y-91.85176
G01 X-39.28727 Y-92.08369
G01 X-39.28775 Y-99.50244
G01 X-39.31079 Y-99.71677
G01 X-39.36771 Y-99.90437
G01 X-39.47851 Y-100.11166
G01 X-39.60947 Y-100.27046
G01 X-40.64996 Y-101.31097
G01 X-40.64996 Y-101.96827
G01 X-40.56301 Y-101.96944
G01 X-40.49184 Y-101.98461
G01 X-40.42499 Y-102.01438
G01 X-40.36578 Y-102.05738
G01 X-40.31684 Y-102.11176
G01 X-40.28023 Y-102.17513
G01 X-40.25763 Y-102.24468
G01 X-40.25054 Y-102.30698
G01 X-40.24998 Y-104.61749
G01 X-40.25763 Y-104.69027
G01 X-40.27650 Y-104.75006
G01 X-40.31684 Y-104.82316
G01 X-40.36578 Y-104.87757
G01 X-40.42499 Y-104.92059
G01 X-40.49184 Y-104.95034
G01 X-40.55306 Y-104.96390
G01 X-40.59476 Y-104.96735
G01 X-42.90522 Y-104.96735
G01 X-42.94690 Y-104.96390
G01 X-43.00814 Y-104.95034
G01 X-43.08376 Y-104.91490
G01 X-43.13418 Y-104.87757
G01 X-43.17655 Y-104.83134
G01 X-43.21498 Y-104.76918
G01 X-43.24233 Y-104.69027
G01 X-43.24944 Y-104.62793
G01 X-43.24944 Y-102.30698
G01 X-43.24233 Y-102.24468
G01 X-43.21973 Y-102.17513
G01 X-43.18315 Y-102.11176
G01 X-43.13418 Y-102.05738
G01 X-43.07500 Y-102.01438
G01 X-43.00814 Y-101.98461
G01 X-42.93695 Y-101.96944
G01 X-42.84998 Y-101.96822
G01 X-42.84998 Y-100.85535
G01 X-42.82646 Y-100.63122
G01 X-42.76204 Y-100.42550
G01 X-42.66458 Y-100.24420
G01 X-42.53438 Y-100.08479
G01 X-41.48729 Y-99.03701
G01 X-41.48729 Y-92.08376
G01 X-41.62059 Y-91.85176
G01 X-41.70510 Y-91.59347
G01 X-41.71376 Y-91.53180
G01 X-58.84294 Y-74.40265
G01 X-61.49424 Y-74.39911
G01 X-61.55545 Y-74.38555
G01 X-61.61298 Y-74.36053
G01 X-61.68149 Y-74.31278
G01 X-61.73615 Y-74.24961
G01 X-61.76703 Y-74.19503
G01 X-61.78695 Y-74.13556
G01 X-61.79731 Y-74.05268
G01 X-61.79731 Y-73.40267
G01 X-64.24165 Y-73.40267
G01 X-65.31412 Y-74.47511
G01 X-65.47292 Y-74.60607
G01 X-65.68021 Y-74.71687
G01 X-65.87734 Y-74.77615
G01 X-66.08214 Y-74.79683
G01 X-79.42621 Y-74.79731
G01 X-79.52229 Y-74.86645
G01 X-79.78013 Y-74.98123
G01 X-80.05618 Y-75.03991
G01 X-80.32796 Y-75.04046
G01 X-80.61447 Y-74.98123
G01 X-80.87230 Y-74.86645
G01 X-81.10063 Y-74.70054
G01 X-81.29516 Y-74.48205
G01 X-81.43060 Y-74.24638
G01 X-81.51510 Y-73.98809
G01 X-81.54675 Y-73.70775
G01 X-81.51779 Y-73.41662
G01 X-81.43060 Y-73.14822
G01 X-81.28947 Y-72.90379
G01 X-81.09250 Y-72.68746
G01 X-80.87230 Y-72.52818
G01 X-80.62425 Y-72.41713
G01 X-80.34876 Y-72.35635
G01 X-80.05618 Y-72.35469
G01 X-79.79024 Y-72.41068
G01 X-79.52229 Y-72.52818
G01 X-79.42621 Y-72.59729
G01 X-66.54757 Y-72.59729
G01 X-65.46784 Y-71.51825
G01 X-65.30000 Y-71.38299
G01 X-65.12712 Y-71.29059
G01 X-64.92141 Y-71.22617
G01 X-64.69731 Y-71.20265
G01 X-61.79731 Y-71.20265
G01 X-61.79731 Y-70.55267
G01 X-61.78967 Y-70.47989
G01 X-61.76703 Y-70.41032
G01 X-61.73046 Y-70.34695
G01 X-61.68149 Y-70.29257
G01 X-61.62230 Y-70.24957
G01 X-61.56523 Y-70.22356
G01 X-61.47867 Y-70.20418
G01 X-61.29731 Y-70.20268
G01 X-61.29731 Y-54.90251
G01 X-61.98398 Y-54.90075
G01 X-62.05545 Y-54.88554
G01 X-62.11298 Y-54.86055
G01 X-62.18890 Y-54.80538
G01 X-62.23046 Y-54.75839
G01 X-62.26228 Y-54.70436
G01 X-62.29129 Y-54.61511
G01 X-62.29731 Y-54.55267
G01 X-62.29731 Y-53.90264
G01 X-69.74164 Y-53.90264
G01 X-70.41944 Y-54.58046
G01 X-70.54454 Y-54.68770
G01 X-70.70501 Y-54.78605
G01 X-70.86491 Y-54.85094
G01 X-71.03300 Y-54.89003
G01 X-71.19729 Y-54.90266
G01 X-72.69731 Y-54.90266
G01 X-72.91189 Y-54.88150
G01 X-73.12713 Y-54.81472
G01 X-73.31631 Y-54.71142
G01 X-73.47511 Y-54.58046
G01 X-79.92900 Y-48.12657
G01 X-80.12425 Y-48.08283
G01 X-80.37231 Y-47.97181
G01 X-80.46839 Y-47.90267
G01 X-93.20708 Y-47.90219
G01 X-93.42140 Y-47.87915
G01 X-93.60901 Y-47.82223
G01 X-93.81630 Y-47.71144
G01 X-93.97510 Y-47.58047
G01 X-94.98170 Y-46.57321
G01 X-95.11695 Y-46.40537
G01 X-95.21355 Y-46.22361
G01 X-95.27614 Y-46.01726
G01 X-95.29729 Y-45.80268
G01 X-95.29729 Y-15.80266
G01 X-95.27377 Y-15.57853
G01 X-95.21355 Y-15.38171
G01 X-95.11695 Y-15.19994
G01 X-94.97510 Y-15.02484
G01 X-94.79999 Y-14.88298
G01 X-94.62712 Y-14.79057
G01 X-94.42140 Y-14.72616
G01 X-94.20708 Y-14.70312
G01 X-88.46835 Y-14.70264
G01 X-88.37232 Y-14.63355
G01 X-88.10437 Y-14.51605
G01 X-87.83841 Y-14.46007
G01 X-87.55619 Y-14.46007
G01 X-87.28014 Y-14.51874
G01 X-87.03163 Y-14.62877
G01 X-86.78657 Y-14.80683
G01 X-86.60514 Y-15.00916
G01 X-86.46401 Y-15.25359
G01 X-86.37681 Y-15.52199
G01 X-86.34786 Y-15.79222
G01 X-86.37681 Y-16.08336
G01 X-86.46025 Y-16.34200
G01 X-86.61171 Y-16.60431
G01 X-86.79398 Y-16.80591
G01 X-87.02230 Y-16.97180
G01 X-87.28014 Y-17.08661
G01 X-87.54585 Y-17.14363
G01 X-87.83841 Y-17.14528
G01 X-88.10437 Y-17.08930
G01 X-88.37232 Y-16.97180
G01 X-88.46843 Y-16.90266
G01 X-93.09727 Y-16.90266
G01 X-93.09727 Y-45.34703
G01 X-92.74165 Y-45.70265
G01 X-80.46837 Y-45.70265
G01 X-80.37231 Y-45.63354
G01 X-80.12425 Y-45.52249
G01 X-79.83842 Y-45.46006
G01 X-79.55618 Y-45.46006
G01 X-79.28013 Y-45.51876
G01 X-79.02230 Y-45.63354
G01 X-78.78658 Y-45.80682
G01 X-78.60513 Y-46.00915
G01 X-78.46878 Y-46.24426
G01 X-78.37952 Y-46.51187
G01 X-78.37084 Y-46.57347
G01 X-72.24166 Y-52.70264
G01 X-71.65292 Y-52.70264
G01 X-70.97512 Y-52.02479
G01 X-70.85002 Y-51.91757
G01 X-70.68955 Y-51.81923
G01 X-70.52965 Y-51.75433
G01 X-70.36156 Y-51.71524
G01 X-70.19729 Y-51.70261
G01 X-62.29731 Y-51.70261
G01 X-62.29731 Y-51.05268
G01 X-62.28966 Y-50.97991
G01 X-62.26228 Y-50.90099
G01 X-62.23046 Y-50.84691
G01 X-62.18890 Y-50.79997
G01 X-62.12230 Y-50.74956
G01 X-62.04534 Y-50.71709
G01 X-61.99424 Y-50.70622
G01 X-61.94730 Y-50.70267
G01 X-58.44730 Y-50.70267
G01 X-58.40039 Y-50.70622
G01 X-58.32937 Y-50.72355
G01 X-58.27230 Y-50.74956
G01 X-58.21312 Y-50.79258
G01 X-58.16415 Y-50.84691
G01 X-58.12757 Y-50.91031
G01 X-58.10494 Y-50.97991
G01 X-58.09729 Y-51.05268
G01 X-58.09729 Y-54.55267
G01 X-58.10494 Y-54.62544
G01 X-58.12757 Y-54.69504
G01 X-58.17072 Y-54.76654
G01 X-58.21312 Y-54.81277
G01 X-58.26354 Y-54.85008
G01 X-58.33915 Y-54.88554
G01 X-58.42099 Y-54.90131
G01 X-59.09729 Y-54.90251
G01 X-59.09729 Y-70.20268
G01 X-57.91594 Y-70.20418
G01 X-57.83915 Y-70.21980
G01 X-57.78162 Y-70.24482
G01 X-57.70570 Y-70.29996
G01 X-57.66415 Y-70.34695
G01 X-57.62757 Y-70.41032
G01 X-57.60494 Y-70.47989
G01 X-57.59729 Y-70.55267
G01 X-57.59729 Y-72.53702
G01 X-43.79229 Y-86.34202
G01 X-29.79730 Y-72.34705
G01 X-29.79730 Y-70.05267
G01 X-29.78965 Y-69.97990
G01 X-29.77081 Y-69.92008
G01 X-29.73045 Y-69.84695
G01 X-29.68150 Y-69.79257
G01 X-29.62229 Y-69.74957
G01 X-29.54536 Y-69.71708
G01 X-29.47360 Y-69.70405
G01 X-28.79730 Y-69.70286
G01 X-28.79730 Y-54.00787
G01 X-29.47360 Y-54.00667
G01 X-29.55547 Y-53.99090
G01 X-29.63108 Y-53.95544
G01 X-29.68150 Y-53.91815
G01 X-29.72387 Y-53.87190
G01 X-29.76705 Y-53.80040
G01 X-29.78965 Y-53.73080
G01 X-29.79730 Y-53.65803
G01 X-29.79677 Y-50.14760
G01 X-29.78965 Y-50.08527
G01 X-29.77081 Y-50.02545
G01 X-29.73045 Y-49.95233
G01 X-29.68150 Y-49.89794
G01 X-29.63108 Y-49.86063
G01 X-29.55547 Y-49.82517
G01 X-29.49423 Y-49.81161
G01 X-29.44731 Y-49.80805
G01 X-25.94729 Y-49.80805
G01 X-25.90038 Y-49.81161
G01 X-25.84925 Y-49.82246
G01 X-25.77231 Y-49.85494
G01 X-25.70569 Y-49.90534
G01 X-25.66413 Y-49.95233
G01 X-25.63231 Y-50.00635
G01 X-25.60495 Y-50.08527
G01 X-25.59731 Y-50.15804
G01 X-25.59731 Y-50.80803
G01 X-11.25830 Y-50.80803
G01 X-9.52376 Y-49.07351
G01 X-9.51509 Y-49.01189
G01 X-9.43059 Y-48.75357
G01 X-9.28947 Y-48.50917
G01 X-9.10062 Y-48.29942
G01 X-8.87230 Y-48.13353
G01 X-8.60438 Y-48.01603
G01 X-8.33841 Y-47.96008
G01 X-8.05619 Y-47.96008
G01 X-7.78012 Y-48.01875
G01 X-7.53163 Y-48.12878
G01 X-7.28657 Y-48.30684
G01 X-7.10514 Y-48.50917
G01 X-6.96402 Y-48.75357
G01 X-6.87680 Y-49.02200
G01 X-6.84784 Y-49.29223
G01 X-6.87951 Y-49.59347
G01 X-6.96402 Y-49.85177
G01 X-7.10514 Y-50.09619
G01 X-7.29397 Y-50.30592
G01 X-7.52231 Y-50.47181
G01 X-7.78012 Y-50.58659
G01 X-7.96557 Y-50.62657
G01 X-10.03211 Y-52.69245
G01 X-10.19995 Y-52.82771
G01 X-10.37283 Y-52.92011
G01 X-10.57854 Y-52.98453
G01 X-10.80267 Y-53.00802
G01 X-25.59731 Y-53.00802
G01 X-25.59731 Y-53.65803
G01 X-25.60328 Y-53.72047
G01 X-25.63231 Y-53.80972
G01 X-25.66413 Y-53.86377
G01 X-25.71311 Y-53.91815
G01 X-25.78164 Y-53.96591
G01 X-25.83914 Y-53.99090
G01 X-25.91062 Y-54.00611
G01 X-26.59728 Y-54.00787
G01 X-26.59728 Y-69.70286
G01 X-25.91062 Y-69.70461
G01 X-25.83914 Y-69.71980
G01 X-25.78164 Y-69.74482
G01 X-25.70569 Y-69.79996
G01 X-25.66413 Y-69.84695
G01 X-25.63231 Y-69.90098
G01 X-25.60328 Y-69.99023
G01 X-25.59731 Y-70.05267
G01 X-25.59731 Y-70.70265
G01 X-10.19731 Y-70.70265
G01 X-9.97318 Y-70.72617
G01 X-9.76747 Y-70.79059
G01 X-9.59460 Y-70.88299
G01 X-9.42675 Y-71.01825
G01 X-7.96554 Y-72.47877
G01 X-7.78012 Y-72.51875
G01 X-7.53163 Y-72.62879
G01 X-7.29397 Y-72.79942
G01 X-7.10514 Y-73.00915
G01 X-6.96402 Y-73.25357
G01 X-6.87680 Y-73.52200
G01 X-6.84731 Y-73.80267
( Mill infeed pass 3/7 )
G01 Z-0.30000
G04 P0 ( dwell for no time -- G64 should not smooth over this point )
G01 F100.00000
G01 X-6.84731 Y-73.80267
G01 X-6.87680 Y-74.08334
G01 X-6.96402 Y-74.35177
G01 X-7.10514 Y-74.59619
G01 X-7.28657 Y-74.79850
G01 X-7.52231 Y-74.97181
G01 X-7.77037 Y-75.08286
G01 X-8.06663 Y-75.14582
G01 X-8.33841 Y-75.14526
G01 X-8.61449 Y-75.08659
G01 X-8.87230 Y-74.97181
G01 X-9.10062 Y-74.80592
G01 X-9.28947 Y-74.59619
G01 X-9.42584 Y-74.36109
G01 X-9.51509 Y-74.09345
G01 X-9.52378 Y-74.03181
G01 X-10.65294 Y-72.90267
G01 X-25.59731 Y-72.90267
G01 X-25.59731 Y-73.55268
G01 X-25.60495 Y-73.62543
G01 X-25.63231 Y-73.70435
G01 X-25.66413 Y-73.75840
G01 X-25.70569 Y-73.80536
G01 X-25.77231 Y-73.85578
G01 X-25.83914 Y-73.88555
G01 X-25.90038 Y-73.89912
G01 X-25.94729 Y-73.90267
G01 X-28.24168 Y-73.90267
G01 X-42.23664 Y-87.89767
G01 X-40.15552 Y-89.97879
G01 X-39.97013 Y-90.01874
G01 X-39.72164 Y-90.12878
G01 X-39.48397 Y-90.29944
G01 X-39.28943 Y-90.51793
G01 X-39.15402 Y-90.75359
G01 X-39.06680 Y-91.02199
G01 X-39.03731 Y-91.30266
G01 X-39.06680 Y-91.58336
G01 X-39.15402 Y-91.85176
G01 X-39.28727 Y-92.08369
G01 X-39.28775 Y-99.50244
G01 X-39.31079 Y-99.71677
G01 X-39.36771 Y-99.90437
G01 X-39.47851 Y-100.11166
G01 X-39.60947 Y-100.27046
G01 X-40.64996 Y-101.31097
G01 X-40.64996 Y-101.96827
G01 X-40.56301 Y-101.96944
G01 X-40.49184 Y-101.98461
G01 X-40.42499 Y-102.01438
G01 X-40.36578 Y-102.05738
G01 X-40.31684 Y-102.11176
G01 X-40.28023 Y-102.17513
G01 X-40.25763 Y-102.24468
G01 X-40.25054 Y-102.30698
G01 X-40.24998 Y-104.61749
G01 X-40.25763 Y-104.69027
G01 X-40.27650 Y-104.75006
G01 X-40.31684 Y-104.82316
G01 X-40.36578 Y-104.87757
G01 X-40.42499 Y-104.92059
G01 X-40.49184 Y-104.95034
G01 X-40.55306 Y-104.96390
G01 X-40.59476 Y-104.96735
G01 X-42.90522 Y-104.96735
G01 X-42.94690 Y-104.96390
G01 X-43.00814 Y-104.95034
G01 X-43.08376 Y-104.91490
G01 X-43.13418 Y-104.87757
G01 X-43.17655 Y-104.83134
G01 X-43.21498 Y-104.76918
G01 X-43.24233 Y-104.69027
G01 X-43.24944 Y-104.62793
G01 X-43.24944 Y-102.30698
G01 X-43.24233 Y-102.24468
G01 X-43.21973 Y-102.17513
G01 X-43.18315 Y-102.11176
G01 X-43.13418 Y-102.05738
G01 X-43.07500 Y-102.01438
G01 X-43.00814 Y-101.98461
G01 X-42.93695 Y-101.96944
G01 X-42.84998 Y-101.96822
G01 X-42.84998 Y-100.85535
G01 X-42.82646 Y-100.63122
G01 X-42.76204 Y-100.42550
G01 X-42.66458 Y-100.24420
G01 X-42.53438 Y-100.08479
G01 X-41.48729 Y-99.03701
G01 X-41.48729 Y-92.08376
G01 X-41.62059 Y-91.85176
G01 X-41.70510 Y-91.59347
G01 X-41.71376 Y-91.53180
G01 X-58.84294 Y-74.40265
G01 X-61.49424 Y-74.39911
G01 X-61.55545 Y-74.38555
G01 X-61.61298 Y-74.36053
G01 X-61.68149 Y-74.31278
G01 X-61.73615 Y-74.24961
G01 X-61.76703 Y-74.19503
G01 X-61.78695 Y-74.13556
G01 X-61.79731 Y-74.05268
G01 X-61.79731 Y-73.40267
G01 X-64.24165 Y-73.40267
G01 X-65.31412 Y-74.47511
G01 X-65.47292 Y-74.60607
G01 X-65.68021 Y-74.71687
G01 X-65.87734 Y-74.77615
G01 X-66.08214 Y-74.79683
G01 X-79.42621 Y-74.79731
G01 X-79.52229 Y-74.86645
G01 X-79.78013 Y-74.98123
G01 X-80.05618 Y-75.03991
G01 X-80.32796 Y-75.04046
G01 X-80.61447 Y-74.98123
G01 X-80.87230 Y-74.86645
G01 X-81.10063 Y-74.70054
G01 X-81.29516 Y-74.48205
G01 X-81.43060 Y-74.24638
G01 X-81.51510 Y-73.98809
G01 X-81.54675 Y-73.70775
G01 X-81.51779 Y-73.41662
G01 X-81.43060 Y-73.14822
G01 X-81.28947 Y-72.90379
G01 X-81.09250 Y-72.68746
G01 X-80.87230 Y-72.52818
G01 X-80.62425 Y-72.41713
G01 X-80.34876 Y-72.35635
G01 X-80.05618 Y-72.35469
G01 X-79.79024 Y-72.41068
G01 X-79.52229 Y-72.52818
G01 X-79.42621 Y-72.59729
G01 X-66.54757 Y-72.59729
G01 X-65.46784 Y-71.51825
G01 X-65.30000 Y-71.38299
G01 X-65.12712 Y-71.29059
G01 X-64.92141 Y-71.22617
G01 X-64.69731 Y-71.20265
G01 X-61.79731 Y-71.20265
G01 X-61.79731 Y-70.55267
G01 X-61.78967 Y-70.47989
G01 X-61.76703 Y-70.41032
G01 X-61.73046 Y-70.34695
G01 X-61.68149 Y-70.29257
G01 X-61.62230 Y-70.24957
G01 X-61.56523 Y-70.22356
G01 X-61.47867 Y-70.20418
G01 X-61.29731 Y-70.20268
G01 X-61.29731 Y-54.90251
G01 X-61.98398 Y-54.90075
G01 X-62.05545 Y-54.88554
G01 X-62.11298 Y-54.86055
G01 X-62.18890 Y-54.80538
G01 X-62.23046 Y-54.75839
G01 X-62.26228 Y-54.70436
G01 X-62.29129 Y-54.61511
G01 X-62.29731 Y-54.55267
G01 X-62.29731 Y-53.90264
G01 X-69.74164 Y-53.90264
G01 X-70.41944 Y-54.58046
G01 X-70.54454 Y-54.68770
G01 X-70.70501 Y-54.78605
G01 X-70.86491 Y-54.85094
G01 X-71.03300 Y-54.89003
G01 X-71.19729 Y-54.90266
G01 X-72.69731 Y-54.90266
G01 X-72.91189 Y-54.88150
G01 X-73.12713 Y-54.81472
G01 X-73.31631 Y-54.71142
G01 X-73.47511 Y-54.58046
G01 X-79.92900 Y-48.12657
G01 X-80.12425 Y-48.08283
G01 X-80.37231 Y-47.97181
G01 X-80.46839 Y-47.90267
G01 X-93.20708 Y-47.90219
G01 X-93.42140 Y-47.87915
G01 X-93.60901 Y-47.82223
G01 X-93.81630 Y-47.71144
G01 X-93.97510 Y-47.58047
G01 X-94.98170 Y-46.57321
G01 X-95.11695 Y-46.40537
G01 X-95.21355 Y-46.22361
G01 X-95.27614 Y-46.01726
G01 X-95.29729 Y-45.80268
G01 X-95.29729 Y-15.80266
G01 X-95.27377 Y-15.57853
G01 X-95.21355 Y-15.38171
G01 X-95.11695 Y-15.19994
G01 X-94.97510 Y-15.02484
G01 X-94.79999 Y-14.88298
G01 X-94.62712 Y-14.79057
G01 X-94.42140 Y-14.72616
G01 X-94.20708 Y-14.70312
G01 X-88.46835 Y-14.70264
G01 X-88.37232 Y-14.63355
G01 X-88.10437 Y-14.51605
G01 X-87.83841 Y-14.46007
G01 X-87.55619 Y-14.46007
G01 X-87.28014 Y-14.51874
G01 X-87.03163 Y-14.62877
G01 X-86.78657 Y-14.80683
G01 X-86.60514 Y-15.00916
G01 X-86.46401 Y-15.25359
G01 X-86.37681 Y-15.52199
G01 X-86.34786 Y-15.79222
G01 X-86.37681 Y-16.08336
G01 X-86.46025 Y-16.34200
G01 X-86.61171 Y-16.60431
G01 X-86.79398 Y-16.80591
G01 X-87.02230 Y-16.97180
G01 X-87.28014 Y-17.08661
G01 X-87.54585 Y-17.14363
G01 X-87.83841 Y-17.14528
G01 X-88.10437 Y-17.08930
G01 X-88.37232 Y-16.97180
G01 X-88.46843 Y-16.90266
G01 X-93.09727 Y-16.90266
G01 X-93.09727 Y-45.34703
G01 X-92.74165 Y-45.70265
G01 X-80.46837 Y-45.70265
G01 X-80.37231 Y-45.63354
G01 X-80.12425 Y-45.52249
G01 X-79.83842 Y-45.46006
G01 X-79.55618 Y-45.46006
G01 X-79.28013 Y-45.51876
G01 X-79.02230 Y-45.63354
G01 X-78.78658 Y-45.80682
G01 X-78.60513 Y-46.00915
G01 X-78.46878 Y-46.24426
G01 X-78.37952 Y-46.51187
G01 X-78.37084 Y-46.57347
G01 X-72.24166 Y-52.70264
G01 X-71.65292 Y-52.70264
G01 X-70.97512 Y-52.02479
G01 X-70.85002 Y-51.91757
G01 X-70.68955 Y-51.81923
G01 X-70.52965 Y-51.75433
G01 X-70.36156 Y-51.71524
G01 X-70.19729 Y-51.70261
G01 X-62.29731 Y-51.70261
G01 X-62.29731 Y-51.05268
G01 X-62.28966 Y-50.97991
G01 X-62.26228 Y-50.90099
G01 X-62.23046 Y-50.84691
G01 X-62.18890 Y-50.79997
G01 X-62.12230 Y-50.74956
G01 X-62.04534 Y-50.71709
G01 X-61.99424 Y-50.70622
G01 X-61.94730 Y-50.70267
G01 X-58.44730 Y-50.70267
G01 X-58.40039 Y-50.70622
G01 X-58.32937 Y-50.72355
G01 X-58.27230 Y-50.74956
G01 X-58.21312 Y-50.79258
G01 X-58.16415 Y-50.84691
G01 X-58.12757 Y-50.91031
G01 X-58.10494 Y-50.97991
G01 X-58.09729 Y-51.05268
G01 X-58.09729 Y-54.55267
G01 X-58.10494 Y-54.62544
G01 X-58.12757 Y-54.69504
G01 X-58.17072 Y-54.76654
G01 X-58.21312 Y-54.81277
G01 X-58.26354 Y-54.85008
G01 X-58.33915 Y-54.88554
G01 X-58.42099 Y-54.90131
G01 X-59.09729 Y-54.90251
G01 X-59.09729 Y-70.20268
G01 X-57.91594 Y-70.20418
G01 X-57.83915 Y-70.21980
G01 X-57.78162 Y-70.24482
G01 X-57.70570 Y-70.29996
G01 X-57.66415 Y-70.34695
G01 X-57.62757 Y-70.41032
G01 X-57.60494 Y-70.47989
G01 X-57.59729 Y-70.55267
G01 X-57.59729 Y-72.53702
G01 X-43.79229 Y-86.34202
G01 X-29.79730 Y-72.34705
G01 X-29.79730 Y-70.05267
G01 X-29.78965 Y-69.97990
G01 X-29.77081 Y-69.92008
G01 X-29.73045 Y-69.84695
G01 X-29.68150 Y-69.79257
G01 X-29.62229 Y-69.74957
G01 X-29.54536 Y-69.71708
G01 X-29.47360 Y-69.70405
G01 X-28.79730 Y-69.70286
G01 X-28.79730 Y-54.00787
G01 X-29.47360 Y-54.00667
G01 X-29.55547 Y-53.99090
G01 X-29.63108 Y-53.95544
G01 X-29.68150 Y-53.91815
G01 X-29.72387 Y-53.87190
G01 X-29.76705 Y-53.80040
G01 X-29.78965 Y-53.73080
G01 X-29.79730 Y-53.65803
G01 X-29.79677 Y-50.14760
G01 X-29.78965 Y-50.08527
G01 X-29.77081 Y-50.02545
G01 X-29.73045 Y-49.95233
G01 X-29.68150 Y-49.89794
G01 X-29.63108 Y-49.86063
G01 X-29.55547 Y-49.82517
G01 X-29.49423 Y-49.81161
G01 X-29.44731 Y-49.80805
G01 X-25.94729 Y-49.80805
G01 X-25.90038 Y-49.81161
G01 X-25.84925 Y-49.82246
G01 X-25.77231 Y-49.85494
G01 X-25.70569 Y-49.90534
G01 X-25.66413 Y-49.95233
G01 X-25.63231 Y-50.00635
G01 X-25.60495 Y-50.08527
G01 X-25.59731 Y-50.15804
G01 X-25.59731 Y-50.80803
G01 X-11.25830 Y-50.80803
G01 X-9.52376 Y-49.07351
G01 X-9.51509 Y-49.01189
G01 X-9.43059 Y-48.75357
G01 X-9.28947 Y-48.50917
G01 X-9.10062 Y-48.29942
G01 X-8.87230 Y-48.13353
G01 X-8.60438 Y-48.01603
G01 X-8.33841 Y-47.96008
G01 X-8.05619 Y-47.96008
G01 X-7.78012 Y-48.01875
G01 X-7.53163 Y-48.12878
G01 X-7.28657 Y-48.30684
G01 X-7.10514 Y-48.50917
G01 X-6.96402 Y-48.75357
G01 X-6.87680 Y-49.02200
G01 X-6.84784 Y-49.29223
G01 X-6.87951 Y-49.59347
G01 X-6.96402 Y-49.85177
G01 X-7.10514 Y-50.09619
G01 X-7.29397 Y-50.30592
G01 X-7.52231 Y-50.47181
G01 X-7.78012 Y-50.58659
G01 X-7.96557 Y-50.62657
G01 X-10.03211 Y-52.69245
G01 X-10.19995 Y-52.82771
G01 X-10.37283 Y-52.92011
G01 X-10.57854 Y-52.98453
G01 X-10.80267 Y-53.00802
G01 X-25.59731 Y-53.00802
G01 X-25.59731 Y-53.65803
G01 X-25.60328 Y-53.72047
G01 X-25.63231 Y-53.80972
G01 X-25.66413 Y-53.86377
G01 X-25.71311 Y-53.91815
G01 X-25.78164 Y-53.96591
G01 X-25.83914 Y-53.99090
G01 X-25.91062 Y-54.00611
G01 X-26.59728 Y-54.00787
G01 X-26.59728 Y-69.70286
G01 X-25.91062 Y-69.70461
G01 X-25.83914 Y-69.71980
G01 X-25.78164 Y-69.74482
G01 X-25.70569 Y-69.79996
G01 X-25.66413 Y-69.84695
G01 X-25.63231 Y-69.90098
G01 X-25.60328 Y-69.99023
G01 X-25.59731 Y-70.05267
G01 X-25.59731 Y-70.70265
G01 X-10.19731 Y-70.70265
G01 X-9.97318 Y-70.72617
G01 X-9.76747 Y-70.79059
G01 X-9.59460 Y-70.88299
G01 X-9.42675 Y-71.01825
G01 X-7.96554 Y-72.47877
G01 X-7.78012 Y-72.51875
G01 X-7.53163 Y-72.62879
G01 X-7.29397 Y-72.79942
G01 X-7.10514 Y-73.00915
G01 X-6.96402 Y-73.25357
G01 X-6.87680 Y-73.52200
G01 X-6.84731 Y-73.80267
( Mill infeed pass 4/7 )
G01 Z-0.40000
G04 P0 ( dwell for no time -- G64 should not smooth over this point )
G01 F100.00000
G01 X-6.84731 Y-73.80267
G01 X-6.87680 Y-74.08334
G01 X-6.96402 Y-74.35177
G01 X-7.10514 Y-74.59619
G01 X-7.28657 Y-74.79850
G01 X-7.52231 Y-74.97181
G01 X-7.77037 Y-75.08286
G01 X-8.06663 Y-75.14582
G01 X-8.33841 Y-75.14526
G01 X-8.61449 Y-75.08659
G01 X-8.87230 Y-74.97181
G01 X-9.10062 Y-74.80592
G01 X-9.28947 Y-74.59619
G01 X-9.42584 Y-74.36109
G01 X-9.51509 Y-74.09345
G01 X-9.52378 Y-74.03181
G01 X-10.65294 Y-72.90267
G01 X-25.59731 Y-72.90267
G01 X-25.59731 Y-73.55268
G01 X-25.60495 Y-73.62543
G01 X-25.63231 Y-73.70435
G01 X-25.66413 Y-73.75840
G01 X-25.70569 Y-73.80536
G01 X-25.77231 Y-73.85578
G01 X-25.83914 Y-73.88555
G01 X-25.90038 Y-73.89912
G01 X-25.94729 Y-73.90267
G01 X-28.24168 Y-73.90267
G01 X-42.23664 Y-87.89767
G01 X-40.15552 Y-89.97879
G01 X-39.97013 Y-90.01874
G01 X-39.72164 Y-90.12878
G01 X-39.48397 Y-90.29944
G01 X-39.28943 Y-90.51793
G01 X-39.15402 Y-90.75359
G01 X-39.06680 Y-91.02199
G01 X-39.03731 Y-91.30266
G01 X-39.06680 Y-91.58336
G01 X-39.15402 Y-91.85176
G01 X-39.28727 Y-92.08369
G01 X-39.28775 Y-99.50244
G01 X-39.31079 Y-99.71677
G01 X-39.36771 Y-99.90437
G01 X-39.47851 Y-100.11166
G01 X-39.60947 Y-100.27046
G01 X-40.64996 Y-101.31097
G01 X-40.64996 Y-101.96827
G01 X-40.56301 Y-101.96944
G01 X-40.49184 Y-101.98461
G01 X-40.42499 Y-102.01438
G01 X-40.36578 Y-102.05738
G01 X-40.31684 Y-102.11176
G01 X-40.28023 Y-102.17513
G01 X-40.25763 Y-102.24468
G01 X-40.25054 Y-102.30698
G01 X-40.24998 Y-104.61749
G01 X-40.25763 Y-104.69027
G01 X-40.27650 Y-104.75006
G01 X-40.31684 Y-104.82316
G01 X-40.36578 Y-104.87757
G01 X-40.42499 Y-104.92059
G01 X-40.49184 Y-104.95034
G01 X-40.55306 Y-104.96390
G01 X-40.59476 Y-104.96735
G01 X-42.90522 Y-104.96735
G01 X-42.94690 Y-104.96390
G01 X-43.00814 Y-104.95034
G01 X-43.08376 Y-104.91490
G01 X-43.13418 Y-104.87757
G01 X-43.17655 Y-104.83134
G01 X-43.21498 Y-104.76918
G01 X-43.24233 Y-104.69027
G01 X-43.24944 Y-104.62793
G01 X-43.24944 Y-102.30698
G01 X-43.24233 Y-102.24468
G01 X-43.21973 Y-102.17513
G01 X-43.18315 Y-102.11176
G01 X-43.13418 Y-102.05738
G01 X-43.07500 Y-102.01438
G01 X-43.00814 Y-101.98461
G01 X-42.93695 Y-101.96944
G01 X-42.84998 Y-101.96822
