( pcb2gcode 2.5.0 )
( Software-independent Gcode )

( This file uses 2 drill bit sizes. )
( Bit sizes: [1mm] [2.5mm] )

G94       (Millimeters per minute feed rate.)
G21       (Units == Millimeters.)
G91.1     (Incremental arc distance mode.)
G90       (Absolute coordinates.)
G00 S4700     (RPM spindle speed.)

G00 Z2.00000 (Retract)
T1
M5      (Spindle stop.)
G04 P1.00000
(MSG, Change tool bit to drill size 1mm)
M0      (Temporary machine stop.)
M3      (Spindle on clockwise.)
G0 Z2.00000
G04 P1.00000

G1 F25.00000
G0 X-25.44700 Y-24.30300
G1 Z-0.30000
G1 Z2.00000
G0 X-25.69700 Y-8.30300
G1 Z-0.30000
G1 Z2.00000
G0 X-30.69700 Y-8.30300
G1 Z-0.30000
G1 Z2.00000
G0 X-62.94700 Y-8.77000
G1 Z-0.30000
G1 Z2.00000
G0 X-67.94700 Y-8.77000
G1 Z-0.30000
G1 Z2.00000
G0 X-78.69700 Y-19.30300
G1 Z-0.30000
G1 Z2.00000
G0 X-75.79700 Y-26.80300
G1 Z-0.30000
G1 Z2.00000
G0 X-87.69700 Y-15.80300
G1 Z-0.30000
G1 Z2.00000
G0 X-87.69700 Y-25.80300
G1 Z-0.30000
G1 Z2.00000
G0 X-87.69700 Y-33.30300
G1 Z-0.30000
G1 Z2.00000
G0 X-87.69700 Y-40.80300
G1 Z-0.30000
G1 Z2.00000
G0 X-62.94700 Y-24.30300
G1 Z-0.30000
G1 Z2.00000
G0 X-79.69700 Y-41.80300
G1 Z-0.30000
G1 Z2.00000
G0 X-79.69700 Y-46.80300
G1 Z-0.30000
G1 Z2.00000
G0 X-80.19700 Y-73.69700
G1 Z-0.30000
G1 Z2.00000
G0 X-80.19700 Y-78.69700
G1 Z-0.30000
G1 Z2.00000
G0 X-48.00700 Y-91.30300
G1 Z-0.30000
G1 Z2.00000
G0 X-46.75000 Y-103.46800
G1 Z-0.30000
G1 Z2.00000
G0 X-41.75000 Y-103.46800
G1 Z-0.30000
G1 Z2.00000
G0 X-40.38700 Y-91.30300
G1 Z-0.30000
G1 Z2.00000
G0 X-8.19700 Y-78.80300
G1 Z-0.30000
G1 Z2.00000
G0 X-8.19700 Y-73.80300
G1 Z-0.30000
G1 Z2.00000
G0 X-8.19700 Y-49.30300
G1 Z-0.30000
G1 Z2.00000
G0 X-8.19700 Y-44.30300
G1 Z-0.30000
G1 Z2.00000

G00 Z2.00000 (Retract)
T4
M5      (Spindle stop.)
G04 P1.00000
(MSG, Change tool bit to drill size 2.5mm)
M0      (Temporary machine stop.)
M3      (Spindle on clockwise.)
G0 Z2.00000
G04 P1.00000

G1 F25.00000
G0 X-27.69700 Y-41.90800
G1 Z-0.30000
G1 Z2.00000
G0 X-27.69700 Y-51.90800
G1 Z-0.30000
G1 Z2.00000
G0 X-27.69700 Y-71.80300
G1 Z-0.30000
G1 Z2.00000
G0 X-27.69700 Y-81.80300
G1 Z-0.30000
G1 Z2.00000
G0 X-59.69700 Y-82.30300
G1 Z-0.30000
G1 Z2.00000
G0 X-59.69700 Y-72.30300
G1 Z-0.30000
G1 Z2.00000
G0 X-60.19700 Y-52.80300
G1 Z-0.30000
G1 Z2.00000
G0 X-60.19700 Y-42.80300
G1 Z-0.30000
G1 Z2.00000
G0 X-44.19700 Y-24.30300
G1 Z-0.30000
G1 Z2.00000

G00 Z2.000 ( All done -- retract )

M5      (Spindle off.)
G04 P1.000000
M9      (Coolant off.)
M2      (Program end.)

