( pcb2gcode 2.5.0 )
( Software-independent Gcode )

G94 ( Millimeters per minute feed rate. )
G21 ( Units == Millimeters. )

G90 ( Absolute coordinates. )
G00 S3000 ( RPM spindle speed. )
G01 F200.00000 ( Feedrate. )


G00 Z2.00000 (Retract to tool change height)
T0
M5      (Spindle stop.)
G04 P1.00000 (Wait for spindle to stop)
(MSG, Change tool bit to cutter diameter 1.50000mm)
M0      (Temporary machine stop.)
M3 ( Spindle on clockwise. )
G04 P1.00000 (Wait for spindle to get up to speed)
G04 P0 ( dwell for no time -- G64 should not smooth over this point )
G00 Z2.00000 ( retract )

G00 X0.05268 Y-114.30267 ( rapid move to begin. )
G01 Z-0.09474 F100.00000 ( plunge. )
G04 P0 ( dwell for no time -- G64 should not smooth over this point )
G01 F200.00000
G01 X0.05268 Y-58.80265
G01 X0.05268 Y-56.30265
G01 X0.05268 Y-0.80264
G01 X0.03828 Y-0.65634
G01 X-0.00439 Y-0.51565
G01 X-0.07369 Y-0.38598
G01 X-0.16695 Y-0.27231
G01 X-0.28062 Y-0.17904
G01 X-0.41029 Y-0.10975
G01 X-0.55098 Y-0.06706
G01 X-0.69731 Y-0.05265
G01 X-47.44730 Y-0.05265
G01 X-49.94730 Y-0.05265
G01 X-96.69729 Y-0.05265
G01 X-96.84360 Y-0.06706
G01 X-96.98429 Y-0.10975
G01 X-97.11395 Y-0.17904
G01 X-97.22762 Y-0.27231
G01 X-97.32089 Y-0.38598
G01 X-97.39018 Y-0.51565
G01 X-97.43288 Y-0.65634
G01 X-97.44728 Y-0.80264
G01 X-97.44728 Y-56.30265
G01 X-97.44728 Y-58.80265
G01 X-97.44728 Y-114.30267
G01 X-97.43288 Y-114.44897
G01 X-97.39018 Y-114.58966
G01 X-97.32089 Y-114.71933
G01 X-97.22762 Y-114.83299
G01 X-97.11395 Y-114.92626
G01 X-96.98429 Y-114.99555
G01 X-96.84360 Y-115.03825
G01 X-96.69729 Y-115.05265
G01 X-49.94730 Y-115.05265
G01 X-47.44730 Y-115.05265
G01 X-0.69731 Y-115.05265
G01 X-0.55098 Y-115.03825
G01 X-0.41029 Y-114.99555
G01 X-0.28062 Y-114.92626
G01 X-0.16695 Y-114.83299
G01 X-0.07369 Y-114.71933
G01 X-0.00439 Y-114.58966
G01 X0.03828 Y-114.44897
G01 X0.05268 Y-114.30267
G01 Z-0.18947 F100.00000 ( plunge. )
G04 P0 ( dwell for no time -- G64 should not smooth over this point )
G01 F200.00000
G01 X0.05268 Y-58.80265
G01 X0.05268 Y-56.30265
G01 X0.05268 Y-0.80264
G01 X0.03828 Y-0.65634
G01 X-0.00439 Y-0.51565
G01 X-0.07369 Y-0.38598
G01 X-0.16695 Y-0.27231
G01 X-0.28062 Y-0.17904
G01 X-0.41029 Y-0.10975
G01 X-0.55098 Y-0.06706
G01 X-0.69731 Y-0.05265
G01 X-47.44730 Y-0.05265
G01 X-49.94730 Y-0.05265
G01 X-96.69729 Y-0.05265
G01 X-96.84360 Y-0.06706
G01 X-96.98429 Y-0.10975
G01 X-97.11395 Y-0.17904
G01 X-97.22762 Y-0.27231
G01 X-97.32089 Y-0.38598
G01 X-97.39018 Y-0.51565
G01 X-97.43288 Y-0.65634
G01 X-97.44728 Y-0.80264
G01 X-97.44728 Y-56.30265
G01 X-97.44728 Y-58.80265
G01 X-97.44728 Y-114.30267
G01 X-97.43288 Y-114.44897
G01 X-97.39018 Y-114.58966
G01 X-97.32089 Y-114.71933
G01 X-97.22762 Y-114.83299
G01 X-97.11395 Y-114.92626
G01 X-96.98429 Y-114.99555
G01 X-96.84360 Y-115.03825
G01 X-96.69729 Y-115.05265
G01 X-49.94730 Y-115.05265
G01 X-47.44730 Y-115.05265
G01 X-0.69731 Y-115.05265
G01 X-0.55098 Y-115.03825
G01 X-0.41029 Y-114.99555
G01 X-0.28062 Y-114.92626
G01 X-0.16695 Y-114.83299
G01 X-0.07369 Y-114.71933
G01 X-0.00439 Y-114.58966
G01 X0.03828 Y-114.44897
G01 X0.05268 Y-114.30267
G01 Z-0.28421 F100.00000 ( plunge. )
G04 P0 ( dwell for no time -- G64 should not smooth over this point )
G01 F200.00000
G01 X0.05268 Y-58.80265
G01 X0.05268 Y-56.30265
G01 X0.05268 Y-0.80264
G01 X0.03828 Y-0.65634
G01 X-0.00439 Y-0.51565
G01 X-0.07369 Y-0.38598
G01 X-0.16695 Y-0.27231
G01 X-0.28062 Y-0.17904
G01 X-0.41029 Y-0.10975
G01 X-0.55098 Y-0.06706
G01 X-0.69731 Y-0.05265
G01 X-47.44730 Y-0.05265
G01 X-49.94730 Y-0.05265
G01 X-96.69729 Y-0.05265
G01 X-96.84360 Y-0.06706
G01 X-96.98429 Y-0.10975
G01 X-97.11395 Y-0.17904
G01 X-97.22762 Y-0.27231
G01 X-97.32089 Y-0.38598
G01 X-97.39018 Y-0.51565
G01 X-97.43288 Y-0.65634
G01 X-97.44728 Y-0.80264
G01 X-97.44728 Y-56.30265
G01 X-97.44728 Y-58.80265
G01 X-97.44728 Y-114.30267
G01 X-97.43288 Y-114.44897
G01 X-97.39018 Y-114.58966
G01 X-97.32089 Y-114.71933
G01 X-97.22762 Y-114.83299
G01 X-97.11395 Y-114.92626
G01 X-96.98429 Y-114.99555
G01 X-96.84360 Y-115.03825
G01 X-96.69729 Y-115.05265
G01 X-49.94730 Y-115.05265
G01 X-47.44730 Y-115.05265
G01 X-0.69731 Y-115.05265
G01 X-0.55098 Y-115.03825
G01 X-0.41029 Y-114.99555
G01 X-0.28062 Y-114.92626
G01 X-0.16695 Y-114.83299
G01 X-0.07369 Y-114.71933
G01 X-0.00439 Y-114.58966
G01 X0.03828 Y-114.44897
G01 X0.05268 Y-114.30267
G01 Z-0.37895 F100.00000 ( plunge. )
G04 P0 ( dwell for no time -- G64 should not smooth over this point )
G01 F200.00000
G01 X0.05268 Y-58.80265
G01 X0.05268 Y-56.30265
G01 X0.05268 Y-0.80264
G01 X0.03828 Y-0.65634
G01 X-0.00439 Y-0.51565
G01 X-0.07369 Y-0.38598
G01 X-0.16695 Y-0.27231
G01 X-0.28062 Y-0.17904
G01 X-0.41029 Y-0.10975
G01 X-0.55098 Y-0.06706
G01 X-0.69731 Y-0.05265
G01 X-47.44730 Y-0.05265
G01 X-49.94730 Y-0.05265
G01 X-96.69729 Y-0.05265
G01 X-96.84360 Y-0.06706
G01 X-96.98429 Y-0.10975
G01 X-97.11395 Y-0.17904
G01 X-97.22762 Y-0.27231
G01 X-97.32089 Y-0.38598
G01 X-97.39018 Y-0.51565
G01 X-97.43288 Y-0.65634
G01 X-97.44728 Y-0.80264
G01 X-97.44728 Y-56.30265
G01 X-97.44728 Y-58.80265
G01 X-97.44728 Y-114.30267
G01 X-97.43288 Y-114.44897
G01 X-97.39018 Y-114.58966
G01 X-97.32089 Y-114.71933
G01 X-97.22762 Y-114.83299
G01 X-97.11395 Y-114.92626
G01 X-96.98429 Y-114.99555
G01 X-96.84360 Y-115.03825
G01 X-96.69729 Y-115.05265
G01 X-49.94730 Y-115.05265
G01 X-47.44730 Y-115.05265
G01 X-0.69731 Y-115.05265
G01 X-0.55098 Y-115.03825
G01 X-0.41029 Y-114.99555
G01 X-0.28062 Y-114.92626
G01 X-0.16695 Y-114.83299
G01 X-0.07369 Y-114.71933
G01 X-0.00439 Y-114.58966
G01 X0.03828 Y-114.44897
G01 X0.05268 Y-114.30267
G01 Z-0.47368 F100.00000 ( plunge. )
G04 P0 ( dwell for no time -- G64 should not smooth over this point )
G01 F200.00000
G01 X0.05268 Y-58.80265
G01 X0.05268 Y-56.30265
G01 X0.05268 Y-0.80264
G01 X0.03828 Y-0.65634
G01 X-0.00439 Y-0.51565
G01 X-0.07369 Y-0.38598
G01 X-0.16695 Y-0.27231
G01 X-0.28062 Y-0.17904
G01 X-0.41029 Y-0.10975
G01 X-0.55098 Y-0.06706
G01 X-0.69731 Y-0.05265
G01 X-47.44730 Y-0.05265
G01 X-49.94730 Y-0.05265
G01 X-96.69729 Y-0.05265
G01 X-96.84360 Y-0.06706
G01 X-96.98429 Y-0.10975
G01 X-97.11395 Y-0.17904
G01 X-97.22762 Y-0.27231
G01 X-97.32089 Y-0.38598
G01 X-97.39018 Y-0.51565
G01 X-97.43288 Y-0.65634
G01 X-97.44728 Y-0.80264
G01 X-97.44728 Y-56.30265
G01 X-97.44728 Y-58.80265
G01 X-97.44728 Y-114.30267
G01 X-97.43288 Y-114.44897
G01 X-97.39018 Y-114.58966
G01 X-97.32089 Y-114.71933
G01 X-97.22762 Y-114.83299
G01 X-97.11395 Y-114.92626
G01 X-96.98429 Y-114.99555
G01 X-96.84360 Y-115.03825
G01 X-96.69729 Y-115.05265
G01 X-49.94730 Y-115.05265
G01 X-47.44730 Y-115.05265
G01 X-0.69731 Y-115.05265
G01 X-0.55098 Y-115.03825
G01 X-0.41029 Y-114.99555
G01 X-0.28062 Y-114.92626
G01 X-0.16695 Y-114.83299
G01 X-0.07369 Y-114.71933
G01 X-0.00439 Y-114.58966
G01 X0.03828 Y-114.44897
G01 X0.05268 Y-114.30267
G01 Z-0.56842 F100.00000 ( plunge. )
G04 P0 ( dwell for no time -- G64 should not smooth over this point )
G01 F200.00000
G01 X0.05268 Y-58.80265
G00 Z-0.50000
G01 X0.05268 Y-56.30265
G01 Z-0.56842 F100.00000
G01 F200.00000
G01 X0.05268 Y-0.80264
G01 X0.03828 Y-0.65634
G01 X-0.00439 Y-0.51565
G01 X-0.07369 Y-0.38598
G01 X-0.16695 Y-0.27231
G01 X-0.28062 Y-0.17904
G01 X-0.41029 Y-0.10975
G01 X-0.55098 Y-0.06706
G01 X-0.69731 Y-0.05265
G01 X-47.44730 Y-0.05265
G00 Z-0.50000
G01 X-49.94730 Y-0.05265
G01 Z-0.56842 F100.00000
G01 F200.00000
G01 X-96.69729 Y-0.05265
G01 X-96.84360 Y-0.06706
G01 X-96.98429 Y-0.10975
G01 X-97.11395 Y-0.17904
G01 X-97.22762 Y-0.27231
G01 X-97.32089 Y-0.38598
G01 X-97.39018 Y-0.51565
G01 X-97.43288 Y-0.65634
G01 X-97.44728 Y-0.80264
G01 X-97.44728 Y-56.30265
G00 Z-0.50000
G01 X-97.44728 Y-58.80265
G01 Z-0.56842 F100.00000
G01 F200.00000
G01 X-97.44728 Y-114.30267
G01 X-97.43288 Y-114.44897
G01 X-97.39018 Y-114.58966
G01 X-97.32089 Y-114.71933
G01 X-97.22762 Y-114.83299
G01 X-97.11395 Y-114.92626
G01 X-96.98429 Y-114.99555
G01 X-96.84360 Y-115.03825
G01 X-96.69729 Y-115.05265
G01 X-49.94730 Y-115.05265
G00 Z-0.50000
G01 X-47.44730 Y-115.05265
G01 Z-0.56842 F100.00000
G01 F200.00000
G01 X-0.69731 Y-115.05265
G01 X-0.55098 Y-115.03825
G01 X-0.41029 Y-114.99555
G01 X-0.28062 Y-114.92626
G01 X-0.16695 Y-114.83299
G01 X-0.07369 Y-114.71933
G01 X-0.00439 Y-114.58966
G01 X0.03828 Y-114.44897
G01 X0.05268 Y-114.30267
G01 Z-0.66316 F100.00000 ( plunge. )
G04 P0 ( dwell for no time -- G64 should not smooth over this point )
G01 F200.00000
G01 X0.05268 Y-58.80265
G00 Z-0.50000
G01 X0.05268 Y-56.30265
G01 Z-0.66316 F100.00000
G01 F200.00000
G01 X0.05268 Y-0.80264
G01 X0.03828 Y-0.65634
G01 X-0.00439 Y-0.51565
G01 X-0.07369 Y-0.38598
G01 X-0.16695 Y-0.27231
G01 X-0.28062 Y-0.17904
G01 X-0.41029 Y-0.10975
G01 X-0.55098 Y-0.06706
G01 X-0.69731 Y-0.05265
G01 X-47.44730 Y-0.05265
G00 Z-0.50000
G01 X-49.94730 Y-0.05265
G01 Z-0.66316 F100.00000
G01 F200.00000
G01 X-96.69729 Y-0.05265
G01 X-96.84360 Y-0.06706
G01 X-96.98429 Y-0.10975
G01 X-97.11395 Y-0.17904
G01 X-97.22762 Y-0.27231
G01 X-97.32089 Y-0.38598
G01 X-97.39018 Y-0.51565
G01 X-97.43288 Y-0.65634
G01 X-97.44728 Y-0.80264
G01 X-97.44728 Y-56.30265
G00 Z-0.50000
G01 X-97.44728 Y-58.80265
G01 Z-0.66316 F100.00000
G01 F200.00000
G01 X-97.44728 Y-114.30267
G01 X-97.43288 Y-114.44897
G01 X-97.39018 Y-114.58966
G01 X-97.32089 Y-114.71933
G01 X-97.22762 Y-114.83299
G01 X-97.11395 Y-114.92626
G01 X-96.98429 Y-114.99555
G01 X-96.84360 Y-115.03825
G01 X-96.69729 Y-115.05265
G01 X-49.94730 Y-115.05265
G00 Z-0.50000
G01 X-47.44730 Y-115.05265
G01 Z-0.66316 F100.00000
G01 F200.00000
G01 X-0.69731 Y-115.05265
G01 X-0.55098 Y-115.03825
G01 X-0.41029 Y-114.99555
G01 X-0.28062 Y-114.92626
G01 X-0.16695 Y-114.83299
G01 X-0.07369 Y-114.71933
G01 X-0.00439 Y-114.58966
G01 X0.03828 Y-114.44897
G01 X0.05268 Y-114.30267
G01 Z-0.75789 F100.00000 ( plunge. )
G04 P0 ( dwell for no time -- G64 should not smooth over this point )
G01 F200.00000
G01 X0.05268 Y-58.80265
G00 Z-0.50000
G01 X0.05268 Y-56.30265
G01 Z-0.75789 F100.00000
G01 F200.00000
G01 X0.05268 Y-0.80264
G01 X0.03828 Y-0.65634
G01 X-0.00439 Y-0.51565
G01 X-0.07369 Y-0.38598
G01 X-0.16695 Y-0.27231
G01 X-0.28062 Y-0.17904
G01 X-0.41029 Y-0.10975
G01 X-0.55098 Y-0.06706
G01 X-0.69731 Y-0.05265
G01 X-47.44730 Y-0.05265
G00 Z-0.50000
G01 X-49.94730 Y-0.05265
G01 Z-0.75789 F100.00000
G01 F200.00000
G01 X-96.69729 Y-0.05265
G01 X-96.84360 Y-0.06706
G01 X-96.98429 Y-0.10975
G01 X-97.11395 Y-0.17904
G01 X-97.22762 Y-0.27231
G01 X-97.32089 Y-0.38598
G01 X-97.39018 Y-0.51565
G01 X-97.43288 Y-0.65634
G01 X-97.44728 Y-0.80264
G01 X-97.44728 Y-56.30265
G00 Z-0.50000
G01 X-97.44728 Y-58.80265
G01 Z-0.75789 F100.00000
G01 F200.00000
G01 X-97.44728 Y-114.30267
G01 X-97.43288 Y-114.44897
G01 X-97.39018 Y-114.58966
G01 X-97.32089 Y-114.71933
G01 X-97.22762 Y-114.83299
G01 X-97.11395 Y-114.92626
G01 X-96.98429 Y-114.99555
G01 X-96.84360 Y-115.03825
G01 X-96.69729 Y-115.05265
G01 X-49.94730 Y-115.05265
G00 Z-0.50000
G01 X-47.44730 Y-115.05265
G01 Z-0.75789 F100.00000
G01 F200.00000
G01 X-0.69731 Y-115.05265
G01 X-0.55098 Y-115.03825
G01 X-0.41029 Y-114.99555
G01 X-0.28062 Y-114.92626
G01 X-0.16695 Y-114.83299
G01 X-0.07369 Y-114.71933
G01 X-0.00439 Y-114.58966
G01 X0.03828 Y-114.44897
G01 X0.05268 Y-114.30267
G01 Z-0.85263 F100.00000 ( plunge. )
G04 P0 ( dwell for no time -- G64 should not smooth over this point )
G01 F200.00000
G01 X0.05268 Y-58.80265
G00 Z-0.50000
G01 X0.05268 Y-56.30265
G01 Z-0.85263 F100.00000
G01 F200.00000
G01 X0.05268 Y-0.80264
G01 X0.03828 Y-0.65634
G01 X-0.00439 Y-0.51565
G01 X-0.07369 Y-0.38598
G01 X-0.16695 Y-0.27231
G01 X-0.28062 Y-0.17904
G01 X-0.41029 Y-0.10975
G01 X-0.55098 Y-0.06706
G01 X-0.69731 Y-0.05265
G01 X-47.44730 Y-0.05265
G00 Z-0.50000
G01 X-49.94730 Y-0.05265
G01 Z-0.85263 F100.00000
G01 F200.00000
G01 X-96.69729 Y-0.05265
G01 X-96.84360 Y-0.06706
G01 X-96.98429 Y-0.10975
G01 X-97.11395 Y-0.17904
G01 X-97.22762 Y-0.27231
G01 X-97.32089 Y-0.38598
G01 X-97.39018 Y-0.51565
G01 X-97.43288 Y-0.65634
G01 X-97.44728 Y-0.80264
G01 X-97.44728 Y-56.30265
G00 Z-0.50000
G01 X-97.44728 Y-58.80265
G01 Z-0.85263 F100.00000
G01 F200.00000
G01 X-97.44728 Y-114.30267
G01 X-97.43288 Y-114.44897
G01 X-97.39018 Y-114.58966
G01 X-97.32089 Y-114.71933
G01 X-97.22762 Y-114.83299
G01 X-97.11395 Y-114.92626
G01 X-96.98429 Y-114.99555
G01 X-96.84360 Y-115.03825
G01 X-96.69729 Y-115.05265
G01 X-49.94730 Y-115.05265
G00 Z-0.50000
G01 X-47.44730 Y-115.05265
G01 Z-0.85263 F100.00000
G01 F200.00000
G01 X-0.69731 Y-115.05265
G01 X-0.55098 Y-115.03825
G01 X-0.41029 Y-114.99555
G01 X-0.28062 Y-114.92626
G01 X-0.16695 Y-114.83299
G01 X-0.07369 Y-114.71933
G01 X-0.00439 Y-114.58966
G01 X0.03828 Y-114.44897
G01 X0.05268 Y-114.30267
G01 Z-0.94737 F100.00000 ( plunge. )
G04 P0 ( dwell for no time -- G64 should not smooth over this point )
G01 F200.00000
G01 X0.05268 Y-58.80265
G00 Z-0.50000
G01 X0.05268 Y-56.30265
G01 Z-0.94737 F100.00000
G01 F200.00000
G01 X0.05268 Y-0.80264
G01 X0.03828 Y-0.65634
G01 X-0.00439 Y-0.51565
G01 X-0.07369 Y-0.38598
G01 X-0.16695 Y-0.27231
G01 X-0.28062 Y-0.17904
G01 X-0.41029 Y-0.10975
G01 X-0.55098 Y-0.06706
G01 X-0.69731 Y-0.05265
G01 X-47.44730 Y-0.05265
G00 Z-0.50000
G01 X-49.94730 Y-0.05265
G01 Z-0.94737 F100.00000
G01 F200.00000
G01 X-96.69729 Y-0.05265
G01 X-96.84360 Y-0.06706
G01 X-96.98429 Y-0.10975
G01 X-97.11395 Y-0.17904
G01 X-97.22762 Y-0.27231
G01 X-97.32089 Y-0.38598
G01 X-97.39018 Y-0.51565
G01 X-97.43288 Y-0.65634
G01 X-97.44728 Y-0.80264
G01 X-97.44728 Y-56.30265
G00 Z-0.50000
G01 X-97.44728 Y-58.80265
G01 Z-0.94737 F100.00000
G01 F200.00000
G01 X-97.44728 Y-114.30267
G01 X-97.43288 Y-114.44897
G01 X-97.39018 Y-114.58966
G01 X-97.32089 Y-114.71933
G01 X-97.22762 Y-114.83299
G01 X-97.11395 Y-114.92626
G01 X-96.98429 Y-114.99555
G01 X-96.84360 Y-115.03825
G01 X-96.69729 Y-115.05265
G01 X-49.94730 Y-115.05265
G00 Z-0.50000
G01 X-47.44730 Y-115.05265
G01 Z-0.94737 F100.00000
G01 F200.00000
G01 X-0.69731 Y-115.05265
G01 X-0.55098 Y-115.03825
G01 X-0.41029 Y-114.99555
G01 X-0.28062 Y-114.92626
G01 X-0.16695 Y-114.83299
G01 X-0.07369 Y-114.71933
G01 X-0.00439 Y-114.58966
G01 X0.03828 Y-114.44897
G01 X0.05268 Y-114.30267
G01 Z-1.04211 F100.00000 ( plunge. )
G04 P0 ( dwell for no time -- G64 should not smooth over this point )
G01 F200.00000
G01 X0.05268 Y-58.80265
G00 Z-0.50000
G01 X0.05268 Y-56.30265
G01 Z-1.04211 F100.00000
G01 F200.00000
G01 X0.05268 Y-0.80264
G01 X0.03828 Y-0.65634
G01 X-0.00439 Y-0.51565
G01 X-0.07369 Y-0.38598
G01 X-0.16695 Y-0.27231
G01 X-0.28062 Y-0.17904
G01 X-0.41029 Y-0.10975
G01 X-0.55098 Y-0.06706
G01 X-0.69731 Y-0.05265
G01 X-47.44730 Y-0.05265
G00 Z-0.50000
G01 X-49.94730 Y-0.05265
G01 Z-1.04211 F100.00000
G01 F200.00000
G01 X-96.69729 Y-0.05265
G01 X-96.84360 Y-0.06706
G01 X-96.98429 Y-0.10975
G01 X-97.11395 Y-0.17904
G01 X-97.22762 Y-0.27231
G01 X-97.32089 Y-0.38598
G01 X-97.39018 Y-0.51565
G01 X-97.43288 Y-0.65634
G01 X-97.44728 Y-0.80264
G01 X-97.44728 Y-56.30265
G00 Z-0.50000
G01 X-97.44728 Y-58.80265
G01 Z-1.04211 F100.00000
G01 F200.00000
G01 X-97.44728 Y-114.30267
G01 X-97.43288 Y-114.44897
G01 X-97.39018 Y-114.58966
G01 X-97.32089 Y-114.71933
G01 X-97.22762 Y-114.83299
G01 X-97.11395 Y-114.92626
G01 X-96.98429 Y-114.99555
G01 X-96.84360 Y-115.03825
G01 X-96.69729 Y-115.05265
G01 X-49.94730 Y-115.05265
G00 Z-0.50000
G01 X-47.44730 Y-115.05265
G01 Z-1.04211 F100.00000
G01 F200.00000
G01 X-0.69731 Y-115.05265
G01 X-0.55098 Y-115.03825
G01 X-0.41029 Y-114.99555
G01 X-0.28062 Y-114.92626
G01 X-0.16695 Y-114.83299
G01 X-0.07369 Y-114.71933
G01 X-0.00439 Y-114.58966
G01 X0.03828 Y-114.44897
G01 X0.05268 Y-114.30267
G01 Z-1.13684 F100.00000 ( plunge. )
G04 P0 ( dwell for no time -- G64 should not smooth over this point )
G01 F200.00000
G01 X0.05268 Y-58.80265
G00 Z-0.50000
G01 X0.05268 Y-56.30265
G01 Z-1.13684 F100.00000
G01 F200.00000
G01 X0.05268 Y-0.80264
G01 X0.03828 Y-0.65634
G01 X-0.00439 Y-0.51565
G01 X-0.07369 Y-0.38598
G01 X-0.16695 Y-0.27231
G01 X-0.28062 Y-0.17904
G01 X-0.41029 Y-0.10975
G01 X-0.55098 Y-0.06706
G01 X-0.69731 Y-0.05265
G01 X-47.44730 Y-0.05265
G00 Z-0.50000
G01 X-49.94730 Y-0.05265
G01 Z-1.13684 F100.00000
G01 F200.00000
G01 X-96.69729 Y-0.05265
G01 X-96.84360 Y-0.06706
G01 X-96.98429 Y-0.10975
G01 X-97.11395 Y-0.17904
G01 X-97.22762 Y-0.27231
G01 X-97.32089 Y-0.38598
G01 X-97.39018 Y-0.51565
G01 X-97.43288 Y-0.65634
G01 X-97.44728 Y-0.80264
G01 X-97.44728 Y-56.30265
G00 Z-0.50000
G01 X-97.44728 Y-58.80265
G01 Z-1.13684 F100.00000
G01 F200.00000
G01 X-97.44728 Y-114.30267
G01 X-97.43288 Y-114.44897
G01 X-97.39018 Y-114.58966
G01 X-97.32089 Y-114.71933
G01 X-97.22762 Y-114.83299
G01 X-97.11395 Y-114.92626
G01 X-96.98429 Y-114.99555
G01 X-96.84360 Y-115.03825
G01 X-96.69729 Y-115.05265
G01 X-49.94730 Y-115.05265
G00 Z-0.50000
G01 X-47.44730 Y-115.05265
G01 Z-1.13684 F100.00000
G01 F200.00000
G01 X-0.69731 Y-115.05265
G01 X-0.55098 Y-115.03825
G01 X-0.41029 Y-114.99555
G01 X-0.28062 Y-114.92626
G01 X-0.16695 Y-114.83299
G01 X-0.07369 Y-114.71933
G01 X-0.00439 Y-114.58966
G01 X0.03828 Y-114.44897
G01 X0.05268 Y-114.30267
G01 Z-1.23158 F100.00000 ( plunge. )
G04 P0 ( dwell for no time -- G64 should not smooth over this point )
G01 F200.00000
G01 X0.05268 Y-58.80265
G00 Z-0.50000
G01 X0.05268 Y-56.30265
G01 Z-1.23158 F100.00000
G01 F200.00000
G01 X0.05268 Y-0.80264
G01 X0.03828 Y-0.65634
G01 X-0.00439 Y-0.51565
G01 X-0.07369 Y-0.38598
G01 X-0.16695 Y-0.27231
G01 X-0.28062 Y-0.17904
G01 X-0.41029 Y-0.10975
G01 X-0.55098 Y-0.06706
G01 X-0.69731 Y-0.05265
G01 X-47.44730 Y-0.05265
G00 Z-0.50000
G01 X-49.94730 Y-0.05265
G01 Z-1.23158 F100.00000
G01 F200.00000
G01 X-96.69729 Y-0.05265
G01 X-96.84360 Y-0.06706
G01 X-96.98429 Y-0.10975
G01 X-97.11395 Y-0.17904
G01 X-97.22762 Y-0.27231
G01 X-97.32089 Y-0.38598
G01 X-97.39018 Y-0.51565
G01 X-97.43288 Y-0.65634
G01 X-97.44728 Y-0.80264
G01 X-97.44728 Y-56.30265
G00 Z-0.50000
G01 X-97.44728 Y-58.80265
G01 Z-1.23158 F100.00000
G01 F200.00000
G01 X-97.44728 Y-114.30267
G01 X-97.43288 Y-114.44897
G01 X-97.39018 Y-114.58966
G01 X-97.32089 Y-114.71933
G01 X-97.22762 Y-114.83299
G01 X-97.11395 Y-114.92626
G01 X-96.98429 Y-114.99555
G01 X-96.84360 Y-115.03825
G01 X-96.69729 Y-115.05265
G01 X-49.94730 Y-115.05265
G00 Z-0.50000
G01 X-47.44730 Y-115.05265
G01 Z-1.23158 F100.00000
G01 F200.00000
G01 X-0.69731 Y-115.05265
G01 X-0.55098 Y-115.03825
G01 X-0.41029 Y-114.99555
G01 X-0.28062 Y-114.92626
G01 X-0.16695 Y-114.83299
G01 X-0.07369 Y-114.71933
G01 X-0.00439 Y-114.58966
G01 X0.03828 Y-114.44897
G01 X0.05268 Y-114.30267
G01 Z-1.32632 F100.00000 ( plunge. )
G04 P0 ( dwell for no time -- G64 should not smooth over this point )
G01 F200.00000
G01 X0.05268 Y-58.80265
G00 Z-0.50000
G01 X0.05268 Y-56.30265
G01 Z-1.32632 F100.00000
G01 F200.00000
G01 X0.05268 Y-0.80264
G01 X0.03828 Y-0.65634
G01 X-0.00439 Y-0.51565
G01 X-0.07369 Y-0.38598
G01 X-0.16695 Y-0.27231
G01 X-0.28062 Y-0.17904
G01 X-0.41029 Y-0.10975
G01 X-0.55098 Y-0.06706
G01 X-0.69731 Y-0.05265
G01 X-47.44730 Y-0.05265
G00 Z-0.50000
G01 X-49.94730 Y-0.05265
G01 Z-1.32632 F100.00000
G01 F200.00000
G01 X-96.69729 Y-0.05265
G01 X-96.84360 Y-0.06706
G01 X-96.98429 Y-0.10975
G01 X-97.11395 Y-0.17904
G01 X-97.22762 Y-0.27231
G01 X-97.32089 Y-0.38598
G01 X-97.39018 Y-0.51565
G01 X-97.43288 Y-0.65634
G01 X-97.44728 Y-0.80264
G01 X-97.44728 Y-56.30265
G00 Z-0.50000
G01 X-97.44728 Y-58.80265
G01 Z-1.32632 F100.00000
G01 F200.00000
G01 X-97.44728 Y-114.30267
G01 X-97.43288 Y-114.44897
G01 X-97.39018 Y-114.58966
G01 X-97.32089 Y-114.71933
G01 X-97.22762 Y-114.83299
G01 X-97.11395 Y-114.92626
G01 X-96.98429 Y-114.99555
G01 X-96.84360 Y-115.03825
G01 X-96.69729 Y-115.05265
G01 X-49.94730 Y-115.05265
G00 Z-0.50000
G01 X-47.44730 Y-115.05265
G01 Z-1.32632 F100.00000
G01 F200.00000
G01 X-0.69731 Y-115.05265
G01 X-0.55098 Y-115.03825
G01 X-0.41029 Y-114.99555
G01 X-0.28062 Y-114.92626
G01 X-0.16695 Y-114.83299
G01 X-0.07369 Y-114.71933
G01 X-0.00439 Y-114.58966
G01 X0.03828 Y-114.44897
G01 X0.05268 Y-114.30267
G01 Z-1.42105 F100.00000 ( plunge. )
G04 P0 ( dwell for no time -- G64 should not smooth over this point )
G01 F200.00000
G01 X0.05268 Y-58.80265
G00 Z-0.50000
G01 X0.05268 Y-56.30265
G01 Z-1.42105 F100.00000
G01 F200.00000
G01 X0.05268 Y-0.80264
G01 X0.03828 Y-0.65634
G01 X-0.00439 Y-0.51565
G01 X-0.07369 Y-0.38598
G01 X-0.16695 Y-0.27231
G01 X-0.28062 Y-0.17904
G01 X-0.41029 Y-0.10975
G01 X-0.55098 Y-0.06706
G01 X-0.69731 Y-0.05265
G01 X-47.44730 Y-0.05265
G00 Z-0.50000
G01 X-49.94730 Y-0.05265
G01 Z-1.42105 F100.00000
G01 F200.00000
G01 X-96.69729 Y-0.05265
G01 X-96.84360 Y-0.06706
G01 X-96.98429 Y-0.10975
G01 X-97.11395 Y-0.17904
G01 X-97.22762 Y-0.27231
G01 X-97.32089 Y-0.38598
G01 X-97.39018 Y-0.51565
G01 X-97.43288 Y-0.65634
G01 X-97.44728 Y-0.80264
G01 X-97.44728 Y-56.30265
G00 Z-0.50000
G01 X-97.44728 Y-58.80265
G01 Z-1.42105 F100.00000
G01 F200.00000
G01 X-97.44728 Y-114.30267
G01 X-97.43288 Y-114.44897
G01 X-97.39018 Y-114.58966
G01 X-97.32089 Y-114.71933
G01 X-97.22762 Y-114.83299
G01 X-97.11395 Y-114.92626
G01 X-96.98429 Y-114.99555
G01 X-96.84360 Y-115.03825
G01 X-96.69729 Y-115.05265
G01 X-49.94730 Y-115.05265
G00 Z-0.50000
G01 X-47.44730 Y-115.05265
G01 Z-1.42105 F100.00000
G01 F200.00000
G01 X-0.69731 Y-115.05265
G01 X-0.55098 Y-115.03825
G01 X-0.41029 Y-114.99555
G01 X-0.28062 Y-114.92626
G01 X-0.16695 Y-114.83299
G01 X-0.07369 Y-114.71933
G01 X-0.00439 Y-114.58966
G01 X0.03828 Y-114.44897
G01 X0.05268 Y-114.30267
G01 Z-1.51579 F100.00000 ( plunge. )
G04 P0 ( dwell for no time -- G64 should not smooth over this point )
G01 F200.00000
G01 X0.05268 Y-58.80265
G00 Z-0.50000
G01 X0.05268 Y-56.30265
G01 Z-1.51579 F100.00000
G01 F200.00000
G01 X0.05268 Y-0.80264
G01 X0.03828 Y-0.65634
G01 X-0.00439 Y-0.51565
G01 X-0.07369 Y-0.38598
G01 X-0.16695 Y-0.27231
G01 X-0.28062 Y-0.17904
G01 X-0.41029 Y-0.10975
G01 X-0.55098 Y-0.06706
G01 X-0.69731 Y-0.05265
G01 X-47.44730 Y-0.05265
G00 Z-0.50000
G01 X-49.94730 Y-0.05265
G01 Z-1.51579 F100.00000
G01 F200.00000
G01 X-96.69729 Y-0.05265
G01 X-96.84360 Y-0.06706
G01 X-96.98429 Y-0.10975
G01 X-97.11395 Y-0.17904
G01 X-97.22762 Y-0.27231
G01 X-97.32089 Y-0.38598
G01 X-97.39018 Y-0.51565
G01 X-97.43288 Y-0.65634
G01 X-97.44728 Y-0.80264
G01 X-97.44728 Y-56.30265
G00 Z-0.50000
G01 X-97.44728 Y-58.80265
G01 Z-1.51579 F100.00000
G01 F200.00000
G01 X-97.44728 Y-114.30267
G01 X-97.43288 Y-114.44897
G01 X-97.39018 Y-114.58966
G01 X-97.32089 Y-114.71933
G01 X-97.22762 Y-114.83299
G01 X-97.11395 Y-114.92626
G01 X-96.98429 Y-114.99555
G01 X-96.84360 Y-115.03825
G01 X-96.69729 Y-115.05265
G01 X-49.94730 Y-115.05265
G00 Z-0.50000
G01 X-47.44730 Y-115.05265
G01 Z-1.51579 F100.00000
G01 F200.00000
G01 X-0.69731 Y-115.05265
G01 X-0.55098 Y-115.03825
G01 X-0.41029 Y-114.99555
G01 X-0.28062 Y-114.92626
G01 X-0.16695 Y-114.83299
G01 X-0.07369 Y-114.71933
G01 X-0.00439 Y-114.58966
G01 X0.03828 Y-114.44897
G01 X0.05268 Y-114.30267
G01 Z-1.61053 F100.00000 ( plunge. )
G04 P0 ( dwell for no time -- G64 should not smooth over this point )
G01 F200.00000
G01 X0.05268 Y-58.80265
G00 Z-0.50000
G01 X0.05268 Y-56.30265
G01 Z-1.61053 F100.00000
G01 F200.00000
G01 X0.05268 Y-0.80264
G01 X0.03828 Y-0.65634
G01 X-0.00439 Y-0.51565
G01 X-0.07369 Y-0.38598
G01 X-0.16695 Y-0.27231
G01 X-0.28062 Y-0.17904
G01 X-0.41029 Y-0.10975
G01 X-0.55098 Y-0.06706
G01 X-0.69731 Y-0.05265
G01 X-47.44730 Y-0.05265
G00 Z-0.50000
G01 X-49.94730 Y-0.05265
G01 Z-1.61053 F100.00000
G01 F200.00000
G01 X-96.69729 Y-0.05265
G01 X-96.84360 Y-0.06706
G01 X-96.98429 Y-0.10975
G01 X-97.11395 Y-0.17904
G01 X-97.22762 Y-0.27231
G01 X-97.32089 Y-0.38598
G01 X-97.39018 Y-0.51565
G01 X-97.43288 Y-0.65634
G01 X-97.44728 Y-0.80264
G01 X-97.44728 Y-56.30265
G00 Z-0.50000
G01 X-97.44728 Y-58.80265
G01 Z-1.61053 F100.00000
G01 F200.00000
G01 X-97.44728 Y-114.30267
G01 X-97.43288 Y-114.44897
G01 X-97.39018 Y-114.58966
G01 X-97.32089 Y-114.71933
G01 X-97.22762 Y-114.83299
G01 X-97.11395 Y-114.92626
G01 X-96.98429 Y-114.99555
G01 X-96.84360 Y-115.03825
G01 X-96.69729 Y-115.05265
G01 X-49.94730 Y-115.05265
G00 Z-0.50000
G01 X-47.44730 Y-115.05265
G01 Z-1.61053 F100.00000
G01 F200.00000
G01 X-0.69731 Y-115.05265
G01 X-0.55098 Y-115.03825
G01 X-0.41029 Y-114.99555
G01 X-0.28062 Y-114.92626
G01 X-0.16695 Y-114.83299
G01 X-0.07369 Y-114.71933
G01 X-0.00439 Y-114.58966
G01 X0.03828 Y-114.44897
G01 X0.05268 Y-114.30267
G01 Z-1.70526 F100.00000 ( plunge. )
G04 P0 ( dwell for no time -- G64 should not smooth over this point )
G01 F200.00000
G01 X0.05268 Y-58.80265
G00 Z-0.50000
G01 X0.05268 Y-56.30265
G01 Z-1.70526 F100.00000
G01 F200.00000
G01 X0.05268 Y-0.80264
G01 X0.03828 Y-0.65634
G01 X-0.00439 Y-0.51565
G01 X-0.07369 Y-0.38598
G01 X-0.16695 Y-0.27231
G01 X-0.28062 Y-0.17904
G01 X-0.41029 Y-0.10975
G01 X-0.55098 Y-0.06706
G01 X-0.69731 Y-0.05265
G01 X-47.44730 Y-0.05265
G00 Z-0.50000
G01 X-49.94730 Y-0.05265
G01 Z-1.70526 F100.00000
G01 F200.00000
G01 X-96.69729 Y-0.05265
G01 X-96.84360 Y-0.06706
G01 X-96.98429 Y-0.10975
G01 X-97.11395 Y-0.17904
G01 X-97.22762 Y-0.27231
G01 X-97.32089 Y-0.38598
G01 X-97.39018 Y-0.51565
G01 X-97.43288 Y-0.65634
G01 X-97.44728 Y-0.80264
G01 X-97.44728 Y-56.30265
G00 Z-0.50000
G01 X-97.44728 Y-58.80265
G01 Z-1.70526 F100.00000
G01 F200.00000
G01 X-97.44728 Y-114.30267
G01 X-97.43288 Y-114.44897
G01 X-97.39018 Y-114.58966
G01 X-97.32089 Y-114.71933
G01 X-97.22762 Y-114.83299
G01 X-97.11395 Y-114.92626
G01 X-96.98429 Y-114.99555
G01 X-96.84360 Y-115.03825
G01 X-96.69729 Y-115.05265
G01 X-49.94730 Y-115.05265
G00 Z-0.50000
G01 X-47.44730 Y-115.05265
G01 Z-1.70526 F100.00000
G01 F200.00000
G01 X-0.69731 Y-115.05265
G01 X-0.55098 Y-115.03825
G01 X-0.41029 Y-114.99555
G01 X-0.28062 Y-114.92626
G01 X-0.16695 Y-114.83299
G01 X-0.07369 Y-114.71933
G01 X-0.00439 Y-114.58966
G01 X0.03828 Y-114.44897
G01 X0.05268 Y-114.30267
G01 Z-1.80000 F100.00000 ( plunge. )
G04 P0 ( dwell for no time -- G64 should not smooth over this point )
G01 F200.00000
G01 X0.05268 Y-58.80265
G00 Z-0.50000
G01 X0.05268 Y-56.30265
G01 Z-1.80000 F100.00000
G01 F200.00000
G01 X0.05268 Y-0.80264
G01 X0.03828 Y-0.65634
G01 X-0.00439 Y-0.51565
G01 X-0.07369 Y-0.38598
G01 X-0.16695 Y-0.27231
G01 X-0.28062 Y-0.17904
G01 X-0.41029 Y-0.10975
G01 X-0.55098 Y-0.06706
G01 X-0.69731 Y-0.05265
G01 X-47.44730 Y-0.05265
G00 Z-0.50000
G01 X-49.94730 Y-0.05265
G01 Z-1.80000 F100.00000
G01 F200.00000
G01 X-96.69729 Y-0.05265
G01 X-96.84360 Y-0.06706
G01 X-96.98429 Y-0.10975
G01 X-97.11395 Y-0.17904
G01 X-97.22762 Y-0.27231
G01 X-97.32089 Y-0.38598
G01 X-97.39018 Y-0.51565
G01 X-97.43288 Y-0.65634
G01 X-97.44728 Y-0.80264
G01 X-97.44728 Y-56.30265
G00 Z-0.50000
G01 X-97.44728 Y-58.80265
G01 Z-1.80000 F100.00000
G01 F200.00000
G01 X-97.44728 Y-114.30267
G01 X-97.43288 Y-114.44897
G01 X-97.39018 Y-114.58966
G01 X-97.32089 Y-114.71933
G01 X-97.22762 Y-114.83299
G01 X-97.11395 Y-114.92626
G01 X-96.98429 Y-114.99555
G01 X-96.84360 Y-115.03825
G01 X-96.69729 Y-115.05265
G01 X-49.94730 Y-115.05265
G00 Z-0.50000
G01 X-47.44730 Y-115.05265
G01 Z-1.80000 F100.00000
G01 F200.00000
G01 X-0.69731 Y-115.05265
G01 X-0.55098 Y-115.03825
G01 X-0.41029 Y-114.99555
G01 X-0.28062 Y-114.92626
G01 X-0.16695 Y-114.83299
G01 X-0.07369 Y-114.71933
G01 X-0.00439 Y-114.58966
G01 X0.03828 Y-114.44897
G01 X0.05268 Y-114.30267

G04 P0 ( dwell for no time -- G64 should not smooth over this point )
G00 Z2.000000 ( retract )

M5 ( Spindle off. )
G04 P1.000000
M9 ( Coolant off. )
M2 ( Program end. )

