( pcb2gcode 2.5.0 )
( Software-independent Gcode )

G94 ( Millimeters per minute feed rate. )
G21 ( Units == Millimeters. )

G90 ( Absolute coordinates. )
G00 S4700 ( RPM spindle speed. )
G01 F100.00000 ( Feedrate. )


G00 Z2.00000 (Retract to tool change height)
T0
M5      (Spindle stop.)
G04 P1.00000 (Wait for spindle to stop)
(MSG, Change tool bit to mill diameter 0.20000mm)
M0      (Temporary machine stop.)
M3 ( Spindle on clockwise. )
G04 P1.00000 (Wait for spindle to get up to speed)
G04 P0 ( dwell for no time -- G64 should not smooth over this point )
G00 Z2.00000 ( retract )

G00 X-11.70249 Y-16.32666 ( rapid move to begin. )
G01 F50.00000
( Mill infeed pass 1/7 )
G01 Z-0.10000
G04 P0 ( dwell for no time -- G64 should not smooth over this point )
G01 F100.00000
G01 X-11.70249 Y-16.32666
G01 X-11.70302 Y-12.98285
G01 X-11.71197 Y-12.90323
G01 X-11.73620 Y-12.82685
G01 X-11.78524 Y-12.73858
G01 X-11.84587 Y-12.67130
G01 X-11.91036 Y-12.62375
G01 X-12.01202 Y-12.57849
G01 X-12.10092 Y-12.56182
G01 X-15.46911 Y-12.56000
G01 X-15.52478 Y-12.56401
G01 X-15.61285 Y-12.58494
G01 X-15.68582 Y-12.61803
G01 X-15.75097 Y-12.66469
G01 X-15.81973 Y-12.73858
G01 X-15.86502 Y-12.81707
G01 X-15.89301 Y-12.90323
G01 X-15.90195 Y-12.98285
G01 X-15.90248 Y-13.30998
G01 X-22.94179 Y-13.30998
G01 X-34.04537 Y-2.20637
G01 X-34.20029 Y-2.07366
G01 X-34.38022 Y-1.96195
G01 X-34.59036 Y-1.87490
G01 X-34.79658 Y-1.82667
G01 X-34.99998 Y-1.81097
G01 X-56.50977 Y-1.81145
G01 X-56.77286 Y-1.83929
G01 X-57.02546 Y-1.91793
G01 X-57.25000 Y-2.03848
G01 X-57.44731 Y-2.19979
G01 X-57.61662 Y-2.40307
G01 X-57.74301 Y-2.63548
G01 X-57.82549 Y-2.90731
G01 X-57.84997 Y-3.16098
G01 X-57.84997 Y-4.99999
G01 X-57.83181 Y-5.21886
G01 X-57.78604 Y-5.40959
G01 X-57.76996 Y-5.45160
G01 X-57.76996 Y-11.55860
G01 X-57.83257 Y-11.60678
G01 X-58.01550 Y-11.80996
G01 X-70.58782 Y-11.81026
G01 X-70.79887 Y-11.82812
G01 X-70.98960 Y-11.87389
G01 X-71.12234 Y-11.92754
G01 X-71.21093 Y-11.91095
G01 X-71.63951 Y-11.91148
G01 X-72.06892 Y-12.00277
G01 X-72.47877 Y-12.18705
G01 X-72.82515 Y-12.43937
G01 X-73.01553 Y-12.64999
G01 X-106.02074 Y-12.64999
G01 X-109.46539 Y-9.20539
G01 X-109.67839 Y-9.03247
G01 X-109.91261 Y-8.90943
G01 X-110.14710 Y-8.83831
G01 X-110.42000 Y-8.80999
G01 X-123.92000 Y-8.80999
G01 X-124.19287 Y-8.83831
G01 X-124.42736 Y-8.90943
G01 X-124.66157 Y-9.03244
G01 X-124.87458 Y-9.20539
G01 X-127.87457 Y-12.20536
G01 X-128.00729 Y-12.36027
G01 X-128.11900 Y-12.54021
G01 X-128.20604 Y-12.75034
G01 X-128.25428 Y-12.95657
G01 X-128.26997 Y-13.15997
G01 X-128.26967 Y-22.58781
G01 X-128.25181 Y-22.79886
G01 X-128.20119 Y-23.00453
G01 X-128.11900 Y-23.19973
G01 X-128.00729 Y-23.37966
G01 X-127.87455 Y-23.53460
G01 X-127.04204 Y-24.36708
G01 X-126.84536 Y-24.52911
G01 X-126.61295 Y-24.65550
G01 X-126.36035 Y-24.73414
G01 X-126.08748 Y-24.76246
G01 X-122.52637 Y-24.76246
G01 X-122.47819 Y-24.82507
G01 X-122.15056 Y-25.11712
G01 X-121.77913 Y-25.33094
G01 X-121.35127 Y-25.46822
G01 X-120.92498 Y-25.51250
G01 X-119.91454 Y-25.51194
G01 X-119.48838 Y-25.46657
G01 X-119.07083 Y-25.33094
G01 X-118.69064 Y-25.11143
G01 X-118.36438 Y-24.81765
G01 X-118.10634 Y-24.46249
G01 X-117.93151 Y-24.07120
G01 X-117.83649 Y-23.63201
G01 X-117.83649 Y-23.19297
G01 X-117.92778 Y-22.76356
G01 X-118.10634 Y-22.36249
G01 X-118.36438 Y-22.00732
G01 X-118.69064 Y-21.71355
G01 X-119.07083 Y-21.49404
G01 X-119.48838 Y-21.35838
G01 X-119.92498 Y-21.31248
G01 X-120.92498 Y-21.31248
G01 X-121.36161 Y-21.35838
G01 X-121.77913 Y-21.49404
G01 X-122.15056 Y-21.70786
G01 X-122.47819 Y-21.99991
G01 X-122.52635 Y-22.06247
G01 X-125.52830 Y-22.06247
G01 X-125.56998 Y-22.02078
G01 X-125.56998 Y-13.71915
G01 X-123.36079 Y-11.50998
G01 X-110.97918 Y-11.50998
G01 X-107.52729 Y-14.96118
G01 X-107.32155 Y-15.12750
G01 X-107.08734 Y-15.25054
G01 X-106.83362 Y-15.32550
G01 X-106.58975 Y-15.34950
G01 X-73.01553 Y-15.34998
G01 X-72.82515 Y-15.56060
G01 X-72.47877 Y-15.81295
G01 X-72.07870 Y-15.99347
G01 X-71.63951 Y-16.08849
G01 X-71.21093 Y-16.08902
G01 X-70.76128 Y-15.99347
G01 X-70.36999 Y-15.81864
G01 X-70.01482 Y-15.56060
G01 X-69.71535 Y-15.22555
G01 X-69.50149 Y-14.85400
G01 X-69.39021 Y-14.50995
G01 X-58.01556 Y-14.50995
G01 X-57.82516 Y-14.72060
G01 X-57.47878 Y-14.97294
G01 X-57.06892 Y-15.15720
G01 X-56.62905 Y-15.24904
G01 X-56.20047 Y-15.24848
G01 X-55.78117 Y-15.15991
G01 X-55.36120 Y-14.97294
G01 X-55.01483 Y-14.72060
G01 X-54.72105 Y-14.39433
G01 X-54.49778 Y-14.00437
G01 X-54.36588 Y-13.59659
G01 X-54.32054 Y-13.17043
G01 X-54.36588 Y-12.72337
G01 X-54.50154 Y-12.30584
G01 X-54.72105 Y-11.92563
G01 X-55.00741 Y-11.60678
G01 X-55.06997 Y-11.55863
G01 X-55.06997 Y-5.08000
G01 X-55.08813 Y-4.86110
G01 X-55.13390 Y-4.67037
G01 X-55.14998 Y-4.62836
G01 X-55.14998 Y-4.51096
G01 X-35.55916 Y-4.51096
G01 X-24.45558 Y-15.61457
G01 X-24.28796 Y-15.75651
G01 X-24.10673 Y-15.86614
G01 X-23.92553 Y-15.94119
G01 X-23.71987 Y-15.99181
G01 X-23.50099 Y-16.00998
G01 X-15.90248 Y-16.00998
G01 X-15.90195 Y-16.33710
G01 X-15.89301 Y-16.41676
G01 X-15.86027 Y-16.51224
G01 X-15.81315 Y-16.58950
G01 X-15.75910 Y-16.64868
G01 X-15.69461 Y-16.69623
G01 X-15.60307 Y-16.73878
G01 X-15.50406 Y-16.75816
G01 X-12.09573 Y-16.75803
G01 X-12.00191 Y-16.73878
G01 X-11.92847 Y-16.70667
G01 X-11.83846 Y-16.64129
G01 X-11.78524 Y-16.58137
G01 X-11.73996 Y-16.50291
G01 X-11.71197 Y-16.41676
G01 X-11.70249 Y-16.32666
( Mill infeed pass 2/7 )
G01 Z-0.20000
G04 P0 ( dwell for no time -- G64 should not smooth over this point )
G01 F100.00000
G01 X-11.70249 Y-16.32666
G01 X-11.70302 Y-12.98285
G01 X-11.71197 Y-12.90323
G01 X-11.73620 Y-12.82685
G01 X-11.78524 Y-12.73858
G01 X-11.84587 Y-12.67130
G01 X-11.91036 Y-12.62375
G01 X-12.01202 Y-12.57849
G01 X-12.10092 Y-12.56182
G01 X-15.46911 Y-12.56000
G01 X-15.52478 Y-12.56401
G01 X-15.61285 Y-12.58494
G01 X-15.68582 Y-12.61803
G01 X-15.75097 Y-12.66469
G01 X-15.81973 Y-12.73858
G01 X-15.86502 Y-12.81707
G01 X-15.89301 Y-12.90323
G01 X-15.90195 Y-12.98285
G01 X-15.90248 Y-13.30998
G01 X-22.94179 Y-13.30998
G01 X-34.04537 Y-2.20637
G01 X-34.20029 Y-2.07366
G01 X-34.38022 Y-1.96195
G01 X-34.59036 Y-1.87490
G01 X-34.79658 Y-1.82667
G01 X-34.99998 Y-1.81097
G01 X-56.50977 Y-1.81145
G01 X-56.77286 Y-1.83929
G01 X-57.02546 Y-1.91793
G01 X-57.25000 Y-2.03848
G01 X-57.44731 Y-2.19979
G01 X-57.61662 Y-2.40307
G01 X-57.74301 Y-2.63548
G01 X-57.82549 Y-2.90731
G01 X-57.84997 Y-3.16098
G01 X-57.84997 Y-4.99999
G01 X-57.83181 Y-5.21886
G01 X-57.78604 Y-5.40959
G01 X-57.76996 Y-5.45160
G01 X-57.76996 Y-11.55860
G01 X-57.83257 Y-11.60678
G01 X-58.01550 Y-11.80996
G01 X-70.58782 Y-11.81026
G01 X-70.79887 Y-11.82812
G01 X-70.98960 Y-11.87389
G01 X-71.12234 Y-11.92754
G01 X-71.21093 Y-11.91095
G01 X-71.63951 Y-11.91148
G01 X-72.06892 Y-12.00277
G01 X-72.47877 Y-12.18705
G01 X-72.82515 Y-12.43937
G01 X-73.01553 Y-12.64999
G01 X-106.02074 Y-12.64999
G01 X-109.46539 Y-9.20539
G01 X-109.67839 Y-9.03247
G01 X-109.91261 Y-8.90943
G01 X-110.14710 Y-8.83831
G01 X-110.42000 Y-8.80999
G01 X-123.92000 Y-8.80999
G01 X-124.19287 Y-8.83831
G01 X-124.42736 Y-8.90943
G01 X-124.66157 Y-9.03244
G01 X-124.87458 Y-9.20539
G01 X-127.87457 Y-12.20536
G01 X-128.00729 Y-12.36027
G01 X-128.11900 Y-12.54021
G01 X-128.20604 Y-12.75034
G01 X-128.25428 Y-12.95657
G01 X-128.26997 Y-13.15997
G01 X-128.26967 Y-22.58781
G01 X-128.25181 Y-22.79886
G01 X-128.20119 Y-23.00453
G01 X-128.11900 Y-23.19973
G01 X-128.00729 Y-23.37966
G01 X-127.87455 Y-23.53460
G01 X-127.04204 Y-24.36708
G01 X-126.84536 Y-24.52911
G01 X-126.61295 Y-24.65550
G01 X-126.36035 Y-24.73414
G01 X-126.08748 Y-24.76246
G01 X-122.52637 Y-24.76246
G01 X-122.47819 Y-24.82507
G01 X-122.15056 Y-25.11712
G01 X-121.77913 Y-25.33094
G01 X-121.35127 Y-25.46822
G01 X-120.92498 Y-25.51250
G01 X-119.91454 Y-25.51194
G01 X-119.48838 Y-25.46657
G01 X-119.07083 Y-25.33094
G01 X-118.69064 Y-25.11143
G01 X-118.36438 Y-24.81765
G01 X-118.10634 Y-24.46249
G01 X-117.93151 Y-24.07120
G01 X-117.83649 Y-23.63201
G01 X-117.83649 Y-23.19297
G01 X-117.92778 Y-22.76356
G01 X-118.10634 Y-22.36249
G01 X-118.36438 Y-22.00732
G01 X-118.69064 Y-21.71355
G01 X-119.07083 Y-21.49404
G01 X-119.48838 Y-21.35838
G01 X-119.92498 Y-21.31248
G01 X-120.92498 Y-21.31248
G01 X-121.36161 Y-21.35838
G01 X-121.77913 Y-21.49404
G01 X-122.15056 Y-21.70786
G01 X-122.47819 Y-21.99991
G01 X-122.52635 Y-22.06247
G01 X-125.52830 Y-22.06247
G01 X-125.56998 Y-22.02078
G01 X-125.56998 Y-13.71915
G01 X-123.36079 Y-11.50998
G01 X-110.97918 Y-11.50998
G01 X-107.52729 Y-14.96118
G01 X-107.32155 Y-15.12750
G01 X-107.08734 Y-15.25054
G01 X-106.83362 Y-15.32550
G01 X-106.58975 Y-15.34950
G01 X-73.01553 Y-15.34998
G01 X-72.82515 Y-15.56060
G01 X-72.47877 Y-15.81295
G01 X-72.07870 Y-15.99347
G01 X-71.63951 Y-16.08849
G01 X-71.21093 Y-16.08902
G01 X-70.76128 Y-15.99347
G01 X-70.36999 Y-15.81864
G01 X-70.01482 Y-15.56060
G01 X-69.71535 Y-15.22555
G01 X-69.50149 Y-14.85400
G01 X-69.39021 Y-14.50995
G01 X-58.01556 Y-14.50995
G01 X-57.82516 Y-14.72060
G01 X-57.47878 Y-14.97294
G01 X-57.06892 Y-15.15720
G01 X-56.62905 Y-15.24904
G01 X-56.20047 Y-15.24848
G01 X-55.78117 Y-15.15991
G01 X-55.36120 Y-14.97294
G01 X-55.01483 Y-14.72060
G01 X-54.72105 Y-14.39433
G01 X-54.49778 Y-14.00437
G01 X-54.36588 Y-13.59659
G01 X-54.32054 Y-13.17043
G01 X-54.36588 Y-12.72337
G01 X-54.50154 Y-12.30584
G01 X-54.72105 Y-11.92563
G01 X-55.00741 Y-11.60678
G01 X-55.06997 Y-11.55863
G01 X-55.06997 Y-5.08000
G01 X-55.08813 Y-4.86110
G01 X-55.13390 Y-4.67037
G01 X-55.14998 Y-4.62836
G01 X-55.14998 Y-4.51096
G01 X-35.55916 Y-4.51096
G01 X-24.45558 Y-15.61457
G01 X-24.28796 Y-15.75651
G01 X-24.10673 Y-15.86614
G01 X-23.92553 Y-15.94119
G01 X-23.71987 Y-15.99181
G01 X-23.50099 Y-16.00998
G01 X-15.90248 Y-16.00998
G01 X-15.90195 Y-16.33710
G01 X-15.89301 Y-16.41676
G01 X-15.86027 Y-16.51224
G01 X-15.81315 Y-16.58950
G01 X-15.75910 Y-16.64868
G01 X-15.69461 Y-16.69623
G01 X-15.60307 Y-16.73878
G01 X-15.50406 Y-16.75816
G01 X-12.09573 Y-16.75803
G01 X-12.00191 Y-16.73878
G01 X-11.92847 Y-16.70667
G01 X-11.83846 Y-16.64129
G01 X-11.78524 Y-16.58137
G01 X-11.73996 Y-16.50291
G01 X-11.71197 Y-16.41676
G01 X-11.70249 Y-16.32666
( Mill infeed pass 3/7 )
G01 Z-0.30000
G04 P0 ( dwell for no time -- G64 should not smooth over this point )
G01 F100.00000
G01 X-11.70249 Y-16.32666
G01 X-11.70302 Y-12.98285
G01 X-11.71197 Y-12.90323
G01 X-11.73620 Y-12.82685
G01 X-11.78524 Y-12.73858
G01 X-11.84587 Y-12.67130
G01 X-11.91036 Y-12.62375
G01 X-12.01202 Y-12.57849
G01 X-12.10092 Y-12.56182
G01 X-15.46911 Y-12.56000
G01 X-15.52478 Y-12.56401
G01 X-15.61285 Y-12.58494
G01 X-15.68582 Y-12.61803
G01 X-15.75097 Y-12.66469
G01 X-15.81973 Y-12.73858
G01 X-15.86502 Y-12.81707
G01 X-15.89301 Y-12.90323
G01 X-15.90195 Y-12.98285
G01 X-15.90248 Y-13.30998
G01 X-22.94179 Y-13.30998
G01 X-34.04537 Y-2.20637
G01 X-34.20029 Y-2.07366
G01 X-34.38022 Y-1.96195
G01 X-34.59036 Y-1.87490
G01 X-34.79658 Y-1.82667
G01 X-34.99998 Y-1.81097
G01 X-56.50977 Y-1.81145
G01 X-56.77286 Y-1.83929
G01 X-57.02546 Y-1.91793
G01 X-57.25000 Y-2.03848
G01 X-57.44731 Y-2.19979
G01 X-57.61662 Y-2.40307
G01 X-57.74301 Y-2.63548
G01 X-57.82549 Y-2.90731
G01 X-57.84997 Y-3.16098
G01 X-57.84997 Y-4.99999
G01 X-57.83181 Y-5.21886
G01 X-57.78604 Y-5.40959
G01 X-57.76996 Y-5.45160
G01 X-57.76996 Y-11.55860
G01 X-57.83257 Y-11.60678
G01 X-58.01550 Y-11.80996
G01 X-70.58782 Y-11.81026
G01 X-70.79887 Y-11.82812
G01 X-70.98960 Y-11.87389
G01 X-71.12234 Y-11.92754
G01 X-71.21093 Y-11.91095
G01 X-71.63951 Y-11.91148
G01 X-72.06892 Y-12.00277
G01 X-72.47877 Y-12.18705
G01 X-72.82515 Y-12.43937
G01 X-73.01553 Y-12.64999
G01 X-106.02074 Y-12.64999
G01 X-109.46539 Y-9.20539
G01 X-109.67839 Y-9.03247
G01 X-109.91261 Y-8.90943
G01 X-110.14710 Y-8.83831
G01 X-110.42000 Y-8.80999
G01 X-123.92000 Y-8.80999
G01 X-124.19287 Y-8.83831
G01 X-124.42736 Y-8.90943
G01 X-124.66157 Y-9.03244
G01 X-124.87458 Y-9.20539
G01 X-127.87457 Y-12.20536
G01 X-128.00729 Y-12.36027
G01 X-128.11900 Y-12.54021
G01 X-128.20604 Y-12.75034
G01 X-128.25428 Y-12.95657
G01 X-128.26997 Y-13.15997
G01 X-128.26967 Y-22.58781
G01 X-128.25181 Y-22.79886
G01 X-128.20119 Y-23.00453
G01 X-128.11900 Y-23.19973
G01 X-128.00729 Y-23.37966
G01 X-127.87455 Y-23.53460
G01 X-127.04204 Y-24.36708
G01 X-126.84536 Y-24.52911
G01 X-126.61295 Y-24.65550
G01 X-126.36035 Y-24.73414
G01 X-126.08748 Y-24.76246
G01 X-122.52637 Y-24.76246
G01 X-122.47819 Y-24.82507
G01 X-122.15056 Y-25.11712
G01 X-121.77913 Y-25.33094
G01 X-121.35127 Y-25.46822
G01 X-120.92498 Y-25.51250
G01 X-119.91454 Y-25.51194
G01 X-119.48838 Y-25.46657
G01 X-119.07083 Y-25.33094
G01 X-118.69064 Y-25.11143
G01 X-118.36438 Y-24.81765
G01 X-118.10634 Y-24.46249
G01 X-117.93151 Y-24.07120
G01 X-117.83649 Y-23.63201
G01 X-117.83649 Y-23.19297
G01 X-117.92778 Y-22.76356
G01 X-118.10634 Y-22.36249
G01 X-118.36438 Y-22.00732
G01 X-118.69064 Y-21.71355
G01 X-119.07083 Y-21.49404
G01 X-119.48838 Y-21.35838
G01 X-119.92498 Y-21.31248
G01 X-120.92498 Y-21.31248
G01 X-121.36161 Y-21.35838
G01 X-121.77913 Y-21.49404
G01 X-122.15056 Y-21.70786
G01 X-122.47819 Y-21.99991
G01 X-122.52635 Y-22.06247
G01 X-125.52830 Y-22.06247
G01 X-125.56998 Y-22.02078
G01 X-125.56998 Y-13.71915
G01 X-123.36079 Y-11.50998
G01 X-110.97918 Y-11.50998
G01 X-107.52729 Y-14.96118
G01 X-107.32155 Y-15.12750
G01 X-107.08734 Y-15.25054
G01 X-106.83362 Y-15.32550
G01 X-106.58975 Y-15.34950
G01 X-73.01553 Y-15.34998
G01 X-72.82515 Y-15.56060
G01 X-72.47877 Y-15.81295
G01 X-72.07870 Y-15.99347
G01 X-71.63951 Y-16.08849
G01 X-71.21093 Y-16.08902
G01 X-70.76128 Y-15.99347
G01 X-70.36999 Y-15.81864
G01 X-70.01482 Y-15.56060
G01 X-69.71535 Y-15.22555
G01 X-69.50149 Y-14.85400
G01 X-69.39021 Y-14.50995
G01 X-58.01556 Y-14.50995
G01 X-57.82516 Y-14.72060
G01 X-57.47878 Y-14.97294
G01 X-57.06892 Y-15.15720
G01 X-56.62905 Y-15.24904
G01 X-56.20047 Y-15.24848
G01 X-55.78117 Y-15.15991
G01 X-55.36120 Y-14.97294
G01 X-55.01483 Y-14.72060
G01 X-54.72105 Y-14.39433
G01 X-54.49778 Y-14.00437
G01 X-54.36588 Y-13.59659
G01 X-54.32054 Y-13.17043
G01 X-54.36588 Y-12.72337
G01 X-54.50154 Y-12.30584
G01 X-54.72105 Y-11.92563
G01 X-55.00741 Y-11.60678
G01 X-55.06997 Y-11.55863
G01 X-55.06997 Y-5.08000
G01 X-55.08813 Y-4.86110
G01 X-55.13390 Y-4.67037
G01 X-55.14998 Y-4.62836
G01 X-55.14998 Y-4.51096
G01 X-35.55916 Y-4.51096
G01 X-24.45558 Y-15.61457
G01 X-24.28796 Y-15.75651
G01 X-24.10673 Y-15.86614
G01 X-23.92553 Y-15.94119
G01 X-23.71987 Y-15.99181
G01 X-23.50099 Y-16.00998
G01 X-15.90248 Y-16.00998
G01 X-15.90195 Y-16.33710
G01 X-15.89301 Y-16.41676
G01 X-15.86027 Y-16.51224
G01 X-15.81315 Y-16.58950
G01 X-15.75910 Y-16.64868
G01 X-15.69461 Y-16.69623
G01 X-15.60307 Y-16.73878
G01 X-15.50406 Y-16.75816
G01 X-12.09573 Y-16.75803
G01 X-12.00191 Y-16.73878
G01 X-11.92847 Y-16.70667
G01 X-11.83846 Y-16.64129
G01 X-11.78524 Y-16.58137
G01 X-11.73996 Y-16.50291
G01 X-11.71197 Y-16.41676
G01 X-11.70249 Y-16.32666
( Mill infeed pass 4/7 )
G01 Z-0.40000
G04 P0 ( dwell for no time -- G64 should not smooth over this point )
G01 F100.00000
G01 X-11.70249 Y-16.32666
G01 X-11.70302 Y-12.98285
G01 X-11.71197 Y-12.90323
G01 X-11.73620 Y-12.82685
G01 X-11.78524 Y-12.73858
G01 X-11.84587 Y-12.67130
G01 X-11.91036 Y-12.62375
G01 X-12.01202 Y-12.57849
G01 X-12.10092 Y-12.56182
G01 X-15.46911 Y-12.56000
G01 X-15.52478 Y-12.56401
G01 X-15.61285 Y-12.58494
G01 X-15.68582 Y-12.61803
G01 X-15.75097 Y-12.66469
G01 X-15.81973 Y-12.73858
G01 X-15.86502 Y-12.81707
G01 X-15.89301 Y-12.90323
G01 X-15.90195 Y-12.98285
G01 X-15.90248 Y-13.30998
G01 X-22.94179 Y-13.30998
G01 X-34.04537 Y-2.20637
G01 X-34.20029 Y-2.07366
G01 X-34.38022 Y-1.96195
G01 X-34.59036 Y-1.87490
G01 X-34.79658 Y-1.82667
G01 X-34.99998 Y-1.81097
G01 X-56.50977 Y-1.81145
G01 X-56.77286 Y-1.83929
G01 X-57.02546 Y-1.91793
G01 X-57.25000 Y-2.03848
G01 X-57.44731 Y-2.19979
G01 X-57.61662 Y-2.40307
G01 X-57.74301 Y-2.63548
G01 X-57.82549 Y-2.90731
G01 X-57.84997 Y-3.16098
G01 X-57.84997 Y-4.99999
G01 X-57.83181 Y-5.21886
G01 X-57.78604 Y-5.40959
G01 X-57.76996 Y-5.45160
G01 X-57.76996 Y-11.55860
G01 X-57.83257 Y-11.60678
G01 X-58.01550 Y-11.80996
G01 X-70.58782 Y-11.81026
G01 X-70.79887 Y-11.82812
G01 X-70.98960 Y-11.87389
G01 X-71.12234 Y-11.92754
G01 X-71.21093 Y-11.91095
G01 X-71.63951 Y-11.91148
G01 X-72.06892 Y-12.00277
G01 X-72.47877 Y-12.18705
G01 X-72.82515 Y-12.43937
G01 X-73.01553 Y-12.64999
G01 X-106.02074 Y-12.64999
G01 X-109.46539 Y-9.20539
G01 X-109.67839 Y-9.03247
G01 X-109.91261 Y-8.90943
G01 X-110.14710 Y-8.83831
G01 X-110.42000 Y-8.80999
G01 X-123.92000 Y-8.80999
G01 X-124.19287 Y-8.83831
G01 X-124.42736 Y-8.90943
G01 X-124.66157 Y-9.03244
G01 X-124.87458 Y-9.20539
G01 X-127.87457 Y-12.20536
G01 X-128.00729 Y-12.36027
G01 X-128.11900 Y-12.54021
G01 X-128.20604 Y-12.75034
G01 X-128.25428 Y-12.95657
G01 X-128.26997 Y-13.15997
G01 X-128.26967 Y-22.58781
G01 X-128.25181 Y-22.79886
G01 X-128.20119 Y-23.00453
G01 X-128.11900 Y-23.19973
G01 X-128.00729 Y-23.37966
G01 X-127.87455 Y-23.53460
G01 X-127.04204 Y-24.36708
G01 X-126.84536 Y-24.52911
G01 X-126.61295 Y-24.65550
G01 X-126.36035 Y-24.73414
G01 X-126.08748 Y-24.76246
G01 X-122.52637 Y-24.76246
G01 X-122.47819 Y-24.82507
G01 X-122.15056 Y-25.11712
G01 X-121.77913 Y-25.33094
G01 X-121.35127 Y-25.46822
G01 X-120.92498 Y-25.51250
G01 X-119.91454 Y-25.51194
G01 X-119.48838 Y-25.46657
G01 X-119.07083 Y-25.33094
G01 X-118.69064 Y-25.11143
G01 X-118.36438 Y-24.81765
G01 X-118.10634 Y-24.46249
G01 X-117.93151 Y-24.07120
G01 X-117.83649 Y-23.63201
G01 X-117.83649 Y-23.19297
G01 X-117.92778 Y-22.76356
G01 X-118.10634 Y-22.36249
G01 X-118.36438 Y-22.00732
G01 X-118.69064 Y-21.71355
G01 X-119.07083 Y-21.49404
G01 X-119.48838 Y-21.35838
G01 X-119.92498 Y-21.31248
G01 X-120.92498 Y-21.31248
G01 X-121.36161 Y-21.35838
G01 X-121.77913 Y-21.49404
G01 X-122.15056 Y-21.70786
G01 X-122.47819 Y-21.99991
G01 X-122.52635 Y-22.06247
G01 X-125.52830 Y-22.06247
G01 X-125.56998 Y-22.02078
G01 X-125.56998 Y-13.71915
G01 X-123.36079 Y-11.50998
G01 X-110.97918 Y-11.50998
G01 X-107.52729 Y-14.96118
G01 X-107.32155 Y-15.12750
G01 X-107.08734 Y-15.25054
G01 X-106.83362 Y-15.32550
G01 X-106.58975 Y-15.34950
G01 X-73.01553 Y-15.34998
G01 X-72.82515 Y-15.56060
G01 X-72.47877 Y-15.81295
G01 X-72.07870 Y-15.99347
G01 X-71.63951 Y-16.08849
G01 X-71.21093 Y-16.08902
G01 X-70.76128 Y-15.99347
G01 X-70.36999 Y-15.81864
G01 X-70.01482 Y-15.56060
G01 X-69.71535 Y-15.22555
G01 X-69.50149 Y-14.85400
G01 X-69.39021 Y-14.50995
G01 X-58.01556 Y-14.50995
G01 X-57.82516 Y-14.72060
G01 X-57.47878 Y-14.97294
G01 X-57.06892 Y-15.15720
G01 X-56.62905 Y-15.24904
G01 X-56.20047 Y-15.24848
G01 X-55.78117 Y-15.15991
G01 X-55.36120 Y-14.97294
G01 X-55.01483 Y-14.72060
G01 X-54.72105 Y-14.39433
G01 X-54.49778 Y-14.00437
G01 X-54.36588 Y-13.59659
G01 X-54.32054 Y-13.17043
G01 X-54.36588 Y-12.72337
G01 X-54.50154 Y-12.30584
G01 X-54.72105 Y-11.92563
G01 X-55.00741 Y-11.60678
G01 X-55.06997 Y-11.55863
G01 X-55.06997 Y-5.08000
G01 X-55.08813 Y-4.86110
G01 X-55.13390 Y-4.67037
G01 X-55.14998 Y-4.62836
G01 X-55.14998 Y-4.51096
G01 X-35.55916 Y-4.51096
G01 X-24.45558 Y-15.61457
G01 X-24.28796 Y-15.75651
G01 X-24.10673 Y-15.86614
G01 X-23.92553 Y-15.94119
G01 X-23.71987 Y-15.99181
G01 X-23.50099 Y-16.00998
G01 X-15.90248 Y-16.00998
G01 X-15.90195 Y-16.33710
G01 X-15.89301 Y-16.41676
G01 X-15.86027 Y-16.51224
G01 X-15.81315 Y-16.58950
G01 X-15.75910 Y-16.64868
G01 X-15.69461 Y-16.69623
G01 X-15.60307 Y-16.73878
G01 X-15.50406 Y-16.75816
G01 X-12.09573 Y-16.75803
G01 X-12.00191 Y-16.73878
G01 X-11.92847 Y-16.70667
G01 X-11.83846 Y-16.64129
G01 X-11.78524 Y-16.58137
G01 X-11.73996 Y-16.50291
G01 X-11.71197 Y-16.41676
G01 X-11.70249 Y-16.32666
( Mill infeed pass 5/7 )
G01 Z-0.50000
G04 P0 ( dwell for no time -- G64 should not smooth over this point )
G01 F100.00000
G01 X-11.70249 Y-16.32666
G01 X-11.70302 Y-12.98285
G01 X-11.71197 Y-12.90323
G01 X-11.73620 Y-12.82685
G01 X-11.78524 Y-12.73858
G01 X-11.84587 Y-12.67130
G01 X-11.91036 Y-12.62375
G01 X-12.01202 Y-12.57849
G01 X-12.10092 Y-12.56182
G01 X-15.46911 Y-12.56000
G01 X-15.52478 Y-12.56401
G01 X-15.61285 Y-12.58494
G01 X-15.68582 Y-12.61803
G01 X-15.75097 Y-12.66469
G01 X-15.81973 Y-12.73858
G01 X-15.86502 Y-12.81707
G01 X-15.89301 Y-12.90323
G01 X-15.90195 Y-12.98285
G01 X-15.90248 Y-13.30998
G01 X-22.94179 Y-13.30998
G01 X-34.04537 Y-2.20637
G01 X-34.20029 Y-2.07366
G01 X-34.38022 Y-1.96195
G01 X-34.59036 Y-1.87490
G01 X-34.79658 Y-1.82667
G01 X-34.99998 Y-1.81097
G01 X-56.50977 Y-1.81145
G01 X-56.77286 Y-1.83929
G01 X-57.02546 Y-1.91793
G01 X-57.25000 Y-2.03848
G01 X-57.44731 Y-2.19979
G01 X-57.61662 Y-2.40307
G01 X-57.74301 Y-2.63548
G01 X-57.82549 Y-2.90731
G01 X-57.84997 Y-3.16098
G01 X-57.84997 Y-4.99999
G01 X-57.83181 Y-5.21886
G01 X-57.78604 Y-5.40959
G01 X-57.76996 Y-5.45160
G01 X-57.76996 Y-11.55860
G01 X-57.83257 Y-11.60678
G01 X-58.01550 Y-11.80996
G01 X-70.58782 Y-11.81026
G01 X-70.79887 Y-11.82812
G01 X-70.98960 Y-11.87389
G01 X-71.12234 Y-11.92754
G01 X-71.21093 Y-11.91095
G01 X-71.63951 Y-11.91148
G01 X-72.06892 Y-12.00277
G01 X-72.47877 Y-12.18705
G01 X-72.82515 Y-12.43937
G01 X-73.01553 Y-12.64999
G01 X-106.02074 Y-12.64999
G01 X-109.46539 Y-9.20539
G01 X-109.67839 Y-9.03247
G01 X-109.91261 Y-8.90943
G01 X-110.14710 Y-8.83831
G01 X-110.42000 Y-8.80999
G01 X-123.92000 Y-8.80999
G01 X-124.19287 Y-8.83831
G01 X-124.42736 Y-8.90943
G01 X-124.66157 Y-9.03244
G01 X-124.87458 Y-9.20539
G01 X-127.87457 Y-12.20536
G01 X-128.00729 Y-12.36027
G01 X-128.11900 Y-12.54021
G01 X-128.20604 Y-12.75034
G01 X-128.25428 Y-12.95657
G01 X-128.26997 Y-13.15997
G01 X-128.26967 Y-22.58781
G01 X-128.25181 Y-22.79886
G01 X-128.20119 Y-23.00453
G01 X-128.11900 Y-23.19973
G01 X-128.00729 Y-23.37966
G01 X-127.87455 Y-23.53460
G01 X-127.04204 Y-24.36708
G01 X-126.84536 Y-24.52911
G01 X-126.61295 Y-24.65550
G01 X-126.36035 Y-24.73414
G01 X-126.08748 Y-24.76246
G01 X-122.52637 Y-24.76246
G01 X-122.47819 Y-24.82507
G01 X-122.15056 Y-25.11712
G01 X-121.77913 Y-25.33094
G01 X-121.35127 Y-25.46822
G01 X-120.92498 Y-25.51250
G01 X-119.91454 Y-25.51194
G01 X-119.48838 Y-25.46657
G01 X-119.07083 Y-25.33094
G01 X-118.69064 Y-25.11143
G01 X-118.36438 Y-24.81765
G01 X-118.10634 Y-24.46249
G01 X-117.93151 Y-24.07120
G01 X-117.83649 Y-23.63201
G01 X-117.83649 Y-23.19297
G01 X-117.92778 Y-22.76356
G01 X-118.10634 Y-22.36249
G01 X-118.36438 Y-22.00732
G01 X-118.69064 Y-21.71355
G01 X-119.07083 Y-21.49404
G01 X-119.48838 Y-21.35838
G01 X-119.92498 Y-21.31248
G01 X-120.92498 Y-21.31248
G01 X-121.36161 Y-21.35838
G01 X-121.77913 Y-21.49404
G01 X-122.15056 Y-21.70786
G01 X-122.47819 Y-21.99991
G01 X-122.52635 Y-22.06247
G01 X-125.52830 Y-22.06247
G01 X-125.56998 Y-22.02078
G01 X-125.56998 Y-13.71915
G01 X-123.36079 Y-11.50998
G01 X-110.97918 Y-11.50998
G01 X-107.52729 Y-14.96118
G01 X-107.32155 Y-15.12750
G01 X-107.08734 Y-15.25054
G01 X-106.83362 Y-15.32550
G01 X-106.58975 Y-15.34950
G01 X-73.01553 Y-15.34998
G01 X-72.82515 Y-15.56060
G01 X-72.47877 Y-15.81295
G01 X-72.07870 Y-15.99347
G01 X-71.63951 Y-16.08849
G01 X-71.21093 Y-16.08902
G01 X-70.76128 Y-15.99347
G01 X-70.36999 Y-15.81864
G01 X-70.01482 Y-15.56060
G01 X-69.71535 Y-15.22555
G01 X-69.50149 Y-14.85400
G01 X-69.39021 Y-14.50995
G01 X-58.01556 Y-14.50995
G01 X-57.82516 Y-14.72060
G01 X-57.47878 Y-14.97294
G01 X-57.06892 Y-15.15720
G01 X-56.62905 Y-15.24904
G01 X-56.20047 Y-15.24848
G01 X-55.78117 Y-15.15991
G01 X-55.36120 Y-14.97294
G01 X-55.01483 Y-14.72060
G01 X-54.72105 Y-14.39433
G01 X-54.49778 Y-14.00437
G01 X-54.36588 Y-13.59659
G01 X-54.32054 Y-13.17043
G01 X-54.36588 Y-12.72337
G01 X-54.50154 Y-12.30584
G01 X-54.72105 Y-11.92563
G01 X-55.00741 Y-11.60678
G01 X-55.06997 Y-11.55863
G01 X-55.06997 Y-5.08000
G01 X-55.08813 Y-4.86110
G01 X-55.13390 Y-4.67037
G01 X-55.14998 Y-4.62836
G01 X-55.14998 Y-4.51096
G01 X-35.55916 Y-4.51096
G01 X-24.45558 Y-15.61457
G01 X-24.28796 Y-15.75651
G01 X-24.10673 Y-15.86614
G01 X-23.92553 Y-15.94119
G01 X-23.71987 Y-15.99181
G01 X-23.50099 Y-16.00998
G01 X-15.90248 Y-16.00998
G01 X-15.90195 Y-16.33710
G01 X-15.89301 Y-16.41676
G01 X-15.86027 Y-16.51224
G01 X-15.81315 Y-16.58950
G01 X-15.75910 Y-16.64868
G01 X-15.69461 Y-16.69623
G01 X-15.60307 Y-16.73878
G01 X-15.50406 Y-16.75816
G01 X-12.09573 Y-16.75803
G01 X-12.00191 Y-16.73878
G01 X-11.92847 Y-16.70667
G01 X-11.83846 Y-16.64129
G01 X-11.78524 Y-16.58137
G01 X-11.73996 Y-16.50291
G01 X-11.71197 Y-16.41676
G01 X-11.70249 Y-16.32666
( Mill infeed pass 6/7 )
G01 Z-0.60000
G04 P0 ( dwell for no time -- G64 should not smooth over this point )
G01 F100.00000
G01 X-11.70249 Y-16.32666
G01 X-11.70302 Y-12.98285
G01 X-11.71197 Y-12.90323
G01 X-11.73620 Y-12.82685
G01 X-11.78524 Y-12.73858
G01 X-11.84587 Y-12.67130
G01 X-11.91036 Y-12.62375
G01 X-12.01202 Y-12.57849
G01 X-12.10092 Y-12.56182
G01 X-15.46911 Y-12.56000
G01 X-15.52478 Y-12.56401
G01 X-15.61285 Y-12.58494
G01 X-15.68582 Y-12.61803
G01 X-15.75097 Y-12.66469
G01 X-15.81973 Y-12.73858
G01 X-15.86502 Y-12.81707
G01 X-15.89301 Y-12.90323
G01 X-15.90195 Y-12.98285
G01 X-15.90248 Y-13.30998
G01 X-22.94179 Y-13.30998
G01 X-34.04537 Y-2.20637
G01 X-34.20029 Y-2.07366
G01 X-34.38022 Y-1.96195
G01 X-34.59036 Y-1.87490
G01 X-34.79658 Y-1.82667
G01 X-34.99998 Y-1.81097
G01 X-56.50977 Y-1.81145
G01 X-56.77286 Y-1.83929
G01 X-57.02546 Y-1.91793
G01 X-57.25000 Y-2.03848
G01 X-57.44731 Y-2.19979
G01 X-57.61662 Y-2.40307
G01 X-57.74301 Y-2.63548
G01 X-57.82549 Y-2.90731
G01 X-57.84997 Y-3.16098
G01 X-57.84997 Y-4.99999
G01 X-57.83181 Y-5.21886
G01 X-57.78604 Y-5.40959
G01 X-57.76996 Y-5.45160
G01 X-57.76996 Y-11.55860
G01 X-57.83257 Y-11.60678
G01 X-58.01550 Y-11.80996
G01 X-70.58782 Y-11.81026
G01 X-70.79887 Y-11.82812
G01 X-70.98960 Y-11.87389
G01 X-71.12234 Y-11.92754
G01 X-71.21093 Y-11.91095
G01 X-71.63951 Y-11.91148
G01 X-72.06892 Y-12.00277
G01 X-72.47877 Y-12.18705
G01 X-72.82515 Y-12.43937
G01 X-73.01553 Y-12.64999
G01 X-106.02074 Y-12.64999
G01 X-109.46539 Y-9.20539
G01 X-109.67839 Y-9.03247
G01 X-109.91261 Y-8.90943
G01 X-110.14710 Y-8.83831
G01 X-110.42000 Y-8.80999
G01 X-123.92000 Y-8.80999
G01 X-124.19287 Y-8.83831
G01 X-124.42736 Y-8.90943
G01 X-124.66157 Y-9.03244
G01 X-124.87458 Y-9.20539
G01 X-127.87457 Y-12.20536
G01 X-128.00729 Y-12.36027
G01 X-128.11900 Y-12.54021
G01 X-128.20604 Y-12.75034
G01 X-128.25428 Y-12.95657
G01 X-128.26997 Y-13.15997
G01 X-128.26967 Y-22.58781
G01 X-128.25181 Y-22.79886
G01 X-128.20119 Y-23.00453
G01 X-128.11900 Y-23.19973
G01 X-128.00729 Y-23.37966
G01 X-127.87455 Y-23.53460
G01 X-127.04204 Y-24.36708
G01 X-126.84536 Y-24.52911
G01 X-126.61295 Y-24.65550
G01 X-126.36035 Y-24.73414
G01 X-126.08748 Y-24.76246
G01 X-122.52637 Y-24.76246
G01 X-122.47819 Y-24.82507
G01 X-122.15056 Y-25.11712
G01 X-121.77913 Y-25.33094
G01 X-121.35127 Y-25.46822
G01 X-120.92498 Y-25.51250
G01 X-119.91454 Y-25.51194
G01 X-119.48838 Y-25.46657
G01 X-119.07083 Y-25.33094
G01 X-118.69064 Y-25.11143
G01 X-118.36438 Y-24.81765
G01 X-118.10634 Y-24.46249
G01 X-117.93151 Y-24.07120
G01 X-117.83649 Y-23.63201
G01 X-117.83649 Y-23.19297
G01 X-117.92778 Y-22.76356
G01 X-118.10634 Y-22.36249
G01 X-118.36438 Y-22.00732
G01 X-118.69064 Y-21.71355
G01 X-119.07083 Y-21.49404
G01 X-119.48838 Y-21.35838
G01 X-119.92498 Y-21.31248
G01 X-120.92498 Y-21.31248
G01 X-121.36161 Y-21.35838
G01 X-121.77913 Y-21.49404
G01 X-122.15056 Y-21.70786
G01 X-122.47819 Y-21.99991
G01 X-122.52635 Y-22.06247
G01 X-125.52830 Y-22.06247
G01 X-125.56998 Y-22.02078
G01 X-125.56998 Y-13.71915
G01 X-123.36079 Y-11.50998
G01 X-110.97918 Y-11.50998
G01 X-107.52729 Y-14.96118
G01 X-107.32155 Y-15.12750
G01 X-107.08734 Y-15.25054
G01 X-106.83362 Y-15.32550
G01 X-106.58975 Y-15.34950
G01 X-73.01553 Y-15.34998
G01 X-72.82515 Y-15.56060
G01 X-72.47877 Y-15.81295
G01 X-72.07870 Y-15.99347
G01 X-71.63951 Y-16.08849
G01 X-71.21093 Y-16.08902
G01 X-70.76128 Y-15.99347
G01 X-70.36999 Y-15.81864
G01 X-70.01482 Y-15.56060
G01 X-69.71535 Y-15.22555
G01 X-69.50149 Y-14.85400
G01 X-69.39021 Y-14.50995
G01 X-58.01556 Y-14.50995
G01 X-57.82516 Y-14.72060
G01 X-57.47878 Y-14.97294
G01 X-57.06892 Y-15.15720
G01 X-56.62905 Y-15.24904
G01 X-56.20047 Y-15.24848
G01 X-55.78117 Y-15.15991
G01 X-55.36120 Y-14.97294
G01 X-55.01483 Y-14.72060
G01 X-54.72105 Y-14.39433
G01 X-54.49778 Y-14.00437
G01 X-54.36588 Y-13.59659
G01 X-54.32054 Y-13.17043
G01 X-54.36588 Y-12.72337
G01 X-54.50154 Y-12.30584
G01 X-54.72105 Y-11.92563
G01 X-55.00741 Y-11.60678
G01 X-55.06997 Y-11.55863
G01 X-55.06997 Y-5.08000
G01 X-55.08813 Y-4.86110
G01 X-55.13390 Y-4.67037
G01 X-55.14998 Y-4.62836
G01 X-55.14998 Y-4.51096
G01 X-35.55916 Y-4.51096
G01 X-24.45558 Y-15.61457
G01 X-24.28796 Y-15.75651
G01 X-24.10673 Y-15.86614
G01 X-23.92553 Y-15.94119
G01 X-23.71987 Y-15.99181
G01 X-23.50099 Y-16.00998
G01 X-15.90248 Y-16.00998
G01 X-15.90195 Y-16.33710
G01 X-15.89301 Y-16.41676
G01 X-15.86027 Y-16.51224
G01 X-15.81315 Y-16.58950
G01 X-15.75910 Y-16.64868
G01 X-15.69461 Y-16.69623
G01 X-15.60307 Y-16.73878
G01 X-15.50406 Y-16.75816
G01 X-12.09573 Y-16.75803
G01 X-12.00191 Y-16.73878
G01 X-11.92847 Y-16.70667
G01 X-11.83846 Y-16.64129
G01 X-11.78524 Y-16.58137
G01 X-11.73996 Y-16.50291
G01 X-11.71197 Y-16.41676
G01 X-11.70249 Y-16.32666
( Mill infeed pass 7/7 )
G01 Z-0.70000
G04 P0 ( dwell for no time -- G64 should not smooth over this point )
G01 F100.00000
G01 X-11.70249 Y-16.32666
G01 X-11.70302 Y-12.98285
G01 X-11.71197 Y-12.90323
G01 X-11.73620 Y-12.82685
G01 X-11.78524 Y-12.73858
G01 X-11.84587 Y-12.67130
G01 X-11.91036 Y-12.62375
G01 X-12.01202 Y-12.57849
G01 X-12.10092 Y-12.56182
G01 X-15.46911 Y-12.56000
G01 X-15.52478 Y-12.56401
G01 X-15.61285 Y-12.58494
G01 X-15.68582 Y-12.61803
G01 X-15.75097 Y-12.66469
G01 X-15.81973 Y-12.73858
G01 X-15.86502 Y-12.81707
G01 X-15.89301 Y-12.90323
G01 X-15.90195 Y-12.98285
G01 X-15.90248 Y-13.30998
G01 X-22.94179 Y-13.30998
G01 X-34.04537 Y-2.20637
G01 X-34.20029 Y-2.07366
G01 X-34.38022 Y-1.96195
G01 X-34.59036 Y-1.87490
G01 X-34.79658 Y-1.82667
G01 X-34.99998 Y-1.81097
G01 X-56.50977 Y-1.81145
G01 X-56.77286 Y-1.83929
G01 X-57.02546 Y-1.91793
G01 X-57.25000 Y-2.03848
G01 X-57.44731 Y-2.19979
G01 X-57.61662 Y-2.40307
G01 X-57.74301 Y-2.63548
G01 X-57.82549 Y-2.90731
G01 X-57.84997 Y-3.16098
G01 X-57.84997 Y-4.99999
G01 X-57.83181 Y-5.21886
G01 X-57.78604 Y-5.40959
G01 X-57.76996 Y-5.45160
G01 X-57.76996 Y-11.55860
G01 X-57.83257 Y-11.60678
G01 X-58.01550 Y-11.80996
G01 X-70.58782 Y-11.81026
G01 X-70.79887 Y-11.82812
G01 X-70.98960 Y-11.87389
G01 X-71.12234 Y-11.92754
G01 X-71.21093 Y-11.91095
G01 X-71.63951 Y-11.91148
G01 X-72.06892 Y-12.00277
G01 X-72.47877 Y-12.18705
G01 X-72.82515 Y-12.43937
G01 X-73.01553 Y-12.64999
G01 X-106.02074 Y-12.64999
G01 X-109.46539 Y-9.20539
G01 X-109.67839 Y-9.03247
G01 X-109.91261 Y-8.90943
G01 X-110.14710 Y-8.83831
G01 X-110.42000 Y-8.80999
G01 X-123.92000 Y-8.80999
G01 X-124.19287 Y-8.83831
G01 X-124.42736 Y-8.90943
G01 X-124.66157 Y-9.03244
G01 X-124.87458 Y-9.20539
G01 X-127.87457 Y-12.20536
G01 X-128.00729 Y-12.36027
G01 X-128.11900 Y-12.54021
G01 X-128.20604 Y-12.75034
G01 X-128.25428 Y-12.95657
G01 X-128.26997 Y-13.15997
G01 X-128.26967 Y-22.58781
G01 X-128.25181 Y-22.79886
G01 X-128.20119 Y-23.00453
G01 X-128.11900 Y-23.19973
G01 X-128.00729 Y-23.37966
G01 X-127.87455 Y-23.53460
G01 X-127.04204 Y-24.36708
G01 X-126.84536 Y-24.52911
G01 X-126.61295 Y-24.65550
G01 X-126.36035 Y-24.73414
G01 X-126.08748 Y-24.76246
G01 X-122.52637 Y-24.76246
G01 X-122.47819 Y-24.82507
G01 X-122.15056 Y-25.11712
G01 X-121.77913 Y-25.33094
G01 X-121.35127 Y-25.46822
G01 X-120.92498 Y-25.51250
G01 X-119.91454 Y-25.51194
G01 X-119.48838 Y-25.46657
G01 X-119.07083 Y-25.33094
G01 X-118.69064 Y-25.11143
G01 X-118.36438 Y-24.81765
G01 X-118.10634 Y-24.46249
G01 X-117.93151 Y-24.07120
G01 X-117.83649 Y-23.63201
G01 X-117.83649 Y-23.19297
G01 X-117.92778 Y-22.76356
G01 X-118.10634 Y-22.36249
G01 X-118.36438 Y-22.00732
G01 X-118.69064 Y-21.71355
G01 X-119.07083 Y-21.49404
G01 X-119.48838 Y-21.35838
G01 X-119.92498 Y-21.31248
G01 X-120.92498 Y-21.31248
G01 X-121.36161 Y-21.35838
G01 X-121.77913 Y-21.49404
G01 X-122.15056 Y-21.70786
G01 X-122.47819 Y-21.99991
G01 X-122.52635 Y-22.06247
G01 X-125.52830 Y-22.06247
G01 X-125.56998 Y-22.02078
G01 X-125.56998 Y-13.71915
G01 X-123.36079 Y-11.50998
G01 X-110.97918 Y-11.50998
G01 X-107.52729 Y-14.96118
G01 X-107.32155 Y-15.12750
G01 X-107.08734 Y-15.25054
G01 X-106.83362 Y-15.32550
G01 X-106.58975 Y-15.34950
G01 X-73.01553 Y-15.34998
G01 X-72.82515 Y-15.56060
G01 X-72.47877 Y-15.81295
G01 X-72.07870 Y-15.99347
G01 X-71.63951 Y-16.08849
G01 X-71.21093 Y-16.08902
G01 X-70.76128 Y-15.99347
G01 X-70.36999 Y-15.81864
G01 X-70.01482 Y-15.56060
G01 X-69.71535 Y-15.22555
G01 X-69.50149 Y-14.85400
G01 X-69.39021 Y-14.50995
G01 X-58.01556 Y-14.50995
G01 X-57.82516 Y-14.72060
G01 X-57.47878 Y-14.97294
G01 X-57.06892 Y-15.15720
G01 X-56.62905 Y-15.24904
G01 X-56.20047 Y-15.24848
G01 X-55.78117 Y-15.15991
G01 X-55.36120 Y-14.97294
G01 X-55.01483 Y-14.72060
G01 X-54.72105 Y-14.39433
G01 X-54.49778 Y-14.00437
G01 X-54.36588 Y-13.59659
G01 X-54.32054 Y-13.17043
G01 X-54.36588 Y-12.72337
G01 X-54.50154 Y-12.30584
G01 X-54.72105 Y-11.92563
G01 X-55.00741 Y-11.60678
G01 X-55.06997 Y-11.55863
G01 X-55.06997 Y-5.08000
G01 X-55.08813 Y-4.86110
G01 X-55.13390 Y-4.67037
G01 X-55.14998 Y-4.62836
G01 X-55.14998 Y-4.51096
G01 X-35.55916 Y-4.51096
G01 X-24.45558 Y-15.61457
G01 X-24.28796 Y-15.75651
G01 X-24.10673 Y-15.86614
G01 X-23.92553 Y-15.94119
G01 X-23.71987 Y-15.99181
G01 X-23.50099 Y-16.00998
G01 X-15.90248 Y-16.00998
G01 X-15.90195 Y-16.33710
G01 X-15.89301 Y-16.41676
G01 X-15.86027 Y-16.51224
G01 X-15.81315 Y-16.58950
G01 X-15.75910 Y-16.64868
G01 X-15.69461 Y-16.69623
G01 X-15.60307 Y-16.73878
G01 X-15.50406 Y-16.75816
G01 X-12.09573 Y-16.75803
G01 X-12.00191 Y-16.73878
G01 X-11.92847 Y-16.70667
G01 X-11.83846 Y-16.64129
G01 X-11.78524 Y-16.58137
G01 X-11.73996 Y-16.50291
G01 X-11.71197 Y-16.41676
G01 X-11.70249 Y-16.32666
G04 P0 ( dwell for no time -- G64 should not smooth over this point )
G00 Z2.00000 ( retract )

G00 X-19.51998 Y-43.37500 ( rapid move to begin. )
G01 F50.00000
( Mill infeed pass 1/7 )
G01 Z-0.10000
G04 P0 ( dwell for no time -- G64 should not smooth over this point )
G01 F100.00000
G01 X-19.51998 Y-43.37500
G01 X-19.51998 Y-40.62499
G01 X-19.53420 Y-40.48458
G01 X-19.58266 Y-40.33009
G01 X-19.66504 Y-40.19070
G01 X-19.75988 Y-40.08620
G01 X-19.87370 Y-40.00282
G01 X-20.01119 Y-39.93921
G01 X-20.15886 Y-39.90558
G01 X-20.24499 Y-39.90000
G01 X-22.99498 Y-39.90000
G01 X-23.08111 Y-39.90558
G01 X-23.21903 Y-39.93548
G01 X-23.35748 Y-39.99713
G01 X-23.48012 Y-40.08620
G01 X-23.57493 Y-40.19070
G01 X-23.65731 Y-40.33009
G01 X-23.70143 Y-40.46413
G01 X-23.71943 Y-40.61452
G01 X-23.71999 Y-40.64998
G01 X-34.52078 Y-40.64998
G01 X-39.51079 Y-35.65997
G01 X-39.45877 Y-35.60727
G01 X-39.30332 Y-35.41786
G01 X-39.17693 Y-35.18545
G01 X-39.09830 Y-34.93285
G01 X-39.06998 Y-34.65998
G01 X-39.06998 Y-9.07999
G01 X-39.09446 Y-8.82632
G01 X-39.16944 Y-8.57260
G01 X-39.29245 Y-8.33839
G01 X-39.46538 Y-8.12538
G01 X-41.05115 Y-6.54004
G01 X-41.21300 Y-6.40344
G01 X-41.39423 Y-6.29382
G01 X-41.57543 Y-6.21876
G01 X-41.78109 Y-6.16814
G01 X-41.99999 Y-6.14997
G01 X-48.26000 Y-6.14997
G01 X-48.53287 Y-6.17830
G01 X-48.78548 Y-6.25693
G01 X-49.00158 Y-6.37245
G01 X-49.21458 Y-6.54535
G01 X-51.95458 Y-9.28538
G01 X-52.12751 Y-9.49838
G01 X-52.24300 Y-9.71448
G01 X-52.32166 Y-9.96709
G01 X-52.34998 Y-10.23998
G01 X-52.34998 Y-17.68079
G01 X-57.87456 Y-23.20539
G01 X-58.04748 Y-23.41839
G01 X-58.17052 Y-23.65261
G01 X-58.24164 Y-23.88710
G01 X-58.26996 Y-24.16000
G01 X-58.26996 Y-66.60078
G01 X-58.70915 Y-67.03997
G01 X-60.07471 Y-67.03997
G01 X-60.26920 Y-66.92831
G01 X-60.57722 Y-66.82765
G01 X-60.92000 Y-66.78999
G01 X-61.93043 Y-66.79054
G01 X-62.25266 Y-66.82496
G01 X-62.58009 Y-66.93306
G01 X-62.86045 Y-67.09555
G01 X-63.10902 Y-67.31937
G01 X-63.30564 Y-67.58998
G01 X-63.44168 Y-67.89557
G01 X-63.51123 Y-68.22275
G01 X-63.51123 Y-68.55724
G01 X-63.44168 Y-68.88442
G01 X-63.30564 Y-69.18998
G01 X-63.10902 Y-69.46059
G01 X-62.85166 Y-69.69011
G01 X-62.56099 Y-69.85541
G01 X-62.25266 Y-69.95503
G01 X-61.93043 Y-69.98945
G01 X-60.92000 Y-69.98998
G01 X-60.59767 Y-69.95665
G01 X-60.26920 Y-69.85165
G01 X-60.07466 Y-69.73997
G01 X-58.15000 Y-69.73997
G01 X-57.87710 Y-69.71165
G01 X-57.64261 Y-69.64053
G01 X-57.40839 Y-69.51751
G01 X-57.19539 Y-69.34457
G01 X-55.96006 Y-68.10880
G01 X-55.83265 Y-67.95966
G01 X-55.72095 Y-67.77972
G01 X-55.63390 Y-67.56959
G01 X-55.58566 Y-67.36337
G01 X-55.56997 Y-67.15999
G01 X-55.56997 Y-24.71918
G01 X-50.04539 Y-19.19458
G01 X-49.88334 Y-18.99788
G01 X-49.75695 Y-18.76547
G01 X-49.67831 Y-18.51287
G01 X-49.64999 Y-18.23999
G01 X-49.64999 Y-10.79917
G01 X-47.70079 Y-8.84997
G01 X-42.55917 Y-8.84997
G01 X-41.76997 Y-9.63917
G01 X-41.76997 Y-34.10080
G01 X-41.97916 Y-34.30999
G01 X-43.32445 Y-34.30999
G01 X-43.51482 Y-34.09937
G01 X-43.86120 Y-33.84702
G01 X-44.27106 Y-33.66277
G01 X-44.71093 Y-33.57095
G01 X-45.13951 Y-33.57148
G01 X-45.55881 Y-33.66005
G01 X-45.96999 Y-33.84133
G01 X-46.33257 Y-34.10679
G01 X-46.61893 Y-34.42564
G01 X-46.83369 Y-34.79650
G01 X-46.97138 Y-35.21326
G01 X-47.01944 Y-35.67044
G01 X-46.97410 Y-36.09660
G01 X-46.84217 Y-36.50437
G01 X-46.61893 Y-36.89434
G01 X-46.33257 Y-37.21318
G01 X-46.26996 Y-37.26137
G01 X-46.26996 Y-48.97859
G01 X-46.33257 Y-49.02678
G01 X-46.61893 Y-49.34565
G01 X-46.83844 Y-49.72583
G01 X-46.97410 Y-50.14338
G01 X-47.02000 Y-50.57999
G01 X-46.97410 Y-51.01661
G01 X-46.84217 Y-51.42436
G01 X-46.61233 Y-51.82248
G01 X-46.32515 Y-52.14059
G01 X-45.97878 Y-52.39294
G01 X-45.56892 Y-52.57721
G01 X-45.12904 Y-52.66901
G01 X-44.70047 Y-52.66847
G01 X-44.28117 Y-52.57990
G01 X-43.86999 Y-52.39865
G01 X-43.50741 Y-52.13317
G01 X-43.22105 Y-51.81432
G01 X-43.00629 Y-51.44343
G01 X-42.86588 Y-51.01661
G01 X-42.82054 Y-50.56955
G01 X-42.86588 Y-50.14338
G01 X-42.99778 Y-49.73561
G01 X-43.22105 Y-49.34565
G01 X-43.50741 Y-49.02678
G01 X-43.56997 Y-48.97864
G01 X-43.56997 Y-37.26134
G01 X-43.50741 Y-37.21318
G01 X-43.32445 Y-37.00998
G01 X-41.97916 Y-37.00998
G01 X-36.03457 Y-42.95457
G01 X-35.82157 Y-43.12750
G01 X-35.60547 Y-43.24302
G01 X-35.35286 Y-43.32166
G01 X-35.07999 Y-43.34998
G01 X-23.71999 Y-43.34998
G01 X-23.71943 Y-43.38544
G01 X-23.70414 Y-43.52572
G01 X-23.65731 Y-43.66986
G01 X-23.58151 Y-43.80113
G01 X-23.48751 Y-43.90636
G01 X-23.35748 Y-44.00286
G01 X-23.22881 Y-44.06074
G01 X-23.08111 Y-44.09437
G01 X-22.99498 Y-44.09999
G01 X-20.24499 Y-44.09999
G01 X-20.15886 Y-44.09437
G01 X-20.02094 Y-44.06450
G01 X-19.88248 Y-44.00286
G01 X-19.75988 Y-43.91376
G01 X-19.66504 Y-43.80926
G01 X-19.57890 Y-43.66011
G01 X-19.53583 Y-43.52572
G01 X-19.51998 Y-43.37500
( Mill infeed pass 2/7 )
G01 Z-0.20000
G04 P0 ( dwell for no time -- G64 should not smooth over this point )
G01 F100.00000
G01 X-19.51998 Y-43.37500
G01 X-19.51998 Y-40.62499
G01 X-19.53420 Y-40.48458
G01 X-19.58266 Y-40.33009
G01 X-19.66504 Y-40.19070
G01 X-19.75988 Y-40.08620
G01 X-19.87370 Y-40.00282
G01 X-20.01119 Y-39.93921
G01 X-20.15886 Y-39.90558
G01 X-20.24499 Y-39.90000
G01 X-22.99498 Y-39.90000
G01 X-23.08111 Y-39.90558
G01 X-23.21903 Y-39.93548
G01 X-23.35748 Y-39.99713
G01 X-23.48012 Y-40.08620
G01 X-23.57493 Y-40.19070
G01 X-23.65731 Y-40.33009
G01 X-23.70143 Y-40.46413
G01 X-23.71943 Y-40.61452
G01 X-23.71999 Y-40.64998
G01 X-34.52078 Y-40.64998
G01 X-39.51079 Y-35.65997
G01 X-39.45877 Y-35.60727
G01 X-39.30332 Y-35.41786
G01 X-39.17693 Y-35.18545
G01 X-39.09830 Y-34.93285
G01 X-39.06998 Y-34.65998
G01 X-39.06998 Y-9.07999
G01 X-39.09446 Y-8.82632
G01 X-39.16944 Y-8.57260
G01 X-39.29245 Y-8.33839
G01 X-39.46538 Y-8.12538
G01 X-41.05115 Y-6.54004
G01 X-41.21300 Y-6.40344
G01 X-41.39423 Y-6.29382
G01 X-41.57543 Y-6.21876
G01 X-41.78109 Y-6.16814
G01 X-41.99999 Y-6.14997
G01 X-48.26000 Y-6.14997
G01 X-48.53287 Y-6.17830
G01 X-48.78548 Y-6.25693
G01 X-49.00158 Y-6.37245
G01 X-49.21458 Y-6.54535
G01 X-51.95458 Y-9.28538
G01 X-52.12751 Y-9.49838
G01 X-52.24300 Y-9.71448
G01 X-52.32166 Y-9.96709
G01 X-52.34998 Y-10.23998
G01 X-52.34998 Y-17.68079
G01 X-57.87456 Y-23.20539
G01 X-58.04748 Y-23.41839
G01 X-58.17052 Y-23.65261
G01 X-58.24164 Y-23.88710
G01 X-58.26996 Y-24.16000
G01 X-58.26996 Y-66.60078
G01 X-58.70915 Y-67.03997
G01 X-60.07471 Y-67.03997
G01 X-60.26920 Y-66.92831
G01 X-60.57722 Y-66.82765
G01 X-60.92000 Y-66.78999
G01 X-61.93043 Y-66.79054
G01 X-62.25266 Y-66.82496
G01 X-62.58009 Y-66.93306
G01 X-62.86045 Y-67.09555
G01 X-63.10902 Y-67.31937
G01 X-63.30564 Y-67.58998
G01 X-63.44168 Y-67.89557
G01 X-63.51123 Y-68.22275
G01 X-63.51123 Y-68.55724
G01 X-63.44168 Y-68.88442
G01 X-63.30564 Y-69.18998
G01 X-63.10902 Y-69.46059
G01 X-62.85166 Y-69.69011
G01 X-62.56099 Y-69.85541
G01 X-62.25266 Y-69.95503
G01 X-61.93043 Y-69.98945
G01 X-60.92000 Y-69.98998
G01 X-60.59767 Y-69.95665
G01 X-60.26920 Y-69.85165
G01 X-60.07466 Y-69.73997
G01 X-58.15000 Y-69.73997
G01 X-57.87710 Y-69.71165
G01 X-57.64261 Y-69.64053
G01 X-57.40839 Y-69.51751
G01 X-57.19539 Y-69.34457
G01 X-55.96006 Y-68.10880
G01 X-55.83265 Y-67.95966
G01 X-55.72095 Y-67.77972
G01 X-55.63390 Y-67.56959
G01 X-55.58566 Y-67.36337
G01 X-55.56997 Y-67.15999
G01 X-55.56997 Y-24.71918
G01 X-50.04539 Y-19.19458
G01 X-49.88334 Y-18.99788
G01 X-49.75695 Y-18.76547
G01 X-49.67831 Y-18.51287
G01 X-49.64999 Y-18.23999
G01 X-49.64999 Y-10.79917
G01 X-47.70079 Y-8.84997
G01 X-42.55917 Y-8.84997
G01 X-41.76997 Y-9.63917
G01 X-41.76997 Y-34.10080
G01 X-41.97916 Y-34.30999
G01 X-43.32445 Y-34.30999
G01 X-43.51482 Y-34.09937
G01 X-43.86120 Y-33.84702
G01 X-44.27106 Y-33.66277
G01 X-44.71093 Y-33.57095
G01 X-45.13951 Y-33.57148
G01 X-45.55881 Y-33.66005
G01 X-45.96999 Y-33.84133
G01 X-46.33257 Y-34.10679
G01 X-46.61893 Y-34.42564
G01 X-46.83369 Y-34.79650
G01 X-46.97138 Y-35.21326
G01 X-47.01944 Y-35.67044
G01 X-46.97410 Y-36.09660
G01 X-46.84217 Y-36.50437
G01 X-46.61893 Y-36.89434
G01 X-46.33257 Y-37.21318
G01 X-46.26996 Y-37.26137
G01 X-46.26996 Y-48.97859
G01 X-46.33257 Y-49.02678
G01 X-46.61893 Y-49.34565
G01 X-46.83844 Y-49.72583
G01 X-46.97410 Y-50.14338
G01 X-47.02000 Y-50.57999
G01 X-46.97410 Y-51.01661
G01 X-46.84217 Y-51.42436
G01 X-46.61233 Y-51.82248
G01 X-46.32515 Y-52.14059
G01 X-45.97878 Y-52.39294
G01 X-45.56892 Y-52.57721
G01 X-45.12904 Y-52.66901
G01 X-44.70047 Y-52.66847
G01 X-44.28117 Y-52.57990
G01 X-43.86999 Y-52.39865
G01 X-43.50741 Y-52.13317
G01 X-43.22105 Y-51.81432
G01 X-43.00629 Y-51.44343
G01 X-42.86588 Y-51.01661
G01 X-42.82054 Y-50.56955
G01 X-42.86588 Y-50.14338
G01 X-42.99778 Y-49.73561
G01 X-43.22105 Y-49.34565
G01 X-43.50741 Y-49.02678
G01 X-43.56997 Y-48.97864
G01 X-43.56997 Y-37.26134
G01 X-43.50741 Y-37.21318
G01 X-43.32445 Y-37.00998
G01 X-41.97916 Y-37.00998
G01 X-36.03457 Y-42.95457
G01 X-35.82157 Y-43.12750
G01 X-35.60547 Y-43.24302
G01 X-35.35286 Y-43.32166
G01 X-35.07999 Y-43.34998
G01 X-23.71999 Y-43.34998
G01 X-23.71943 Y-43.38544
G01 X-23.70414 Y-43.52572
G01 X-23.65731 Y-43.66986
G01 X-23.58151 Y-43.80113
G01 X-23.48751 Y-43.90636
G01 X-23.35748 Y-44.00286
G01 X-23.22881 Y-44.06074
G01 X-23.08111 Y-44.09437
G01 X-22.99498 Y-44.09999
G01 X-20.24499 Y-44.09999
G01 X-20.15886 Y-44.09437
G01 X-20.02094 Y-44.06450
G01 X-19.88248 Y-44.00286
G01 X-19.75988 Y-43.91376
G01 X-19.66504 Y-43.80926
G01 X-19.57890 Y-43.66011
G01 X-19.53583 Y-43.52572
G01 X-19.51998 Y-43.37500
( Mill infeed pass 3/7 )
G01 Z-0.30000
G04 P0 ( dwell for no time -- G64 should not smooth over this point )
G01 F100.00000
G01 X-19.51998 Y-43.37500
G01 X-19.51998 Y-40.62499
G01 X-19.53420 Y-40.48458
G01 X-19.58266 Y-40.33009
G01 X-19.66504 Y-40.19070
G01 X-19.75988 Y-40.08620
G01 X-19.87370 Y-40.00282
G01 X-20.01119 Y-39.93921
G01 X-20.15886 Y-39.90558
G01 X-20.24499 Y-39.90000
G01 X-22.99498 Y-39.90000
G01 X-23.08111 Y-39.90558
G01 X-23.21903 Y-39.93548
G01 X-23.35748 Y-39.99713
G01 X-23.48012 Y-40.08620
G01 X-23.57493 Y-40.19070
G01 X-23.65731 Y-40.33009
G01 X-23.70143 Y-40.46413
G01 X-23.71943 Y-40.61452
G01 X-23.71999 Y-40.64998
G01 X-34.52078 Y-40.64998
G01 X-39.51079 Y-35.65997
G01 X-39.45877 Y-35.60727
G01 X-39.30332 Y-35.41786
G01 X-39.17693 Y-35.18545
G01 X-39.09830 Y-34.93285
G01 X-39.06998 Y-34.65998
G01 X-39.06998 Y-9.07999
G01 X-39.09446 Y-8.82632
G01 X-39.16944 Y-8.57260
G01 X-39.29245 Y-8.33839
G01 X-39.46538 Y-8.12538
G01 X-41.05115 Y-6.54004
G01 X-41.21300 Y-6.40344
G01 X-41.39423 Y-6.29382
G01 X-41.57543 Y-6.21876
G01 X-41.78109 Y-6.16814
G01 X-41.99999 Y-6.14997
G01 X-48.26000 Y-6.14997
G01 X-48.53287 Y-6.17830
G01 X-48.78548 Y-6.25693
G01 X-49.00158 Y-6.37245
G01 X-49.21458 Y-6.54535
G01 X-51.95458 Y-9.28538
G01 X-52.12751 Y-9.49838
G01 X-52.24300 Y-9.71448
G01 X-52.32166 Y-9.96709
G01 X-52.34998 Y-10.23998
G01 X-52.34998 Y-17.68079
G01 X-57.87456 Y-23.20539
G01 X-58.04748 Y-23.41839
G01 X-58.17052 Y-23.65261
G01 X-58.24164 Y-23.88710
G01 X-58.26996 Y-24.16000
G01 X-58.26996 Y-66.60078
G01 X-58.70915 Y-67.03997
G01 X-60.07471 Y-67.03997
G01 X-60.26920 Y-66.92831
G01 X-60.57722 Y-66.82765
G01 X-60.92000 Y-66.78999
G01 X-61.93043 Y-66.79054
G01 X-62.25266 Y-66.82496
G01 X-62.58009 Y-66.93306
G01 X-62.86045 Y-67.09555
G01 X-63.10902 Y-67.31937
G01 X-63.30564 Y-67.58998
G01 X-63.44168 Y-67.89557
G01 X-63.51123 Y-68.22275
G01 X-63.51123 Y-68.55724
G01 X-63.44168 Y-68.88442
G01 X-63.30564 Y-69.18998
G01 X-63.10902 Y-69.46059
G01 X-62.85166 Y-69.69011
G01 X-62.56099 Y-69.85541
G01 X-62.25266 Y-69.95503
G01 X-61.93043 Y-69.98945
G01 X-60.92000 Y-69.98998
G01 X-60.59767 Y-69.95665
G01 X-60.26920 Y-69.85165
G01 X-60.07466 Y-69.73997
G01 X-58.15000 Y-69.73997
G01 X-57.87710 Y-69.71165
G01 X-57.64261 Y-69.64053
G01 X-57.40839 Y-69.51751
G01 X-57.19539 Y-69.34457
G01 X-55.96006 Y-68.10880
G01 X-55.83265 Y-67.95966
G01 X-55.72095 Y-67.77972
G01 X-55.63390 Y-67.56959
G01 X-55.58566 Y-67.36337
G01 X-55.56997 Y-67.15999
G01 X-55.56997 Y-24.71918
G01 X-50.04539 Y-19.19458
G01 X-49.88334 Y-18.99788
G01 X-49.75695 Y-18.76547
G01 X-49.67831 Y-18.51287
G01 X-49.64999 Y-18.23999
G01 X-49.64999 Y-10.79917
G01 X-47.70079 Y-8.84997
G01 X-42.55917 Y-8.84997
G01 X-41.76997 Y-9.63917
G01 X-41.76997 Y-34.10080
G01 X-41.97916 Y-34.30999
G01 X-43.32445 Y-34.30999
G01 X-43.51482 Y-34.09937
G01 X-43.86120 Y-33.84702
G01 X-44.27106 Y-33.66277
G01 X-44.71093 Y-33.57095
G01 X-45.13951 Y-33.57148
G01 X-45.55881 Y-33.66005
G01 X-45.96999 Y-33.84133
G01 X-46.33257 Y-34.10679
G01 X-46.61893 Y-34.42564
G01 X-46.83369 Y-34.79650
G01 X-46.97138 Y-35.21326
G01 X-47.01944 Y-35.67044
G01 X-46.97410 Y-36.09660
G01 X-46.84217 Y-36.50437
G01 X-46.61893 Y-36.89434
G01 X-46.33257 Y-37.21318
G01 X-46.26996 Y-37.26137
G01 X-46.26996 Y-48.97859
G01 X-46.33257 Y-49.02678
G01 X-46.61893 Y-49.34565
G01 X-46.83844 Y-49.72583
G01 X-46.97410 Y-50.14338
G01 X-47.02000 Y-50.57999
G01 X-46.97410 Y-51.01661
G01 X-46.84217 Y-51.42436
G01 X-46.61233 Y-51.82248
G01 X-46.32515 Y-52.14059
G01 X-45.97878 Y-52.39294
G01 X-45.56892 Y-52.57721
G01 X-45.12904 Y-52.66901
G01 X-44.70047 Y-52.66847
G01 X-44.28117 Y-52.57990
G01 X-43.86999 Y-52.39865
G01 X-43.50741 Y-52.13317
G01 X-43.22105 Y-51.81432
G01 X-43.00629 Y-51.44343
G01 X-42.86588 Y-51.01661
G01 X-42.82054 Y-50.56955
G01 X-42.86588 Y-50.14338
G01 X-42.99778 Y-49.73561
G01 X-43.22105 Y-49.34565
G01 X-43.50741 Y-49.02678
G01 X-43.56997 Y-48.97864
G01 X-43.56997 Y-37.26134
G01 X-43.50741 Y-37.21318
G01 X-43.32445 Y-37.00998
G01 X-41.97916 Y-37.00998
G01 X-36.03457 Y-42.95457
G01 X-35.82157 Y-43.12750
G01 X-35.60547 Y-43.24302
G01 X-35.35286 Y-43.32166
G01 X-35.07999 Y-43.34998
G01 X-23.71999 Y-43.34998
G01 X-23.71943 Y-43.38544
G01 X-23.70414 Y-43.52572
G01 X-23.65731 Y-43.66986
G01 X-23.58151 Y-43.80113
G01 X-23.48751 Y-43.90636
G01 X-23.35748 Y-44.00286
G01 X-23.22881 Y-44.06074
G01 X-23.08111 Y-44.09437
G01 X-22.99498 Y-44.09999
G01 X-20.24499 Y-44.09999
G01 X-20.15886 Y-44.09437
G01 X-20.02094 Y-44.06450
G01 X-19.88248 Y-44.00286
G01 X-19.75988 Y-43.91376
G01 X-19.66504 Y-43.80926
G01 X-19.57890 Y-43.66011
G01 X-19.53583 Y-43.52572
G01 X-19.51998 Y-43.37500
( Mill infeed pass 4/7 )
G01 Z-0.40000
G04 P0 ( dwell for no time -- G64 should not smooth over this point )
G01 F100.00000
G01 X-19.51998 Y-43.37500
G01 X-19.51998 Y-40.62499
G01 X-19.53420 Y-40.48458
G01 X-19.58266 Y-40.33009
G01 X-19.66504 Y-40.19070
G01 X-19.75988 Y-40.08620
G01 X-19.87370 Y-40.00282
G01 X-20.01119 Y-39.93921
G01 X-20.15886 Y-39.90558
G01 X-20.24499 Y-39.90000
G01 X-22.99498 Y-39.90000
G01 X-23.08111 Y-39.90558
G01 X-23.21903 Y-39.93548
G01 X-23.35748 Y-39.99713
G01 X-23.48012 Y-40.08620
G01 X-23.57493 Y-40.19070
G01 X-23.65731 Y-40.33009
G01 X-23.70143 Y-40.46413
G01 X-23.71943 Y-40.61452
G01 X-23.71999 Y-40.64998
G01 X-34.52078 Y-40.64998
G01 X-39.51079 Y-35.65997
G01 X-39.45877 Y-35.60727
G01 X-39.30332 Y-35.41786
G01 X-39.17693 Y-35.18545
G01 X-39.09830 Y-34.93285
G01 X-39.06998 Y-34.65998
G01 X-39.06998 Y-9.07999
G01 X-39.09446 Y-8.82632
G01 X-39.16944 Y-8.57260
G01 X-39.29245 Y-8.33839
G01 X-39.46538 Y-8.12538
G01 X-41.05115 Y-6.54004
G01 X-41.21300 Y-6.40344
G01 X-41.39423 Y-6.29382
G01 X-41.57543 Y-6.21876
G01 X-41.78109 Y-6.16814
G01 X-41.99999 Y-6.14997
G01 X-48.26000 Y-6.14997
G01 X-48.53287 Y-6.17830
G01 X-48.78548 Y-6.25693
G01 X-49.00158 Y-6.37245
G01 X-49.21458 Y-6.54535
G01 X-51.95458 Y-9.28538
G01 X-52.12751 Y-9.49838
G01 X-52.24300 Y-9.71448
G01 X-52.32166 Y-9.96709
G01 X-52.34998 Y-10.23998
G01 X-52.34998 Y-17.68079
G01 X-57.87456 Y-23.20539
G01 X-58.04748 Y-23.41839
G01 X-58.17052 Y-23.65261
G01 X-58.24164 Y-23.88710
G01 X-58.26996 Y-24.16000
G01 X-58.26996 Y-66.60078
G01 X-58.70915 Y-67.03997
G01 X-60.07471 Y-67.03997
G01 X-60.26920 Y-66.92831
G01 X-60.57722 Y-66.82765
G01 X-60.92000 Y-66.78999
G01 X-61.93043 Y-66.79054
G01 X-62.25266 Y-66.82496
G01 X-62.58009 Y-66.93306
G01 X-62.86045 Y-67.09555
G01 X-63.10902 Y-67.31937
G01 X-63.30564 Y-67.58998
G01 X-63.44168 Y-67.89557
G01 X-63.51123 Y-68.22275
G01 X-63.51123 Y-68.55724
G01 X-63.44168 Y-68.88442
G01 X-63.30564 Y-69.18998
G01 X-63.10902 Y-69.46059
G01 X-62.85166 Y-69.69011
G01 X-62.56099 Y-69.85541
G01 X-62.25266 Y-69.95503
G01 X-61.93043 Y-69.98945
G01 X-60.92000 Y-69.98998
G01 X-60.59767 Y-69.95665
G01 X-60.26920 Y-69.85165
G01 X-60.07466 Y-69.73997
G01 X-58.15000 Y-69.73997
G01 X-57.87710 Y-69.71165
G01 X-57.64261 Y-69.64053
G01 X-57.40839 Y-69.51751
G01 X-57.19539 Y-69.34457
G01 X-55.96006 Y-68.10880
G01 X-55.83265 Y-67.95966
G01 X-55.72095 Y-67.77972
G01 X-55.63390 Y-67.56959
G01 X-55.58566 Y-67.36337
G01 X-55.56997 Y-67.15999
G01 X-55.56997 Y-24.71918
G01 X-50.04539 Y-19.19458
G01 X-49.88334 Y-18.99788
G01 X-49.75695 Y-18.76547
G01 X-49.67831 Y-18.51287
G01 X-49.64999 Y-18.23999
G01 X-49.64999 Y-10.79917
G01 X-47.70079 Y-8.84997
G01 X-42.55917 Y-8.84997
G01 X-41.76997 Y-9.63917
G01 X-41.76997 Y-34.10080
G01 X-41.97916 Y-34.30999
G01 X-43.32445 Y-34.30999
G01 X-43.51482 Y-34.09937
G01 X-43.86120 Y-33.84702
G01 X-44.27106 Y-33.66277
G01 X-44.71093 Y-33.57095
G01 X-45.13951 Y-33.57148
G01 X-45.55881 Y-33.66005
G01 X-45.96999 Y-33.84133
G01 X-46.33257 Y-34.10679
G01 X-46.61893 Y-34.42564
G01 X-46.83369 Y-34.79650
G01 X-46.97138 Y-35.21326
G01 X-47.01944 Y-35.67044
G01 X-46.97410 Y-36.09660
G01 X-46.84217 Y-36.50437
G01 X-46.61893 Y-36.89434
G01 X-46.33257 Y-37.21318
G01 X-46.26996 Y-37.26137
G01 X-46.26996 Y-48.97859
G01 X-46.33257 Y-49.02678
G01 X-46.61893 Y-49.34565
G01 X-46.83844 Y-49.72583
G01 X-46.97410 Y-50.14338
G01 X-47.02000 Y-50.57999
G01 X-46.97410 Y-51.01661
G01 X-46.84217 Y-51.42436
G01 X-46.61233 Y-51.82248
G01 X-46.32515 Y-52.14059
G01 X-45.97878 Y-52.39294
G01 X-45.56892 Y-52.57721
G01 X-45.12904 Y-52.66901
G01 X-44.70047 Y-52.66847
G01 X-44.28117 Y-52.57990
G01 X-43.86999 Y-52.39865
G01 X-43.50741 Y-52.13317
G01 X-43.22105 Y-51.81432
G01 X-43.00629 Y-51.44343
G01 X-42.86588 Y-51.01661
G01 X-42.82054 Y-50.56955
G01 X-42.86588 Y-50.14338
G01 X-42.99778 Y-49.73561
G01 X-43.22105 Y-49.34565
G01 X-43.50741 Y-49.02678
G01 X-43.56997 Y-48.97864
G01 X-43.56997 Y-37.26134
G01 X-43.50741 Y-37.21318
G01 X-43.32445 Y-37.00998
G01 X-41.97916 Y-37.00998
G01 X-36.03457 Y-42.95457
G01 X-35.82157 Y-43.12750
G01 X-35.60547 Y-43.24302
G01 X-35.35286 Y-43.32166
G01 X-35.07999 Y-43.34998
G01 X-23.71999 Y-43.34998
G01 X-23.71943 Y-43.38544
G01 X-23.70414 Y-43.52572
G01 X-23.65731 Y-43.66986
G01 X-23.58151 Y-43.80113
G01 X-23.48751 Y-43.90636
G01 X-23.35748 Y-44.00286
G01 X-23.22881 Y-44.06074
G01 X-23.08111 Y-44.09437
G01 X-22.99498 Y-44.09999
G01 X-20.24499 Y-44.09999
G01 X-20.15886 Y-44.09437
G01 X-20.02094 Y-44.06450
G01 X-19.88248 Y-44.00286
G01 X-19.75988 Y-43.91376
G01 X-19.66504 Y-43.80926
G01 X-19.57890 Y-43.66011
G01 X-19.53583 Y-43.52572
G01 X-19.51998 Y-43.37500
( Mill infeed pass 5/7 )
G01 Z-0.50000
G04 P0 ( dwell for no time -- G64 should not smooth over this point )
G01 F100.00000
G01 X-19.51998 Y-43.37500
G01 X-19.51998 Y-40.62499
G01 X-19.53420 Y-40.48458
G01 X-19.58266 Y-40.33009
G01 X-19.66504 Y-40.19070
G01 X-19.75988 Y-40.08620
G01 X-19.87370 Y-40.00282
G01 X-20.01119 Y-39.93921
G01 X-20.15886 Y-39.90558
G01 X-20.24499 Y-39.90000
G01 X-22.99498 Y-39.90000
G01 X-23.08111 Y-39.90558
G01 X-23.21903 Y-39.93548
G01 X-23.35748 Y-39.99713
G01 X-23.48012 Y-40.08620
G01 X-23.57493 Y-40.19070
G01 X-23.65731 Y-40.33009
G01 X-23.70143 Y-40.46413
G01 X-23.71943 Y-40.61452
G01 X-23.71999 Y-40.64998
G01 X-34.52078 Y-40.64998
G01 X-39.51079 Y-35.65997
G01 X-39.45877 Y-35.60727
G01 X-39.30332 Y-35.41786
G01 X-39.17693 Y-35.18545
G01 X-39.09830 Y-34.93285
G01 X-39.06998 Y-34.65998
G01 X-39.06998 Y-9.07999
G01 X-39.09446 Y-8.82632
G01 X-39.16944 Y-8.57260
G01 X-39.29245 Y-8.33839
G01 X-39.46538 Y-8.12538
G01 X-41.05115 Y-6.54004
G01 X-41.21300 Y-6.40344
G01 X-41.39423 Y-6.29382
G01 X-41.57543 Y-6.21876
G01 X-41.78109 Y-6.16814
G01 X-41.99999 Y-6.14997
G01 X-48.26000 Y-6.14997
G01 X-48.53287 Y-6.17830
G01 X-48.78548 Y-6.25693
G01 X-49.00158 Y-6.37245
G01 X-49.21458 Y-6.54535
G01 X-51.95458 Y-9.28538
G01 X-52.12751 Y-9.49838
G01 X-52.24300 Y-9.71448
G01 X-52.32166 Y-9.96709
G01 X-52.34998 Y-10.23998
G01 X-52.34998 Y-17.68079
G01 X-57.87456 Y-23.20539
G01 X-58.04748 Y-23.41839
G01 X-58.17052 Y-23.65261
G01 X-58.24164 Y-23.88710
G01 X-58.26996 Y-24.16000
G01 X-58.26996 Y-66.60078
G01 X-58.70915 Y-67.03997
G01 X-60.07471 Y-67.03997
G01 X-60.26920 Y-66.92831
G01 X-60.57722 Y-66.82765
G01 X-60.92000 Y-66.78999
G01 X-61.93043 Y-66.79054
G01 X-62.25266 Y-66.82496
G01 X-62.58009 Y-66.93306
G01 X-62.86045 Y-67.09555
G01 X-63.10902 Y-67.31937
G01 X-63.30564 Y-67.58998
G01 X-63.44168 Y-67.89557
G01 X-63.51123 Y-68.22275
G01 X-63.51123 Y-68.55724
G01 X-63.44168 Y-68.88442
G01 X-63.30564 Y-69.18998
G01 X-63.10902 Y-69.46059
G01 X-62.85166 Y-69.69011
G01 X-62.56099 Y-69.85541
G01 X-62.25266 Y-69.95503
G01 X-61.93043 Y-69.98945
G01 X-60.92000 Y-69.98998
G01 X-60.59767 Y-69.95665
G01 X-60.26920 Y-69.85165
G01 X-60.07466 Y-69.73997
G01 X-58.15000 Y-69.73997
G01 X-57.87710 Y-69.71165
G01 X-57.64261 Y-69.64053
G01 X-57.40839 Y-69.51751
G01 X-57.19539 Y-69.34457
G01 X-55.96006 Y-68.10880
G01 X-55.83265 Y-67.95966
G01 X-55.72095 Y-67.77972
G01 X-55.63390 Y-67.56959
G01 X-55.58566 Y-67.36337
G01 X-55.56997 Y-67.15999
G01 X-55.56997 Y-24.71918
G01 X-50.04539 Y-19.19458
G01 X-49.88334 Y-18.99788
G01 X-49.75695 Y-18.76547
G01 X-49.67831 Y-18.51287
G01 X-49.64999 Y-18.23999
G01 X-49.64999 Y-10.79917
G01 X-47.70079 Y-8.84997
G01 X-42.55917 Y-8.84997
G01 X-41.76997 Y-9.63917
G01 X-41.76997 Y-34.10080
G01 X-41.97916 Y-34.30999
G01 X-43.32445 Y-34.30999
G01 X-43.51482 Y-34.09937
G01 X-43.86120 Y-33.84702
G01 X-44.27106 Y-33.66277
G01 X-44.71093 Y-33.57095
G01 X-45.13951 Y-33.57148
G01 X-45.55881 Y-33.66005
G01 X-45.96999 Y-33.84133
G01 X-46.33257 Y-34.10679
G01 X-46.61893 Y-34.42564
G01 X-46.83369 Y-34.79650
G01 X-46.97138 Y-35.21326
G01 X-47.01944 Y-35.67044
G01 X-46.97410 Y-36.09660
G01 X-46.84217 Y-36.50437
G01 X-46.61893 Y-36.89434
G01 X-46.33257 Y-37.21318
G01 X-46.26996 Y-37.26137
G01 X-46.26996 Y-48.97859
G01 X-46.33257 Y-49.02678
G01 X-46.61893 Y-49.34565
G01 X-46.83844 Y-49.72583
G01 X-46.97410 Y-50.14338
G01 X-47.02000 Y-50.57999
G01 X-46.97410 Y-51.01661
G01 X-46.84217 Y-51.42436
G01 X-46.61233 Y-51.82248
G01 X-46.32515 Y-52.14059
G01 X-45.97878 Y-52.39294
G01 X-45.56892 Y-52.57721
G01 X-45.12904 Y-52.66901
G01 X-44.70047 Y-52.66847
G01 X-44.28117 Y-52.57990
G01 X-43.86999 Y-52.39865
G01 X-43.50741 Y-52.13317
G01 X-43.22105 Y-51.81432
G01 X-43.00629 Y-51.44343
G01 X-42.86588 Y-51.01661
G01 X-42.82054 Y-50.56955
G01 X-42.86588 Y-50.14338
G01 X-42.99778 Y-49.73561
G01 X-43.22105 Y-49.34565
G01 X-43.50741 Y-49.02678
G01 X-43.56997 Y-48.97864
G01 X-43.56997 Y-37.26134
G01 X-43.50741 Y-37.21318
G01 X-43.32445 Y-37.00998
G01 X-41.97916 Y-37.00998
G01 X-36.03457 Y-42.95457
G01 X-35.82157 Y-43.12750
G01 X-35.60547 Y-43.24302
G01 X-35.35286 Y-43.32166
G01 X-35.07999 Y-43.34998
G01 X-23.71999 Y-43.34998
G01 X-23.71943 Y-43.38544
G01 X-23.70414 Y-43.52572
G01 X-23.65731 Y-43.66986
G01 X-23.58151 Y-43.80113
G01 X-23.48751 Y-43.90636
G01 X-23.35748 Y-44.00286
G01 X-23.22881 Y-44.06074
G01 X-23.08111 Y-44.09437
G01 X-22.99498 Y-44.09999
G01 X-20.24499 Y-44.09999
G01 X-20.15886 Y-44.09437
G01 X-20.02094 Y-44.06450
G01 X-19.88248 Y-44.00286
G01 X-19.75988 Y-43.91376
G01 X-19.66504 Y-43.80926
G01 X-19.57890 Y-43.66011
G01 X-19.53583 Y-43.52572
G01 X-19.51998 Y-43.37500
( Mill infeed pass 6/7 )
G01 Z-0.60000
G04 P0 ( dwell for no time -- G64 should not smooth over this point )
G01 F100.00000
G01 X-19.51998 Y-43.37500
G01 X-19.51998 Y-40.62499
G01 X-19.53420 Y-40.48458
G01 X-19.58266 Y-40.33009
G01 X-19.66504 Y-40.19070
G01 X-19.75988 Y-40.08620
G01 X-19.87370 Y-40.00282
G01 X-20.01119 Y-39.93921
G01 X-20.15886 Y-39.90558
G01 X-20.24499 Y-39.90000
G01 X-22.99498 Y-39.90000
G01 X-23.08111 Y-39.90558
G01 X-23.21903 Y-39.93548
G01 X-23.35748 Y-39.99713
G01 X-23.48012 Y-40.08620
G01 X-23.57493 Y-40.19070
G01 X-23.65731 Y-40.33009
G01 X-23.70143 Y-40.46413
G01 X-23.71943 Y-40.61452
G01 X-23.71999 Y-40.64998
G01 X-34.52078 Y-40.64998
G01 X-39.51079 Y-35.65997
G01 X-39.45877 Y-35.60727
G01 X-39.30332 Y-35.41786
G01 X-39.17693 Y-35.18545
G01 X-39.09830 Y-34.93285
G01 X-39.06998 Y-34.65998
G01 X-39.06998 Y-9.07999
G01 X-39.09446 Y-8.82632
G01 X-39.16944 Y-8.57260
G01 X-39.29245 Y-8.33839
G01 X-39.46538 Y-8.12538
G01 X-41.05115 Y-6.54004
G01 X-41.21300 Y-6.40344
G01 X-41.39423 Y-6.29382
G01 X-41.57543 Y-6.21876
G01 X-41.78109 Y-6.16814
G01 X-41.99999 Y-6.14997
G01 X-48.26000 Y-6.14997
G01 X-48.53287 Y-6.17830
G01 X-48.78548 Y-6.25693
G01 X-49.00158 Y-6.37245
G01 X-49.21458 Y-6.54535
G01 X-51.95458 Y-9.28538
G01 X-52.12751 Y-9.49838
G01 X-52.24300 Y-9.71448
G01 X-52.32166 Y-9.96709
G01 X-52.34998 Y-10.23998
G01 X-52.34998 Y-17.68079
G01 X-57.87456 Y-23.20539
G01 X-58.04748 Y-23.41839
G01 X-58.17052 Y-23.65261
G01 X-58.24164 Y-23.88710
G01 X-58.26996 Y-24.16000
G01 X-58.26996 Y-66.60078
G01 X-58.70915 Y-67.03997
G01 X-60.07471 Y-67.03997
G01 X-60.26920 Y-66.92831
G01 X-60.57722 Y-66.82765
G01 X-60.92000 Y-66.78999
G01 X-61.93043 Y-66.79054
G01 X-62.25266 Y-66.82496
G01 X-62.58009 Y-66.93306
G01 X-62.86045 Y-67.09555
G01 X-63.10902 Y-67.31937
G01 X-63.30564 Y-67.58998
G01 X-63.44168 Y-67.89557
G01 X-63.51123 Y-68.22275
G01 X-63.51123 Y-68.55724
G01 X-63.44168 Y-68.88442
G01 X-63.30564 Y-69.18998
G01 X-63.10902 Y-69.46059
G01 X-62.85166 Y-69.69011
G01 X-62.56099 Y-69.85541
G01 X-62.25266 Y-69.95503
G01 X-61.93043 Y-69.98945
G01 X-60.92000 Y-69.98998
G01 X-60.59767 Y-69.95665
G01 X-60.26920 Y-69.85165
G01 X-60.07466 Y-69.73997
G01 X-58.15000 Y-69.73997
G01 X-57.87710 Y-69.71165
G01 X-57.64261 Y-69.64053
G01 X-57.40839 Y-69.51751
G01 X-57.19539 Y-69.34457
G01 X-55.96006 Y-68.10880
G01 X-55.83265 Y-67.95966
G01 X-55.72095 Y-67.77972
G01 X-55.63390 Y-67.56959
G01 X-55.58566 Y-67.36337
G01 X-55.56997 Y-67.15999
G01 X-55.56997 Y-24.71918
G01 X-50.04539 Y-19.19458
G01 X-49.88334 Y-18.99788
G01 X-49.75695 Y-18.76547
G01 X-49.67831 Y-18.51287
G01 X-49.64999 Y-18.23999
G01 X-49.64999 Y-10.79917
G01 X-47.70079 Y-8.84997
G01 X-42.55917 Y-8.84997
G01 X-41.76997 Y-9.63917
G01 X-41.76997 Y-34.10080
G01 X-41.97916 Y-34.30999
G01 X-43.32445 Y-34.30999
G01 X-43.51482 Y-34.09937
G01 X-43.86120 Y-33.84702
G01 X-44.27106 Y-33.66277
G01 X-44.71093 Y-33.57095
G01 X-45.13951 Y-33.57148
G01 X-45.55881 Y-33.66005
G01 X-45.96999 Y-33.84133
G01 X-46.33257 Y-34.10679
G01 X-46.61893 Y-34.42564
G01 X-46.83369 Y-34.79650
G01 X-46.97138 Y-35.21326
G01 X-47.01944 Y-35.67044
G01 X-46.97410 Y-36.09660
G01 X-46.84217 Y-36.50437
G01 X-46.61893 Y-36.89434
G01 X-46.33257 Y-37.21318
G01 X-46.26996 Y-37.26137
G01 X-46.26996 Y-48.97859
G01 X-46.33257 Y-49.02678
G01 X-46.61893 Y-49.34565
G01 X-46.83844 Y-49.72583
G01 X-46.97410 Y-50.14338
G01 X-47.02000 Y-50.57999
G01 X-46.97410 Y-51.01661
G01 X-46.84217 Y-51.42436
G01 X-46.61233 Y-51.82248
G01 X-46.32515 Y-52.14059
G01 X-45.97878 Y-52.39294
G01 X-45.56892 Y-52.57721
G01 X-45.12904 Y-52.66901
G01 X-44.70047 Y-52.66847
G01 X-44.28117 Y-52.57990
G01 X-43.86999 Y-52.39865
G01 X-43.50741 Y-52.13317
G01 X-43.22105 Y-51.81432
G01 X-43.00629 Y-51.44343
G01 X-42.86588 Y-51.01661
G01 X-42.82054 Y-50.56955
G01 X-42.86588 Y-50.14338
G01 X-42.99778 Y-49.73561
G01 X-43.22105 Y-49.34565
G01 X-43.50741 Y-49.02678
G01 X-43.56997 Y-48.97864
G01 X-43.56997 Y-37.26134
G01 X-43.50741 Y-37.21318
G01 X-43.32445 Y-37.00998
G01 X-41.97916 Y-37.00998
G01 X-36.03457 Y-42.95457
G01 X-35.82157 Y-43.12750
G01 X-35.60547 Y-43.24302
G01 X-35.35286 Y-43.32166
G01 X-35.07999 Y-43.34998
G01 X-23.71999 Y-43.34998
G01 X-23.71943 Y-43.38544
G01 X-23.70414 Y-43.52572
G01 X-23.65731 Y-43.66986
G01 X-23.58151 Y-43.80113
G01 X-23.48751 Y-43.90636
G01 X-23.35748 Y-44.00286
G01 X-23.22881 Y-44.06074
G01 X-23.08111 Y-44.09437
G01 X-22.99498 Y-44.09999
G01 X-20.24499 Y-44.09999
G01 X-20.15886 Y-44.09437
G01 X-20.02094 Y-44.06450
G01 X-19.88248 Y-44.00286
G01 X-19.75988 Y-43.91376
G01 X-19.66504 Y-43.80926
G01 X-19.57890 Y-43.66011
G01 X-19.53583 Y-43.52572
G01 X-19.51998 Y-43.37500
( Mill infeed pass 7/7 )
G01 Z-0.70000
G04 P0 ( dwell for no time -- G64 should not smooth over this point )
G01 F100.00000
G01 X-19.51998 Y-43.37500
G01 X-19.51998 Y-40.62499
G01 X-19.53420 Y-40.48458
G01 X-19.58266 Y-40.33009
G01 X-19.66504 Y-40.19070
G01 X-19.75988 Y-40.08620
G01 X-19.87370 Y-40.00282
G01 X-20.01119 Y-39.93921
G01 X-20.15886 Y-39.90558
G01 X-20.24499 Y-39.90000
G01 X-22.99498 Y-39.90000
G01 X-23.08111 Y-39.90558
G01 X-23.21903 Y-39.93548
G01 X-23.35748 Y-39.99713
G01 X-23.48012 Y-40.08620
G01 X-23.57493 Y-40.19070
G01 X-23.65731 Y-40.33009
G01 X-23.70143 Y-40.46413
G01 X-23.71943 Y-40.61452
G01 X-23.71999 Y-40.64998
G01 X-34.52078 Y-40.64998
G01 X-39.51079 Y-35.65997
G01 X-39.45877 Y-35.60727
G01 X-39.30332 Y-35.41786
G01 X-39.17693 Y-35.18545
G01 X-39.09830 Y-34.93285
G01 X-39.06998 Y-34.65998
G01 X-39.06998 Y-9.07999
G01 X-39.09446 Y-8.82632
G01 X-39.16944 Y-8.57260
G01 X-39.29245 Y-8.33839
G01 X-39.46538 Y-8.12538
G01 X-41.05115 Y-6.54004
G01 X-41.21300 Y-6.40344
G01 X-41.39423 Y-6.29382
G01 X-41.57543 Y-6.21876
G01 X-41.78109 Y-6.16814
G01 X-41.99999 Y-6.14997
G01 X-48.26000 Y-6.14997
G01 X-48.53287 Y-6.17830
G01 X-48.78548 Y-6.25693
G01 X-49.00158 Y-6.37245
G01 X-49.21458 Y-6.54535
G01 X-51.95458 Y-9.28538
G01 X-52.12751 Y-9.49838
G01 X-52.24300 Y-9.71448
G01 X-52.32166 Y-9.96709
G01 X-52.34998 Y-10.23998
G01 X-52.34998 Y-17.68079
G01 X-57.87456 Y-23.20539
G01 X-58.04748 Y-23.41839
G01 X-58.17052 Y-23.65261
G01 X-58.24164 Y-23.88710
G01 X-58.26996 Y-24.16000
G01 X-58.26996 Y-66.60078
G01 X-58.70915 Y-67.03997
G01 X-60.07471 Y-67.03997
G01 X-60.26920 Y-66.92831
G01 X-60.57722 Y-66.82765
G01 X-60.92000 Y-66.78999
G01 X-61.93043 Y-66.79054
G01 X-62.25266 Y-66.82496
G01 X-62.58009 Y-66.93306
G01 X-62.86045 Y-67.09555
G01 X-63.10902 Y-67.31937
G01 X-63.30564 Y-67.58998
G01 X-63.44168 Y-67.89557
G01 X-63.51123 Y-68.22275
G01 X-63.51123 Y-68.55724
G01 X-63.44168 Y-68.88442
G01 X-63.30564 Y-69.18998
G01 X-63.10902 Y-69.46059
G01 X-62.85166 Y-69.69011
G01 X-62.56099 Y-69.85541
G01 X-62.25266 Y-69.95503
G01 X-61.93043 Y-69.98945
G01 X-60.92000 Y-69.98998
G01 X-60.59767 Y-69.95665
G01 X-60.26920 Y-69.85165
G01 X-60.07466 Y-69.73997
G01 X-58.15000 Y-69.73997
G01 X-57.87710 Y-69.71165
G01 X-57.64261 Y-69.64053
G01 X-57.40839 Y-69.51751
G01 X-57.19539 Y-69.34457
G01 X-55.96006 Y-68.10880
G01 X-55.83265 Y-67.95966
G01 X-55.72095 Y-67.77972
G01 X-55.63390 Y-67.56959
G01 X-55.58566 Y-67.36337
G01 X-55.56997 Y-67.15999
G01 X-55.56997 Y-24.71918
G01 X-50.04539 Y-19.19458
G01 X-49.88334 Y-18.99788
G01 X-49.75695 Y-18.76547
G01 X-49.67831 Y-18.51287
G01 X-49.64999 Y-18.23999
G01 X-49.64999 Y-10.79917
G01 X-47.70079 Y-8.84997
G01 X-42.55917 Y-8.84997
G01 X-41.76997 Y-9.63917
G01 X-41.76997 Y-34.10080
G01 X-41.97916 Y-34.30999
G01 X-43.32445 Y-34.30999
G01 X-43.51482 Y-34.09937
G01 X-43.86120 Y-33.84702
G01 X-44.27106 Y-33.66277
G01 X-44.71093 Y-33.57095
G01 X-45.13951 Y-33.57148
G01 X-45.55881 Y-33.66005
G01 X-45.96999 Y-33.84133
G01 X-46.33257 Y-34.10679
G01 X-46.61893 Y-34.42564
G01 X-46.83369 Y-34.79650
G01 X-46.97138 Y-35.21326
G01 X-47.01944 Y-35.67044
G01 X-46.97410 Y-36.09660
G01 X-46.84217 Y-36.50437
G01 X-46.61893 Y-36.89434
G01 X-46.33257 Y-37.21318
G01 X-46.26996 Y-37.26137
G01 X-46.26996 Y-48.97859
G01 X-46.33257 Y-49.02678
G01 X-46.61893 Y-49.34565
G01 X-46.83844 Y-49.72583
G01 X-46.97410 Y-50.14338
G01 X-47.02000 Y-50.57999
G01 X-46.97410 Y-51.01661
G01 X-46.84217 Y-51.42436
G01 X-46.61233 Y-51.82248
G01 X-46.32515 Y-52.14059
G01 X-45.97878 Y-52.39294
G01 X-45.56892 Y-52.57721
G01 X-45.12904 Y-52.66901
G01 X-44.70047 Y-52.66847
G01 X-44.28117 Y-52.57990
G01 X-43.86999 Y-52.39865
G01 X-43.50741 Y-52.13317
G01 X-43.22105 Y-51.81432
G01 X-43.00629 Y-51.44343
G01 X-42.86588 Y-51.01661
G01 X-42.82054 Y-50.56955
G01 X-42.86588 Y-50.14338
G01 X-42.99778 Y-49.73561
G01 X-43.22105 Y-49.34565
G01 X-43.50741 Y-49.02678
G01 X-43.56997 Y-48.97864
G01 X-43.56997 Y-37.26134
G01 X-43.50741 Y-37.21318
G01 X-43.32445 Y-37.00998
G01 X-41.97916 Y-37.00998
G01 X-36.03457 Y-42.95457
G01 X-35.82157 Y-43.12750
G01 X-35.60547 Y-43.24302
G01 X-35.35286 Y-43.32166
G01 X-35.07999 Y-43.34998
G01 X-23.71999 Y-43.34998
G01 X-23.71943 Y-43.38544
G01 X-23.70414 Y-43.52572
G01 X-23.65731 Y-43.66986
G01 X-23.58151 Y-43.80113
G01 X-23.48751 Y-43.90636
G01 X-23.35748 Y-44.00286
G01 X-23.22881 Y-44.06074
G01 X-23.08111 Y-44.09437
G01 X-22.99498 Y-44.09999
G01 X-20.24499 Y-44.09999
G01 X-20.15886 Y-44.09437
G01 X-20.02094 Y-44.06450
G01 X-19.88248 Y-44.00286
G01 X-19.75988 Y-43.91376
G01 X-19.66504 Y-43.80926
G01 X-19.57890 Y-43.66011
G01 X-19.53583 Y-43.52572
G01 X-19.51998 Y-43.37500
G04 P0 ( dwell for no time -- G64 should not smooth over this point )
G00 Z2.00000 ( retract )

G00 X-5.06997 Y-59.15998 ( rapid move to begin. )
G01 F50.00000
( Mill infeed pass 1/7 )
G01 Z-0.10000
G04 P0 ( dwell for no time -- G64 should not smooth over this point )
G01 F100.00000
G01 X-5.06997 Y-59.15998
G01 X-5.08813 Y-59.37885
G01 X-5.13875 Y-59.58451
G01 X-5.22094 Y-59.77971
G01 X-5.32343 Y-59.94695
G01 X-5.46006 Y-60.10880
G01 X-6.97268 Y-61.62116
G01 X-7.17840 Y-61.78751
G01 X-7.39450 Y-61.90300
G01 X-7.66633 Y-61.98547
G01 X-7.92000 Y-62.00996
G01 X-12.41999 Y-62.00996
G01 X-12.67363 Y-61.98547
G01 X-12.92736 Y-61.91049
G01 X-13.16998 Y-61.78245
G01 X-13.37457 Y-61.61456
G01 X-13.74203 Y-61.24710
G01 X-14.13924 Y-61.24852
G01 X-14.55882 Y-61.15992
G01 X-14.97000 Y-60.97864
G01 X-15.32517 Y-60.72058
G01 X-15.51554 Y-60.50996
G01 X-21.60077 Y-60.50996
G01 X-24.22538 Y-63.13457
G01 X-24.42995 Y-63.30246
G01 X-24.67259 Y-63.43051
G01 X-24.92632 Y-63.50549
G01 X-25.17999 Y-63.52997
G01 X-29.32443 Y-63.52997
G01 X-29.50741 Y-63.73320
G01 X-29.56997 Y-63.78133
G01 X-29.56997 Y-64.15999
G01 X-29.58567 Y-64.36337
G01 X-29.63390 Y-64.56959
G01 X-29.72095 Y-64.77973
G01 X-29.83266 Y-64.95966
G01 X-29.96004 Y-65.10881
G01 X-37.06998 Y-72.21916
G01 X-37.06998 Y-74.91999
G01 X-37.09446 Y-75.17364
G01 X-37.17694 Y-75.44547
G01 X-37.29749 Y-75.67000
G01 X-37.46538 Y-75.87458
G01 X-51.21265 Y-89.62116
G01 X-51.40996 Y-89.78247
G01 X-51.63449 Y-89.90302
G01 X-51.90632 Y-89.98549
G01 X-52.15999 Y-90.00998
G01 X-53.33055 Y-90.00998
G01 X-53.36583 Y-90.35636
G01 X-53.50154 Y-90.77414
G01 X-53.72105 Y-91.15433
G01 X-54.01480 Y-91.48059
G01 X-54.37000 Y-91.73865
G01 X-54.77106 Y-91.91722
G01 X-55.20073 Y-92.00850
G01 X-55.59791 Y-92.00711
G01 X-61.20539 Y-97.61456
G01 X-61.41839 Y-97.78749
G01 X-61.65261 Y-97.91052
G01 X-61.88710 Y-97.98164
G01 X-62.16000 Y-98.00996
G01 X-82.60077 Y-98.00996
G01 X-84.93689 Y-100.34608
G01 X-85.14146 Y-100.51397
G01 X-85.36600 Y-100.63452
G01 X-85.61860 Y-100.71316
G01 X-85.88169 Y-100.74100
G01 X-86.13907 Y-100.74148
G01 X-86.32944 Y-100.95210
G01 X-86.68464 Y-101.21014
G01 X-87.08568 Y-101.38872
G01 X-87.51512 Y-101.47998
G01 X-87.95413 Y-101.47998
G01 X-88.39335 Y-101.38496
G01 X-88.79340 Y-101.20445
G01 X-89.13980 Y-100.95210
G01 X-89.33017 Y-100.74148
G01 X-102.68849 Y-100.74148
G01 X-102.95184 Y-100.71555
G01 X-103.21397 Y-100.63452
G01 X-103.44638 Y-100.50813
G01 X-103.64305 Y-100.34608
G01 X-113.47917 Y-90.50998
G01 X-114.82443 Y-90.50998
G01 X-115.01481 Y-90.72060
G01 X-115.36998 Y-90.97863
G01 X-115.77104 Y-91.15720
G01 X-116.21092 Y-91.24904
G01 X-116.63949 Y-91.24848
G01 X-117.06893 Y-91.15720
G01 X-117.47000 Y-90.97863
G01 X-117.82516 Y-90.72060
G01 X-118.11892 Y-90.39433
G01 X-118.33842 Y-90.01415
G01 X-118.47411 Y-89.59659
G01 X-118.51998 Y-89.15999
G01 X-118.50233 Y-88.98679
G01 X-121.87456 Y-85.61456
G01 X-122.04748 Y-85.40156
G01 X-122.17052 Y-85.16734
G01 X-122.24164 Y-84.93285
G01 X-122.26948 Y-84.65017
G01 X-122.24395 Y-84.39620
G01 X-122.16996 Y-84.15731
G01 X-122.16996 Y-67.30497
G01 X-122.47077 Y-67.20665
G01 X-122.76044 Y-67.03941
G01 X-123.00902 Y-66.81559
G01 X-123.19993 Y-66.55377
G01 X-123.34438 Y-66.22931
G01 X-123.41123 Y-65.91224
G01 X-123.41123 Y-65.57775
G01 X-123.33793 Y-65.24079
G01 X-123.20562 Y-64.94498
G01 X-123.01560 Y-64.68252
G01 X-122.76044 Y-64.45057
G01 X-122.46099 Y-64.27955
G01 X-122.15264 Y-64.17996
G01 X-121.81997 Y-64.14498
G01 X-119.81998 Y-64.14498
G01 X-119.49768 Y-64.17831
G01 X-119.15988 Y-64.28806
G01 X-118.87952 Y-64.45057
G01 X-118.63095 Y-64.67437
G01 X-118.43436 Y-64.94498
G01 X-118.30205 Y-65.24079
G01 X-118.22821 Y-65.58818
G01 X-118.22874 Y-65.91224
G01 X-118.29560 Y-66.22931
G01 X-118.44005 Y-66.55377
G01 X-118.63095 Y-66.81559
G01 X-118.87952 Y-67.03941
G01 X-119.16921 Y-67.20665
G01 X-119.46997 Y-67.30495
G01 X-119.46997 Y-84.20077
G01 X-116.59789 Y-87.07288
G01 X-116.20073 Y-87.07145
G01 X-115.76129 Y-87.16653
G01 X-115.36121 Y-87.34704
G01 X-115.01481 Y-87.59939
G01 X-114.82446 Y-87.80998
G01 X-112.91019 Y-87.81047
G01 X-112.65662 Y-87.83592
G01 X-112.41260 Y-87.90945
G01 X-112.16208 Y-88.04333
G01 X-111.96538 Y-88.20539
G01 X-102.12929 Y-98.04149
G01 X-89.33015 Y-98.04149
G01 X-89.13980 Y-97.83089
G01 X-88.78463 Y-97.57283
G01 X-88.38357 Y-97.39427
G01 X-87.94369 Y-97.30245
G01 X-87.51512 Y-97.30301
G01 X-87.08568 Y-97.39427
G01 X-86.68464 Y-97.57283
G01 X-86.33760 Y-97.82429
G01 X-86.28672 Y-97.87753
G01 X-84.10730 Y-95.69879
G01 X-83.90999 Y-95.53748
G01 X-83.68546 Y-95.41693
G01 X-83.43285 Y-95.33829
G01 X-83.16976 Y-95.31045
G01 X-62.71918 Y-95.30997
G01 X-57.50235 Y-90.09314
G01 X-57.51998 Y-89.91999
G01 X-57.47410 Y-89.48336
G01 X-57.33844 Y-89.06584
G01 X-57.11891 Y-88.68565
G01 X-56.82516 Y-88.35939
G01 X-56.46999 Y-88.10132
G01 X-56.06893 Y-87.92276
G01 X-55.63926 Y-87.83147
G01 X-55.24205 Y-87.83287
G01 X-55.10731 Y-87.69881
G01 X-54.90157 Y-87.53246
G01 X-54.66735 Y-87.40943
G01 X-54.43286 Y-87.33831
G01 X-54.15999 Y-87.30999
G01 X-52.71917 Y-87.30999
G01 X-39.76997 Y-74.36079
G01 X-39.76997 Y-72.21916
G01 X-47.55916 Y-64.42997
G01 X-50.82443 Y-64.42997
G01 X-51.01481 Y-64.64059
G01 X-51.36998 Y-64.89865
G01 X-51.77104 Y-65.07721
G01 X-52.21092 Y-65.16903
G01 X-52.63947 Y-65.16848
G01 X-53.06893 Y-65.07721
G01 X-53.47000 Y-64.89865
G01 X-53.82517 Y-64.64059
G01 X-54.11892 Y-64.31432
G01 X-54.33842 Y-63.93414
G01 X-54.47408 Y-63.51661
G01 X-54.51945 Y-63.06955
G01 X-54.47139 Y-62.63325
G01 X-54.33842 Y-62.22583
G01 X-54.12463 Y-61.85441
G01 X-53.82517 Y-61.51938
G01 X-53.47876 Y-61.26704
G01 X-53.05882 Y-61.08007
G01 X-52.63947 Y-60.99150
G01 X-52.20048 Y-60.99150
G01 X-51.77104 Y-61.08276
G01 X-51.36998 Y-61.26135
G01 X-51.01481 Y-61.51938
G01 X-50.82446 Y-61.72998
G01 X-47.81916 Y-61.72998
G01 X-47.00234 Y-60.91316
G01 X-47.02000 Y-60.73999
G01 X-46.97410 Y-60.30338
G01 X-46.83369 Y-59.87651
G01 X-46.61893 Y-59.50565
G01 X-46.33257 Y-59.18678
G01 X-45.97878 Y-58.92703
G01 X-45.56892 Y-58.74276
G01 X-45.12904 Y-58.65094
G01 X-44.70047 Y-58.65150
G01 X-44.28117 Y-58.74007
G01 X-43.86999 Y-58.92135
G01 X-43.51482 Y-59.17938
G01 X-43.22765 Y-59.49749
G01 X-42.99778 Y-59.89561
G01 X-42.86588 Y-60.30338
G01 X-42.81998 Y-60.73999
G01 X-42.86588 Y-61.17661
G01 X-42.99778 Y-61.58436
G01 X-43.22765 Y-61.98248
G01 X-43.51482 Y-62.30059
G01 X-43.86999 Y-62.55865
G01 X-44.28117 Y-62.73991
G01 X-44.70072 Y-62.82850
G01 X-45.09790 Y-62.82710
G01 X-45.22079 Y-62.94999
G01 X-38.41996 Y-69.75079
G01 X-32.36565 Y-63.69647
G01 X-32.61893 Y-63.41433
G01 X-32.83369 Y-63.04346
G01 X-32.97138 Y-62.62672
G01 X-33.02000 Y-62.17999
G01 X-32.97410 Y-61.74336
G01 X-32.83369 Y-61.31651
G01 X-32.61893 Y-60.94565
G01 X-32.33257 Y-60.62678
G01 X-31.96999 Y-60.36132
G01 X-31.56892 Y-60.18276
G01 X-31.12905 Y-60.09094
G01 X-30.70047 Y-60.09150
G01 X-30.27106 Y-60.18276
G01 X-29.86121 Y-60.36704
G01 X-29.51483 Y-60.61939
G01 X-29.32445 Y-60.82998
G01 X-25.73917 Y-60.82998
G01 X-23.11456 Y-58.20537
G01 X-22.90999 Y-58.03748
G01 X-22.66734 Y-57.90943
G01 X-22.41362 Y-57.83445
G01 X-22.15998 Y-57.80997
G01 X-15.51551 Y-57.80997
G01 X-15.32517 Y-57.59938
G01 X-14.97000 Y-57.34134
G01 X-14.56893 Y-57.16278
G01 X-14.12905 Y-57.07096
G01 X-13.70048 Y-57.07149
G01 X-13.27104 Y-57.16278
G01 X-12.86998 Y-57.34134
G01 X-12.51481 Y-57.59938
G01 X-12.22106 Y-57.92564
G01 X-12.00155 Y-58.30585
G01 X-11.86589 Y-58.72338
G01 X-11.82052 Y-59.14954
G01 X-11.83521 Y-59.30997
G01 X-8.47918 Y-59.30997
G01 X-7.76996 Y-58.60077
G01 X-7.76996 Y-32.50997
G01 X-23.91999 Y-32.50997
G01 X-24.12337 Y-32.49427
G01 X-24.32959 Y-32.44604
G01 X-24.53973 Y-32.35899
G01 X-24.71966 Y-32.24728
G01 X-24.87458 Y-32.11457
G01 X-29.24203 Y-27.74709
G01 X-29.63926 Y-27.74851
G01 X-30.05882 Y-27.65991
G01 X-30.46999 Y-27.47863
G01 X-30.82516 Y-27.22060
G01 X-31.11233 Y-26.90246
G01 X-31.34218 Y-26.50437
G01 X-31.47411 Y-26.09660
G01 X-31.51944 Y-25.67043
G01 X-31.47411 Y-25.22337
G01 X-31.33367 Y-24.79652
G01 X-31.11891 Y-24.42563
G01 X-30.83255 Y-24.10678
G01 X-30.46999 Y-23.84133
G01 X-30.06893 Y-23.66277
G01 X-29.63926 Y-23.57145
G01 X-29.24208 Y-23.57288
G01 X-24.37458 Y-18.70537
G01 X-24.16157 Y-18.53245
G01 X-23.93660 Y-18.41274
G01 X-23.69287 Y-18.33829
G01 X-23.41999 Y-18.30997
G01 X-15.39801 Y-18.30997
G01 X-15.20767 Y-18.09938
G01 X-14.86126 Y-17.84703
G01 X-14.46119 Y-17.66651
G01 X-14.02199 Y-17.57149
G01 X-13.58298 Y-17.57149
G01 X-13.15354 Y-17.66278
G01 X-12.75248 Y-17.84134
G01 X-12.39731 Y-18.09938
G01 X-12.11014 Y-18.41751
G01 X-11.88029 Y-18.81561
G01 X-11.74839 Y-19.22338
G01 X-11.70249 Y-19.65998
G01 X-11.74839 Y-20.09661
G01 X-11.88029 Y-20.50435
G01 X-12.11014 Y-20.90247
G01 X-12.39731 Y-21.22058
G01 X-12.75248 Y-21.47865
G01 X-13.15354 Y-21.65721
G01 X-13.58298 Y-21.74847
G01 X-14.02199 Y-21.74847
G01 X-14.46119 Y-21.65345
G01 X-14.86126 Y-21.47293
G01 X-15.20767 Y-21.22058
G01 X-15.39804 Y-21.00997
G01 X-22.86079 Y-21.00997
G01 X-27.33764 Y-25.48679
G01 X-27.31999 Y-25.65997
G01 X-27.33764 Y-25.83312
G01 X-23.36079 Y-29.80997
G01 X-6.41998 Y-29.80997
G01 X-6.14708 Y-29.83829
G01 X-5.90334 Y-29.91274
G01 X-5.67837 Y-30.03245
G01 X-5.45879 Y-30.21264
G01 X-5.29747 Y-30.40995
G01 X-5.17693 Y-30.63448
G01 X-5.09590 Y-30.89661
G01 X-5.06997 Y-31.15998
G01 X-5.06997 Y-59.15998
( Mill infeed pass 2/7 )
G01 Z-0.20000
G04 P0 ( dwell for no time -- G64 should not smooth over this point )
G01 F100.00000
G01 X-5.06997 Y-59.15998
G01 X-5.08813 Y-59.37885
G01 X-5.13875 Y-59.58451
G01 X-5.22094 Y-59.77971
G01 X-5.32343 Y-59.94695
G01 X-5.46006 Y-60.10880
G01 X-6.97268 Y-61.62116
G01 X-7.17840 Y-61.78751
G01 X-7.39450 Y-61.90300
G01 X-7.66633 Y-61.98547
G01 X-7.92000 Y-62.00996
G01 X-12.41999 Y-62.00996
G01 X-12.67363 Y-61.98547
G01 X-12.92736 Y-61.91049
G01 X-13.16998 Y-61.78245
G01 X-13.37457 Y-61.61456
G01 X-13.74203 Y-61.24710
G01 X-14.13924 Y-61.24852
G01 X-14.55882 Y-61.15992
G01 X-14.97000 Y-60.97864
G01 X-15.32517 Y-60.72058
G01 X-15.51554 Y-60.50996
G01 X-21.60077 Y-60.50996
G01 X-24.22538 Y-63.13457
G01 X-24.42995 Y-63.30246
G01 X-24.67259 Y-63.43051
G01 X-24.92632 Y-63.50549
G01 X-25.17999 Y-63.52997
G01 X-29.32443 Y-63.52997
G01 X-29.50741 Y-63.73320
G01 X-29.56997 Y-63.78133
G01 X-29.56997 Y-64.15999
G01 X-29.58567 Y-64.36337
G01 X-29.63390 Y-64.56959
G01 X-29.72095 Y-64.77973
G01 X-29.83266 Y-64.95966
G01 X-29.96004 Y-65.10881
G01 X-37.06998 Y-72.21916
G01 X-37.06998 Y-74.91999
G01 X-37.09446 Y-75.17364
G01 X-37.17694 Y-75.44547
G01 X-37.29749 Y-75.67000
G01 X-37.46538 Y-75.87458
G01 X-51.21265 Y-89.62116
G01 X-51.40996 Y-89.78247
G01 X-51.63449 Y-89.90302
G01 X-51.90632 Y-89.98549
G01 X-52.15999 Y-90.00998
G01 X-53.33055 Y-90.00998
G01 X-53.36583 Y-90.35636
G01 X-53.50154 Y-90.77414
G01 X-53.72105 Y-91.15433
G01 X-54.01480 Y-91.48059
G01 X-54.37000 Y-91.73865
G01 X-54.77106 Y-91.91722
G01 X-55.20073 Y-92.00850
G01 X-55.59791 Y-92.00711
G01 X-61.20539 Y-97.61456
G01 X-61.41839 Y-97.78749
G01 X-61.65261 Y-97.91052
G01 X-61.88710 Y-97.98164
G01 X-62.16000 Y-98.00996
G01 X-82.60077 Y-98.00996
G01 X-84.93689 Y-100.34608
G01 X-85.14146 Y-100.51397
G01 X-85.36600 Y-100.63452
G01 X-85.61860 Y-100.71316
G01 X-85.88169 Y-100.74100
G01 X-86.13907 Y-100.74148
G01 X-86.32944 Y-100.95210
G01 X-86.68464 Y-101.21014
G01 X-87.08568 Y-101.38872
G01 X-87.51512 Y-101.47998
G01 X-87.95413 Y-101.47998
G01 X-88.39335 Y-101.38496
G01 X-88.79340 Y-101.20445
G01 X-89.13980 Y-100.95210
G01 X-89.33017 Y-100.74148
G01 X-102.68849 Y-100.74148
G01 X-102.95184 Y-100.71555
G01 X-103.21397 Y-100.63452
G01 X-103.44638 Y-100.50813
G01 X-103.64305 Y-100.34608
G01 X-113.47917 Y-90.50998
G01 X-114.82443 Y-90.50998
G01 X-115.01481 Y-90.72060
G01 X-115.36998 Y-90.97863
G01 X-115.77104 Y-91.15720
G01 X-116.21092 Y-91.24904
G01 X-116.63949 Y-91.24848
G01 X-117.06893 Y-91.15720
G01 X-117.47000 Y-90.97863
G01 X-117.82516 Y-90.72060
G01 X-118.11892 Y-90.39433
G01 X-118.33842 Y-90.01415
G01 X-118.47411 Y-89.59659
G01 X-118.51998 Y-89.15999
G01 X-118.50233 Y-88.98679
G01 X-121.87456 Y-85.61456
G01 X-122.04748 Y-85.40156
G01 X-122.17052 Y-85.16734
G01 X-122.24164 Y-84.93285
G01 X-122.26948 Y-84.65017
G01 X-122.24395 Y-84.39620
G01 X-122.16996 Y-84.15731
G01 X-122.16996 Y-67.30497
G01 X-122.47077 Y-67.20665
G01 X-122.76044 Y-67.03941
G01 X-123.00902 Y-66.81559
G01 X-123.19993 Y-66.55377
G01 X-123.34438 Y-66.22931
G01 X-123.41123 Y-65.91224
G01 X-123.41123 Y-65.57775
G01 X-123.33793 Y-65.24079
G01 X-123.20562 Y-64.94498
G01 X-123.01560 Y-64.68252
G01 X-122.76044 Y-64.45057
G01 X-122.46099 Y-64.27955
G01 X-122.15264 Y-64.17996
G01 X-121.81997 Y-64.14498
G01 X-119.81998 Y-64.14498
G01 X-119.49768 Y-64.17831
G01 X-119.15988 Y-64.28806
G01 X-118.87952 Y-64.45057
G01 X-118.63095 Y-64.67437
G01 X-118.43436 Y-64.94498
G01 X-118.30205 Y-65.24079
G01 X-118.22821 Y-65.58818
G01 X-118.22874 Y-65.91224
G01 X-118.29560 Y-66.22931
G01 X-118.44005 Y-66.55377
G01 X-118.63095 Y-66.81559
G01 X-118.87952 Y-67.03941
G01 X-119.16921 Y-67.20665
G01 X-119.46997 Y-67.30495
G01 X-119.46997 Y-84.20077
G01 X-116.59789 Y-87.07288
G01 X-116.20073 Y-87.07145
G01 X-115.76129 Y-87.16653
G01 X-115.36121 Y-87.34704
G01 X-115.01481 Y-87.59939
G01 X-114.82446 Y-87.80998
G01 X-112.91019 Y-87.81047
G01 X-112.65662 Y-87.83592
G01 X-112.41260 Y-87.90945
G01 X-112.16208 Y-88.04333
G01 X-111.96538 Y-88.20539
G01 X-102.12929 Y-98.04149
G01 X-89.33015 Y-98.04149
G01 X-89.13980 Y-97.83089
G01 X-88.78463 Y-97.57283
G01 X-88.38357 Y-97.39427
G01 X-87.94369 Y-97.30245
G01 X-87.51512 Y-97.30301
G01 X-87.08568 Y-97.39427
G01 X-86.68464 Y-97.57283
G01 X-86.33760 Y-97.82429
G01 X-86.28672 Y-97.87753
G01 X-84.10730 Y-95.69879
G01 X-83.90999 Y-95.53748
G01 X-83.68546 Y-95.41693
G01 X-83.43285 Y-95.33829
G01 X-83.16976 Y-95.31045
G01 X-62.71918 Y-95.30997
G01 X-57.50235 Y-90.09314
G01 X-57.51998 Y-89.91999
G01 X-57.47410 Y-89.48336
G01 X-57.33844 Y-89.06584
G01 X-57.11891 Y-88.68565
G01 X-56.82516 Y-88.35939
G01 X-56.46999 Y-88.10132
G01 X-56.06893 Y-87.92276
G01 X-55.63926 Y-87.83147
G01 X-55.24205 Y-87.83287
G01 X-55.10731 Y-87.69881
G01 X-54.90157 Y-87.53246
G01 X-54.66735 Y-87.40943
G01 X-54.43286 Y-87.33831
G01 X-54.15999 Y-87.30999
G01 X-52.71917 Y-87.30999
G01 X-39.76997 Y-74.36079
G01 X-39.76997 Y-72.21916
G01 X-47.55916 Y-64.42997
G01 X-50.82443 Y-64.42997
G01 X-51.01481 Y-64.64059
G01 X-51.36998 Y-64.89865
G01 X-51.77104 Y-65.07721
G01 X-52.21092 Y-65.16903
G01 X-52.63947 Y-65.16848
G01 X-53.06893 Y-65.07721
G01 X-53.47000 Y-64.89865
G01 X-53.82517 Y-64.64059
G01 X-54.11892 Y-64.31432
G01 X-54.33842 Y-63.93414
G01 X-54.47408 Y-63.51661
G01 X-54.51945 Y-63.06955
G01 X-54.47139 Y-62.63325
G01 X-54.33842 Y-62.22583
G01 X-54.12463 Y-61.85441
G01 X-53.82517 Y-61.51938
G01 X-53.47876 Y-61.26704
G01 X-53.05882 Y-61.08007
G01 X-52.63947 Y-60.99150
G01 X-52.20048 Y-60.99150
G01 X-51.77104 Y-61.08276
G01 X-51.36998 Y-61.26135
G01 X-51.01481 Y-61.51938
G01 X-50.82446 Y-61.72998
G01 X-47.81916 Y-61.72998
G01 X-47.00234 Y-60.91316
G01 X-47.02000 Y-60.73999
G01 X-46.97410 Y-60.30338
G01 X-46.83369 Y-59.87651
G01 X-46.61893 Y-59.50565
G01 X-46.33257 Y-59.18678
G01 X-45.97878 Y-58.92703
G01 X-45.56892 Y-58.74276
G01 X-45.12904 Y-58.65094
G01 X-44.70047 Y-58.65150
G01 X-44.28117 Y-58.74007
G01 X-43.86999 Y-58.92135
G01 X-43.51482 Y-59.17938
G01 X-43.22765 Y-59.49749
G01 X-42.99778 Y-59.89561
G01 X-42.86588 Y-60.30338
G01 X-42.81998 Y-60.73999
G01 X-42.86588 Y-61.17661
G01 X-42.99778 Y-61.58436
G01 X-43.22765 Y-61.98248
G01 X-43.51482 Y-62.30059
G01 X-43.86999 Y-62.55865
G01 X-44.28117 Y-62.73991
G01 X-44.70072 Y-62.82850
G01 X-45.09790 Y-62.82710
G01 X-45.22079 Y-62.94999
G01 X-38.41996 Y-69.75079
G01 X-32.36565 Y-63.69647
G01 X-32.61893 Y-63.41433
G01 X-32.83369 Y-63.04346
G01 X-32.97138 Y-62.62672
G01 X-33.02000 Y-62.17999
G01 X-32.97410 Y-61.74336
G01 X-32.83369 Y-61.31651
G01 X-32.61893 Y-60.94565
G01 X-32.33257 Y-60.62678
G01 X-31.96999 Y-60.36132
G01 X-31.56892 Y-60.18276
G01 X-31.12905 Y-60.09094
G01 X-30.70047 Y-60.09150
G01 X-30.27106 Y-60.18276
G01 X-29.86121 Y-60.36704
G01 X-29.51483 Y-60.61939
G01 X-29.32445 Y-60.82998
G01 X-25.73917 Y-60.82998
G01 X-23.11456 Y-58.20537
G01 X-22.90999 Y-58.03748
G01 X-22.66734 Y-57.90943
G01 X-22.41362 Y-57.83445
G01 X-22.15998 Y-57.80997
G01 X-15.51551 Y-57.80997
G01 X-15.32517 Y-57.59938
G01 X-14.97000 Y-57.34134
G01 X-14.56893 Y-57.16278
G01 X-14.12905 Y-57.07096
G01 X-13.70048 Y-57.07149
G01 X-13.27104 Y-57.16278
G01 X-12.86998 Y-57.34134
G01 X-12.51481 Y-57.59938
G01 X-12.22106 Y-57.92564
G01 X-12.00155 Y-58.30585
G01 X-11.86589 Y-58.72338
G01 X-11.82052 Y-59.14954
G01 X-11.83521 Y-59.30997
G01 X-8.47918 Y-59.30997
G01 X-7.76996 Y-58.60077
G01 X-7.76996 Y-32.50997
G01 X-23.91999 Y-32.50997
G01 X-24.12337 Y-32.49427
G01 X-24.32959 Y-32.44604
G01 X-24.53973 Y-32.35899
G01 X-24.71966 Y-32.24728
G01 X-24.87458 Y-32.11457
G01 X-29.24203 Y-27.74709
G01 X-29.63926 Y-27.74851
G01 X-30.05882 Y-27.65991
G01 X-30.46999 Y-27.47863
G01 X-30.82516 Y-27.22060
G01 X-31.11233 Y-26.90246
G01 X-31.34218 Y-26.50437
G01 X-31.47411 Y-26.09660
G01 X-31.51944 Y-25.67043
G01 X-31.47411 Y-25.22337
G01 X-31.33367 Y-24.79652
G01 X-31.11891 Y-24.42563
G01 X-30.83255 Y-24.10678
G01 X-30.46999 Y-23.84133
G01 X-30.06893 Y-23.66277
G01 X-29.63926 Y-23.57145
G01 X-29.24208 Y-23.57288
G01 X-24.37458 Y-18.70537
G01 X-24.16157 Y-18.53245
G01 X-23.93660 Y-18.41274
G01 X-23.69287 Y-18.33829
G01 X-23.41999 Y-18.30997
G01 X-15.39801 Y-18.30997
G01 X-15.20767 Y-18.09938
G01 X-14.86126 Y-17.84703
G01 X-14.46119 Y-17.66651
G01 X-14.02199 Y-17.57149
G01 X-13.58298 Y-17.57149
G01 X-13.15354 Y-17.66278
G01 X-12.75248 Y-17.84134
G01 X-12.39731 Y-18.09938
G01 X-12.11014 Y-18.41751
G01 X-11.88029 Y-18.81561
G01 X-11.74839 Y-19.22338
G01 X-11.70249 Y-19.65998
G01 X-11.74839 Y-20.09661
G01 X-11.88029 Y-20.50435
G01 X-12.11014 Y-20.90247
G01 X-12.39731 Y-21.22058
G01 X-12.75248 Y-21.47865
G01 X-13.15354 Y-21.65721
G01 X-13.58298 Y-21.74847
G01 X-14.02199 Y-21.74847
G01 X-14.46119 Y-21.65345
G01 X-14.86126 Y-21.47293
G01 X-15.20767 Y-21.22058
G01 X-15.39804 Y-21.00997
G01 X-22.86079 Y-21.00997
G01 X-27.33764 Y-25.48679
G01 X-27.31999 Y-25.65997
G01 X-27.33764 Y-25.83312
G01 X-23.36079 Y-29.80997
G01 X-6.41998 Y-29.80997
G01 X-6.14708 Y-29.83829
G01 X-5.90334 Y-29.91274
G01 X-5.67837 Y-30.03245
G01 X-5.45879 Y-30.21264
G01 X-5.29747 Y-30.40995
G01 X-5.17693 Y-30.63448
G01 X-5.09590 Y-30.89661
G01 X-5.06997 Y-31.15998
G01 X-5.06997 Y-59.15998
( Mill infeed pass 3/7 )
G01 Z-0.30000
G04 P0 ( dwell for no time -- G64 should not smooth over this point )
G01 F100.00000
G01 X-5.06997 Y-59.15998
G01 X-5.08813 Y-59.37885
G01 X-5.13875 Y-59.58451
G01 X-5.22094 Y-59.77971
G01 X-5.32343 Y-59.94695
G01 X-5.46006 Y-60.10880
G01 X-6.97268 Y-61.62116
G01 X-7.17840 Y-61.78751
G01 X-7.39450 Y-61.90300
G01 X-7.66633 Y-61.98547
G01 X-7.92000 Y-62.00996
G01 X-12.41999 Y-62.00996
G01 X-12.67363 Y-61.98547
G01 X-12.92736 Y-61.91049
G01 X-13.16998 Y-61.78245
G01 X-13.37457 Y-61.61456
G01 X-13.74203 Y-61.24710
G01 X-14.13924 Y-61.24852
G01 X-14.55882 Y-61.15992
G01 X-14.97000 Y-60.97864
G01 X-15.32517 Y-60.72058
G01 X-15.51554 Y-60.50996
G01 X-21.60077 Y-60.50996
G01 X-24.22538 Y-63.13457
G01 X-24.42995 Y-63.30246
G01 X-24.67259 Y-63.43051
G01 X-24.92632 Y-63.50549
G01 X-25.17999 Y-63.52997
G01 X-29.32443 Y-63.52997
G01 X-29.50741 Y-63.73320
G01 X-29.56997 Y-63.78133
G01 X-29.56997 Y-64.15999
G01 X-29.58567 Y-64.36337
G01 X-29.63390 Y-64.56959
G01 X-29.72095 Y-64.77973
G01 X-29.83266 Y-64.95966
G01 X-29.96004 Y-65.10881
G01 X-37.06998 Y-72.21916
G01 X-37.06998 Y-74.91999
G01 X-37.09446 Y-75.17364
G01 X-37.17694 Y-75.44547
G01 X-37.29749 Y-75.67000
G01 X-37.46538 Y-75.87458
G01 X-51.21265 Y-89.62116
G01 X-51.40996 Y-89.78247
G01 X-51.63449 Y-89.90302
G01 X-51.90632 Y-89.98549
G01 X-52.15999 Y-90.00998
G01 X-53.33055 Y-90.00998
G01 X-53.36583 Y-90.35636
G01 X-53.50154 Y-90.77414
G01 X-53.72105 Y-91.15433
G01 X-54.01480 Y-91.48059
G01 X-54.37000 Y-91.73865
G01 X-54.77106 Y-91.91722
G01 X-55.20073 Y-92.00850
G01 X-55.59791 Y-92.00711
G01 X-61.20539 Y-97.61456
G01 X-61.41839 Y-97.78749
G01 X-61.65261 Y-97.91052
G01 X-61.88710 Y-97.98164
G01 X-62.16000 Y-98.00996
G01 X-82.60077 Y-98.00996
G01 X-84.93689 Y-100.34608
G01 X-85.14146 Y-100.51397
G01 X-85.36600 Y-100.63452
G01 X-85.61860 Y-100.71316
G01 X-85.88169 Y-100.74100
G01 X-86.13907 Y-100.74148
G01 X-86.32944 Y-100.95210
G01 X-86.68464 Y-101.21014
G01 X-87.08568 Y-101.38872
G01 X-87.51512 Y-101.47998
G01 X-87.95413 Y-101.47998
G01 X-88.39335 Y-101.38496
G01 X-88.79340 Y-101.20445
G01 X-89.13980 Y-100.95210
G01 X-89.33017 Y-100.74148
G01 X-102.68849 Y-100.74148
G01 X-102.95184 Y-100.71555
G01 X-103.21397 Y-100.63452
G01 X-103.44638 Y-100.50813
G01 X-103.64305 Y-100.34608
G01 X-113.47917 Y-90.50998
G01 X-114.82443 Y-90.50998
G01 X-115.01481 Y-90.72060
G01 X-115.36998 Y-90.97863
G01 X-115.77104 Y-91.15720
G01 X-116.21092 Y-91.24904
G01 X-116.63949 Y-91.24848
G01 X-117.06893 Y-91.15720
G01 X-117.47000 Y-90.97863
G01 X-117.82516 Y-90.72060
G01 X-118.11892 Y-90.39433
G01 X-118.33842 Y-90.01415
G01 X-118.47411 Y-89.59659
G01 X-118.51998 Y-89.15999
G01 X-118.50233 Y-88.98679
G01 X-121.87456 Y-85.61456
G01 X-122.04748 Y-85.40156
G01 X-122.17052 Y-85.16734
G01 X-122.24164 Y-84.93285
G01 X-122.26948 Y-84.65017
G01 X-122.24395 Y-84.39620
G01 X-122.16996 Y-84.15731
G01 X-122.16996 Y-67.30497
G01 X-122.47077 Y-67.20665
G01 X-122.76044 Y-67.03941
G01 X-123.00902 Y-66.81559
G01 X-123.19993 Y-66.55377
G01 X-123.34438 Y-66.22931
G01 X-123.41123 Y-65.91224
G01 X-123.41123 Y-65.57775
G01 X-123.33793 Y-65.24079
G01 X-123.20562 Y-64.94498
G01 X-123.01560 Y-64.68252
G01 X-122.76044 Y-64.45057
G01 X-122.46099 Y-64.27955
G01 X-122.15264 Y-64.17996
G01 X-121.81997 Y-64.14498
G01 X-119.81998 Y-64.14498
G01 X-119.49768 Y-64.17831
G01 X-119.15988 Y-64.28806
G01 X-118.87952 Y-64.45057
G01 X-118.63095 Y-64.67437
G01 X-118.43436 Y-64.94498
G01 X-118.30205 Y-65.24079
G01 X-118.22821 Y-65.58818
G01 X-118.22874 Y-65.91224
G01 X-118.29560 Y-66.22931
G01 X-118.44005 Y-66.55377
G01 X-118.63095 Y-66.81559
G01 X-118.87952 Y-67.03941
G01 X-119.16921 Y-67.20665
G01 X-119.46997 Y-67.30495
G01 X-119.46997 Y-84.20077
G01 X-116.59789 Y-87.07288
G01 X-116.20073 Y-87.07145
G01 X-115.76129 Y-87.16653
G01 X-115.36121 Y-87.34704
G01 X-115.01481 Y-87.59939
G01 X-114.82446 Y-87.80998
G01 X-112.91019 Y-87.81047
G01 X-112.65662 Y-87.83592
G01 X-112.41260 Y-87.90945
G01 X-112.16208 Y-88.04333
G01 X-111.96538 Y-88.20539
G01 X-102.12929 Y-98.04149
G01 X-89.33015 Y-98.04149
G01 X-89.13980 Y-97.83089
G01 X-88.78463 Y-97.57283
G01 X-88.38357 Y-97.39427
G01 X-87.94369 Y-97.30245
G01 X-87.51512 Y-97.30301
G01 X-87.08568 Y-97.39427
G01 X-86.68464 Y-97.57283
G01 X-86.33760 Y-97.82429
G01 X-86.28672 Y-97.87753
G01 X-84.10730 Y-95.69879
G01 X-83.90999 Y-95.53748
G01 X-83.68546 Y-95.41693
G01 X-83.43285 Y-95.33829
G01 X-83.16976 Y-95.31045
G01 X-62.71918 Y-95.30997
G01 X-57.50235 Y-90.09314
G01 X-57.51998 Y-89.91999
G01 X-57.47410 Y-89.48336
G01 X-57.33844 Y-89.06584
G01 X-57.11891 Y-88.68565
G01 X-56.82516 Y-88.35939
G01 X-56.46999 Y-88.10132
G01 X-56.06893 Y-87.92276
G01 X-55.63926 Y-87.83147
G01 X-55.24205 Y-87.83287
G01 X-55.10731 Y-87.69881
G01 X-54.90157 Y-87.53246
G01 X-54.66735 Y-87.40943
G01 X-54.43286 Y-87.33831
G01 X-54.15999 Y-87.30999
G01 X-52.71917 Y-87.30999
G01 X-39.76997 Y-74.36079
G01 X-39.76997 Y-72.21916
G01 X-47.55916 Y-64.42997
G01 X-50.82443 Y-64.42997
G01 X-51.01481 Y-64.64059
G01 X-51.36998 Y-64.89865
G01 X-51.77104 Y-65.07721
G01 X-52.21092 Y-65.16903
G01 X-52.63947 Y-65.16848
G01 X-53.06893 Y-65.07721
G01 X-53.47000 Y-64.89865
G01 X-53.82517 Y-64.64059
G01 X-54.11892 Y-64.31432
G01 X-54.33842 Y-63.93414
G01 X-54.47408 Y-63.51661
G01 X-54.51945 Y-63.06955
G01 X-54.47139 Y-62.63325
G01 X-54.33842 Y-62.22583
G01 X-54.12463 Y-61.85441
G01 X-53.82517 Y-61.51938
G01 X-53.47876 Y-61.26704
G01 X-53.05882 Y-61.08007
G01 X-52.63947 Y-60.99150
G01 X-52.20048 Y-60.99150
G01 X-51.77104 Y-61.08276
G01 X-51.36998 Y-61.26135
G01 X-51.01481 Y-61.51938
G01 X-50.82446 Y-61.72998
G01 X-47.81916 Y-61.72998
G01 X-47.00234 Y-60.91316
G01 X-47.02000 Y-60.73999
G01 X-46.97410 Y-60.30338
G01 X-46.83369 Y-59.87651
G01 X-46.61893 Y-59.50565
G01 X-46.33257 Y-59.18678
G01 X-45.97878 Y-58.92703
G01 X-45.56892 Y-58.74276
G01 X-45.12904 Y-58.65094
G01 X-44.70047 Y-58.65150
G01 X-44.28117 Y-58.74007
G01 X-43.86999 Y-58.92135
G01 X-43.51482 Y-59.17938
G01 X-43.22765 Y-59.49749
G01 X-42.99778 Y-59.89561
G01 X-42.86588 Y-60.30338
G01 X-42.81998 Y-60.73999
G01 X-42.86588 Y-61.17661
G01 X-42.99778 Y-61.58436
G01 X-43.22765 Y-61.98248
G01 X-43.51482 Y-62.30059
G01 X-43.86999 Y-62.55865
G01 X-44.28117 Y-62.73991
G01 X-44.70072 Y-62.82850
G01 X-45.09790 Y-62.82710
G01 X-45.22079 Y-62.94999
G01 X-38.41996 Y-69.75079
G01 X-32.36565 Y-63.69647
G01 X-32.61893 Y-63.41433
G01 X-32.83369 Y-63.04346
G01 X-32.97138 Y-62.62672
G01 X-33.02000 Y-62.17999
G01 X-32.97410 Y-61.74336
G01 X-32.83369 Y-61.31651
G01 X-32.61893 Y-60.94565
G01 X-32.33257 Y-60.62678
G01 X-31.96999 Y-60.36132
G01 X-31.56892 Y-60.18276
G01 X-31.12905 Y-60.09094
G01 X-30.70047 Y-60.09150
G01 X-30.27106 Y-60.18276
G01 X-29.86121 Y-60.36704
G01 X-29.51483 Y-60.61939
G01 X-29.32445 Y-60.82998
G01 X-25.73917 Y-60.82998
G01 X-23.11456 Y-58.20537
G01 X-22.90999 Y-58.03748
G01 X-22.66734 Y-57.90943
G01 X-22.41362 Y-57.83445
G01 X-22.15998 Y-57.80997
G01 X-15.51551 Y-57.80997
G01 X-15.32517 Y-57.59938
G01 X-14.97000 Y-57.34134
G01 X-14.56893 Y-57.16278
G01 X-14.12905 Y-57.07096
G01 X-13.70048 Y-57.07149
G01 X-13.27104 Y-57.16278
G01 X-12.86998 Y-57.34134
G01 X-12.51481 Y-57.59938
G01 X-12.22106 Y-57.92564
G01 X-12.00155 Y-58.30585
G01 X-11.86589 Y-58.72338
G01 X-11.82052 Y-59.14954
G01 X-11.83521 Y-59.30997
G01 X-8.47918 Y-59.30997
G01 X-7.76996 Y-58.60077
G01 X-7.76996 Y-32.50997
G01 X-23.91999 Y-32.50997
G01 X-24.12337 Y-32.49427
G01 X-24.32959 Y-32.44604
G01 X-24.53973 Y-32.35899
G01 X-24.71966 Y-32.24728
G01 X-24.87458 Y-32.11457
G01 X-29.24203 Y-27.74709
G01 X-29.63926 Y-27.74851
G01 X-30.05882 Y-27.65991
G01 X-30.46999 Y-27.47863
G01 X-30.82516 Y-27.22060
G01 X-31.11233 Y-26.90246
G01 X-31.34218 Y-26.50437
G01 X-31.47411 Y-26.09660
G01 X-31.51944 Y-25.67043
G01 X-31.47411 Y-25.22337
G01 X-31.33367 Y-24.79652
G01 X-31.11891 Y-24.42563
G01 X-30.83255 Y-24.10678
G01 X-30.46999 Y-23.84133
G01 X-30.06893 Y-23.66277
G01 X-29.63926 Y-23.57145
G01 X-29.24208 Y-23.57288
G01 X-24.37458 Y-18.70537
G01 X-24.16157 Y-18.53245
G01 X-23.93660 Y-18.41274
G01 X-23.69287 Y-18.33829
G01 X-23.41999 Y-18.30997
G01 X-15.39801 Y-18.30997
G01 X-15.20767 Y-18.09938
G01 X-14.86126 Y-17.84703
G01 X-14.46119 Y-17.66651
G01 X-14.02199 Y-17.57149
G01 X-13.58298 Y-17.57149
G01 X-13.15354 Y-17.66278
G01 X-12.75248 Y-17.84134
G01 X-12.39731 Y-18.09938
G01 X-12.11014 Y-18.41751
G01 X-11.88029 Y-18.81561
G01 X-11.74839 Y-19.22338
G01 X-11.70249 Y-19.65998
G01 X-11.74839 Y-20.09661
G01 X-11.88029 Y-20.50435
G01 X-12.11014 Y-20.90247
G01 X-12.39731 Y-21.22058
G01 X-12.75248 Y-21.47865
G01 X-13.15354 Y-21.65721
G01 X-13.58298 Y-21.74847
G01 X-14.02199 Y-21.74847
G01 X-14.46119 Y-21.65345
G01 X-14.86126 Y-21.47293
G01 X-15.20767 Y-21.22058
G01 X-15.39804 Y-21.00997
G01 X-22.86079 Y-21.00997
G01 X-27.33764 Y-25.48679
G01 X-27.31999 Y-25.65997
G01 X-27.33764 Y-25.83312
G01 X-23.36079 Y-29.80997
G01 X-6.41998 Y-29.80997
G01 X-6.14708 Y-29.83829
G01 X-5.90334 Y-29.91274
G01 X-5.67837 Y-30.03245
G01 X-5.45879 Y-30.21264
G01 X-5.29747 Y-30.40995
G01 X-5.17693 Y-30.63448
G01 X-5.09590 Y-30.89661
G01 X-5.06997 Y-31.15998
G01 X-5.06997 Y-59.15998
( Mill infeed pass 4/7 )
G01 Z-0.40000
G04 P0 ( dwell for no time -- G64 should not smooth over this point )
G01 F100.00000
G01 X-5.06997 Y-59.15998
G01 X-5.08813 Y-59.37885
G01 X-5.13875 Y-59.58451
G01 X-5.22094 Y-59.77971
G01 X-5.32343 Y-59.94695
G01 X-5.46006 Y-60.10880
G01 X-6.97268 Y-61.62116
G01 X-7.17840 Y-61.78751
G01 X-7.39450 Y-61.90300
G01 X-7.66633 Y-61.98547
G01 X-7.92000 Y-62.00996
G01 X-12.41999 Y-62.00996
G01 X-12.67363 Y-61.98547
G01 X-12.92736 Y-61.91049
G01 X-13.16998 Y-61.78245
G01 X-13.37457 Y-61.61456
G01 X-13.74203 Y-61.24710
G01 X-14.13924 Y-61.24852
G01 X-14.55882 Y-61.15992
G01 X-14.97000 Y-60.97864
G01 X-15.32517 Y-60.72058
G01 X-15.51554 Y-60.50996
G01 X-21.60077 Y-60.50996
G01 X-24.22538 Y-63.13457
G01 X-24.42995 Y-63.30246
G01 X-24.67259 Y-63.43051
G01 X-24.92632 Y-63.50549
G01 X-25.17999 Y-63.52997
G01 X-29.32443 Y-63.52997
G01 X-29.50741 Y-63.73320
G01 X-29.56997 Y-63.78133
G01 X-29.56997 Y-64.15999
G01 X-29.58567 Y-64.36337
G01 X-29.63390 Y-64.56959
G01 X-29.72095 Y-64.77973
G01 X-29.83266 Y-64.95966
G01 X-29.96004 Y-65.10881
G01 X-37.06998 Y-72.21916
G01 X-37.06998 Y-74.91999
G01 X-37.09446 Y-75.17364
G01 X-37.17694 Y-75.44547
G01 X-37.29749 Y-75.67000
G01 X-37.46538 Y-75.87458
G01 X-51.21265 Y-89.62116
G01 X-51.40996 Y-89.78247
G01 X-51.63449 Y-89.90302
G01 X-51.90632 Y-89.98549
G01 X-52.15999 Y-90.00998
G01 X-53.33055 Y-90.00998
G01 X-53.36583 Y-90.35636
G01 X-53.50154 Y-90.77414
G01 X-53.72105 Y-91.15433
G01 X-54.01480 Y-91.48059
G01 X-54.37000 Y-91.73865
G01 X-54.77106 Y-91.91722
G01 X-55.20073 Y-92.00850
G01 X-55.59791 Y-92.00711
G01 X-61.20539 Y-97.61456
G01 X-61.41839 Y-97.78749
G01 X-61.65261 Y-97.91052
G01 X-61.88710 Y-97.98164
G01 X-62.16000 Y-98.00996
G01 X-82.60077 Y-98.00996
G01 X-84.93689 Y-100.34608
G01 X-85.14146 Y-100.51397
G01 X-85.36600 Y-100.63452
G01 X-85.61860 Y-100.71316
G01 X-85.88169 Y-100.74100
G01 X-86.13907 Y-100.74148
G01 X-86.32944 Y-100.95210
G01 X-86.68464 Y-101.21014
G01 X-87.08568 Y-101.38872
G01 X-87.51512 Y-101.47998
G01 X-87.95413 Y-101.47998
G01 X-88.39335 Y-101.38496
G01 X-88.79340 Y-101.20445
G01 X-89.13980 Y-100.95210
G01 X-89.33017 Y-100.74148
G01 X-102.68849 Y-100.74148
G01 X-102.95184 Y-100.71555
G01 X-103.21397 Y-100.63452
G01 X-103.44638 Y-100.50813
G01 X-103.64305 Y-100.34608
G01 X-113.47917 Y-90.50998
G01 X-114.82443 Y-90.50998
G01 X-115.01481 Y-90.72060
G01 X-115.36998 Y-90.97863
G01 X-115.77104 Y-91.15720
G01 X-116.21092 Y-91.24904
G01 X-116.63949 Y-91.24848
G01 X-117.06893 Y-91.15720
G01 X-117.47000 Y-90.97863
G01 X-117.82516 Y-90.72060
G01 X-118.11892 Y-90.39433
G01 X-118.33842 Y-90.01415
G01 X-118.47411 Y-89.59659
G01 X-118.51998 Y-89.15999
G01 X-118.50233 Y-88.98679
G01 X-121.87456 Y-85.61456
G01 X-122.04748 Y-85.40156
G01 X-122.17052 Y-85.16734
G01 X-122.24164 Y-84.93285
G01 X-122.26948 Y-84.65017
G01 X-122.24395 Y-84.39620
G01 X-122.16996 Y-84.15731
G01 X-122.16996 Y-67.30497
G01 X-122.47077 Y-67.20665
G01 X-122.76044 Y-67.03941
G01 X-123.00902 Y-66.81559
G01 X-123.19993 Y-66.55377
G01 X-123.34438 Y-66.22931
G01 X-123.41123 Y-65.91224
G01 X-123.41123 Y-65.57775
G01 X-123.33793 Y-65.24079
G01 X-123.20562 Y-64.94498
G01 X-123.01560 Y-64.68252
G01 X-122.76044 Y-64.45057
G01 X-122.46099 Y-64.27955
G01 X-122.15264 Y-64.17996
G01 X-121.81997 Y-64.14498
G01 X-119.81998 Y-64.14498
G01 X-119.49768 Y-64.17831
G01 X-119.15988 Y-64.28806
G01 X-118.87952 Y-64.45057
G01 X-118.63095 Y-64.67437
G01 X-118.43436 Y-64.94498
G01 X-118.30205 Y-65.24079
G01 X-118.22821 Y-65.58818
G01 X-118.22874 Y-65.91224
G01 X-118.29560 Y-66.22931
G01 X-118.44005 Y-66.55377
G01 X-118.63095 Y-66.81559
G01 X-118.87952 Y-67.03941
G01 X-119.16921 Y-67.20665
G01 X-119.46997 Y-67.30495
G01 X-119.46997 Y-84.20077
G01 X-116.59789 Y-87.07288
G01 X-116.20073 Y-87.07145
G01 X-115.76129 Y-87.16653
G01 X-115.36121 Y-87.34704
G01 X-115.01481 Y-87.59939
G01 X-114.82446 Y-87.80998
G01 X-112.91019 Y-87.81047
G01 X-112.65662 Y-87.83592
G01 X-112.41260 Y-87.90945
G01 X-112.16208 Y-88.04333
G01 X-111.96538 Y-88.20539
G01 X-102.12929 Y-98.04149
G01 X-89.33015 Y-98.04149
G01 X-89.13980 Y-97.83089
G01 X-88.78463 Y-97.57283
G01 X-88.38357 Y-97.39427
G01 X-87.94369 Y-97.30245
G01 X-87.51512 Y-97.30301
G01 X-87.08568 Y-97.39427
G01 X-86.68464 Y-97.57283
G01 X-86.33760 Y-97.82429
G01 X-86.28672 Y-97.87753
G01 X-84.10730 Y-95.69879
G01 X-83.90999 Y-95.53748
G01 X-83.68546 Y-95.41693
G01 X-83.43285 Y-95.33829
G01 X-83.16976 Y-95.31045
G01 X-62.71918 Y-95.30997
G01 X-57.50235 Y-90.09314
G01 X-57.51998 Y-89.91999
G01 X-57.47410 Y-89.48336
G01 X-57.33844 Y-89.06584
G01 X-57.11891 Y-88.68565
G01 X-56.82516 Y-88.35939
G01 X-56.46999 Y-88.10132
G01 X-56.06893 Y-87.92276
G01 X-55.63926 Y-87.83147
G01 X-55.24205 Y-87.83287
G01 X-55.10731 Y-87.69881
G01 X-54.90157 Y-87.53246
G01 X-54.66735 Y-87.40943
G01 X-54.43286 Y-87.33831
G01 X-54.15999 Y-87.30999
G01 X-52.71917 Y-87.30999
G01 X-39.76997 Y-74.36079
G01 X-39.76997 Y-72.21916
G01 X-47.55916 Y-64.42997
G01 X-50.82443 Y-64.42997
G01 X-51.01481 Y-64.64059
G01 X-51.36998 Y-64.89865
G01 X-51.77104 Y-65.07721
G01 X-52.21092 Y-65.16903
G01 X-52.63947 Y-65.16848
G01 X-53.06893 Y-65.07721
G01 X-53.47000 Y-64.89865
G01 X-53.82517 Y-64.64059
G01 X-54.11892 Y-64.31432
G01 X-54.33842 Y-63.93414
G01 X-54.47408 Y-63.51661
G01 X-54.51945 Y-63.06955
G01 X-54.47139 Y-62.63325
G01 X-54.33842 Y-62.22583
G01 X-54.12463 Y-61.85441
G01 X-53.82517 Y-61.51938
G01 X-53.47876 Y-61.26704
G01 X-53.05882 Y-61.08007
G01 X-52.63947 Y-60.99150
G01 X-52.20048 Y-60.99150
G01 X-51.77104 Y-61.08276
G01 X-51.36998 Y-61.26135
G01 X-51.01481 Y-61.51938
G01 X-50.82446 Y-61.72998
G01 X-47.81916 Y-61.72998
G01 X-47.00234 Y-60.91316
G01 X-47.02000 Y-60.73999
G01 X-46.97410 Y-60.30338
G01 X-46.83369 Y-59.87651
