( pcb2gcode 2.5.0 )
( Software-independent Gcode )

( This file uses 2 drill bit sizes. )
( Bit sizes: [1mm] [2.5mm] )

G94       (Millimeters per minute feed rate.)
G21       (Units == Millimeters.)
G91.1     (Incremental arc distance mode.)
G90       (Absolute coordinates.)
G00 S4700     (RPM spindle speed.)

G00 Z2.00000 (Retract)
T1
M5      (Spindle stop.)
G04 P1.00000
(MSG, Change tool bit to drill size 1mm)
M0      (Temporary machine stop.)
M3      (Spindle on clockwise.)
G0 Z2.00000
G04 P1.00000

G1 F25.00000
G0 X-13.80300 Y-14.66000
G1 Z-0.30000
G1 Z2.00000
G0 X-13.80300 Y-19.66000
G1 Z-0.30000
G1 Z2.00000
G0 X-16.38000 Y-42.00000
G1 Z-0.30000
G1 Z2.00000
G0 X-21.62000 Y-42.00000
G1 Z-0.30000
G1 Z2.00000
G0 X-13.92000 Y-54.16000
G1 Z-0.30000
G1 Z2.00000
G0 X-13.92000 Y-59.16000
G1 Z-0.30000
G1 Z2.00000
G0 X-30.92000 Y-55.64000
G1 Z-0.30000
G1 Z2.00000
G0 X-30.92000 Y-62.18000
G1 Z-0.30000
G1 Z2.00000
G0 X-44.92000 Y-50.58000
G1 Z-0.30000
G1 Z2.00000
G0 X-44.92000 Y-60.74000
G1 Z-0.30000
G1 Z2.00000
G0 X-52.42000 Y-63.08000
G1 Z-0.30000
G1 Z2.00000
G0 X-61.42000 Y-64.12000
G1 Z-0.30000
G1 Z2.00000
G0 X-61.42000 Y-68.39000
G1 Z-0.30000
G1 Z2.00000
G0 X-61.42000 Y-73.12000
G1 Z-0.30000
G1 Z2.00000
G0 X-52.42000 Y-73.24000
G1 Z-0.30000
G1 Z2.00000
G0 X-55.42000 Y-82.16000
G1 Z-0.30000
G1 Z2.00000
G0 X-55.42000 Y-89.92000
G1 Z-0.30000
G1 Z2.00000
G0 X-75.92000 Y-82.00000
G1 Z-0.30000
G1 Z2.00000
G0 X-75.92000 Y-92.16000
G1 Z-0.30000
G1 Z2.00000
G0 X-87.73500 Y-99.39200
G1 Z-0.30000
G1 Z2.00000
G0 X-94.26500 Y-91.60800
G1 Z-0.30000
G1 Z2.00000
G0 X-101.92000 Y-86.74000
G1 Z-0.30000
G1 Z2.00000
G0 X-116.42000 Y-94.16000
G1 Z-0.30000
G1 Z2.00000
G0 X-116.42000 Y-89.16000
G1 Z-0.30000
G1 Z2.00000
G0 X-101.92000 Y-80.20000
G1 Z-0.30000
G1 Z2.00000
G0 X-101.92000 Y-73.74000
G1 Z-0.30000
G1 Z2.00000
G0 X-120.82000 Y-65.74500
G1 Z-0.30000
G1 Z2.00000
G0 X-120.92000 Y-57.21000
G1 Z-0.30000
G1 Z2.00000
G0 X-120.82000 Y-49.76000
G1 Z-0.30000
G1 Z2.00000
G0 X-104.42000 Y-36.66000
G1 Z-0.30000
G1 Z2.00000
G0 X-104.42000 Y-46.66000
G1 Z-0.30000
G1 Z2.00000
G0 X-120.42500 Y-31.91200
G1 Z-0.30000
G1 Z2.00000
G0 X-120.42500 Y-23.41200
G1 Z-0.30000
G1 Z2.00000
G0 X-120.42500 Y-14.91200
G1 Z-0.30000
G1 Z2.00000
G0 X-94.42000 Y-26.16000
G1 Z-0.30000
G1 Z2.00000
G0 X-84.26000 Y-26.16000
G1 Z-0.30000
G1 Z2.00000
G0 X-77.42000 Y-38.67200
G1 Z-0.30000
G1 Z2.00000
G0 X-77.42000 Y-48.67200
G1 Z-0.30000
G1 Z2.00000
G0 X-76.92000 Y-58.00000
G1 Z-0.30000
G1 Z2.00000
G0 X-76.92000 Y-68.16000
G1 Z-0.30000
G1 Z2.00000
G0 X-44.92000 Y-35.66000
G1 Z-0.30000
G1 Z2.00000
G0 X-44.92000 Y-25.50000
G1 Z-0.30000
G1 Z2.00000
G0 X-46.26000 Y-13.16000
G1 Z-0.30000
G1 Z2.00000
G0 X-56.42000 Y-13.16000
G1 Z-0.30000
G1 Z2.00000
G0 X-71.42000 Y-14.00000
G1 Z-0.30000
G1 Z2.00000
G0 X-71.42000 Y-24.16000
G1 Z-0.30000
G1 Z2.00000

G00 Z2.00000 (Retract)
T2
M5      (Spindle stop.)
G04 P1.00000
(MSG, Change tool bit to drill size 2.5mm)
M0      (Temporary machine stop.)
M3      (Spindle on clockwise.)
G0 Z2.00000
G04 P1.00000

G1 F25.00000
G0 X-29.42000 Y-25.66000
G1 Z-0.30000
G1 Z2.00000

G00 Z2.000 ( All done -- retract )

M5      (Spindle off.)
G04 P1.000000
M9      (Coolant off.)
M2      (Program end.)

