( pcb2gcode 2.5.0 )
( Software-independent Gcode )

G94 ( Millimeters per minute feed rate. )
G21 ( Units == Millimeters. )

G90 ( Absolute coordinates. )
G00 S3000 ( RPM spindle speed. )
G01 F100.00000 ( Feedrate. )


G00 Z2.00000 (Retract to tool change height)
T0
M5      (Spindle stop.)
G04 P1.00000 (Wait for spindle to stop)
(MSG, Change tool bit to cutter diameter 1.50000mm)
M0      (Temporary machine stop.)
M3 ( Spindle on clockwise. )
G04 P1.00000 (Wait for spindle to get up to speed)
G04 P0 ( dwell for no time -- G64 should not smooth over this point )
G00 Z2.00000 ( retract )

G00 X-1.66997 Y-104.65999 ( rapid move to begin. )
G01 Z-0.09474 F50.00000 ( plunge. )
G04 P0 ( dwell for no time -- G64 should not smooth over this point )
G01 F100.00000
G01 X-1.66997 Y-54.40996
G01 X-1.66997 Y-51.90996
G01 X-1.66997 Y-1.65994
G01 X-1.68438 Y-1.51366
G01 X-1.72707 Y-1.37297
G01 X-1.79636 Y-1.24330
G01 X-1.88963 Y-1.12964
G01 X-2.00330 Y-1.03637
G01 X-2.13296 Y-0.96708
G01 X-2.27366 Y-0.92438
G01 X-2.41998 Y-0.90998
G01 X-66.41998 Y-0.90998
G01 X-68.91998 Y-0.90998
G01 X-132.91998 Y-0.90998
G01 X-133.06628 Y-0.92438
G01 X-133.20697 Y-0.96708
G01 X-133.33664 Y-1.03637
G01 X-133.45030 Y-1.12964
G01 X-133.54357 Y-1.24330
G01 X-133.61286 Y-1.37297
G01 X-133.65556 Y-1.51366
G01 X-133.66996 Y-1.65994
G01 X-133.66996 Y-51.90996
G01 X-133.66996 Y-54.40996
G01 X-133.66996 Y-104.65999
G01 X-133.65556 Y-104.80629
G01 X-133.61286 Y-104.94696
G01 X-133.54357 Y-105.07665
G01 X-133.45030 Y-105.19032
G01 X-133.33664 Y-105.28358
G01 X-133.20697 Y-105.35288
G01 X-133.06628 Y-105.39557
G01 X-132.91998 Y-105.40997
G01 X-68.91998 Y-105.40997
G01 X-66.41998 Y-105.40997
G01 X-2.41998 Y-105.40997
G01 X-2.27366 Y-105.39557
G01 X-2.13296 Y-105.35288
G01 X-2.00330 Y-105.28358
G01 X-1.88963 Y-105.19032
G01 X-1.79636 Y-105.07665
G01 X-1.72707 Y-104.94696
G01 X-1.68438 Y-104.80629
G01 X-1.66997 Y-104.65999
G01 Z-0.18947 F50.00000 ( plunge. )
G04 P0 ( dwell for no time -- G64 should not smooth over this point )
G01 F100.00000
G01 X-1.66997 Y-54.40996
G01 X-1.66997 Y-51.90996
G01 X-1.66997 Y-1.65994
G01 X-1.68438 Y-1.51366
G01 X-1.72707 Y-1.37297
G01 X-1.79636 Y-1.24330
G01 X-1.88963 Y-1.12964
G01 X-2.00330 Y-1.03637
G01 X-2.13296 Y-0.96708
G01 X-2.27366 Y-0.92438
G01 X-2.41998 Y-0.90998
G01 X-66.41998 Y-0.90998
G01 X-68.91998 Y-0.90998
G01 X-132.91998 Y-0.90998
G01 X-133.06628 Y-0.92438
G01 X-133.20697 Y-0.96708
G01 X-133.33664 Y-1.03637
G01 X-133.45030 Y-1.12964
G01 X-133.54357 Y-1.24330
G01 X-133.61286 Y-1.37297
G01 X-133.65556 Y-1.51366
G01 X-133.66996 Y-1.65994
G01 X-133.66996 Y-51.90996
G01 X-133.66996 Y-54.40996
G01 X-133.66996 Y-104.65999
G01 X-133.65556 Y-104.80629
G01 X-133.61286 Y-104.94696
G01 X-133.54357 Y-105.07665
G01 X-133.45030 Y-105.19032
G01 X-133.33664 Y-105.28358
G01 X-133.20697 Y-105.35288
G01 X-133.06628 Y-105.39557
G01 X-132.91998 Y-105.40997
G01 X-68.91998 Y-105.40997
G01 X-66.41998 Y-105.40997
G01 X-2.41998 Y-105.40997
G01 X-2.27366 Y-105.39557
G01 X-2.13296 Y-105.35288
G01 X-2.00330 Y-105.28358
G01 X-1.88963 Y-105.19032
G01 X-1.79636 Y-105.07665
G01 X-1.72707 Y-104.94696
G01 X-1.68438 Y-104.80629
G01 X-1.66997 Y-104.65999
G01 Z-0.28421 F50.00000 ( plunge. )
G04 P0 ( dwell for no time -- G64 should not smooth over this point )
G01 F100.00000
G01 X-1.66997 Y-54.40996
G01 X-1.66997 Y-51.90996
G01 X-1.66997 Y-1.65994
G01 X-1.68438 Y-1.51366
G01 X-1.72707 Y-1.37297
G01 X-1.79636 Y-1.24330
G01 X-1.88963 Y-1.12964
G01 X-2.00330 Y-1.03637
G01 X-2.13296 Y-0.96708
G01 X-2.27366 Y-0.92438
G01 X-2.41998 Y-0.90998
G01 X-66.41998 Y-0.90998
G01 X-68.91998 Y-0.90998
G01 X-132.91998 Y-0.90998
G01 X-133.06628 Y-0.92438
G01 X-133.20697 Y-0.96708
G01 X-133.33664 Y-1.03637
G01 X-133.45030 Y-1.12964
G01 X-133.54357 Y-1.24330
G01 X-133.61286 Y-1.37297
G01 X-133.65556 Y-1.51366
G01 X-133.66996 Y-1.65994
G01 X-133.66996 Y-51.90996
G01 X-133.66996 Y-54.40996
G01 X-133.66996 Y-104.65999
G01 X-133.65556 Y-104.80629
G01 X-133.61286 Y-104.94696
G01 X-133.54357 Y-105.07665
G01 X-133.45030 Y-105.19032
G01 X-133.33664 Y-105.28358
G01 X-133.20697 Y-105.35288
G01 X-133.06628 Y-105.39557
G01 X-132.91998 Y-105.40997
G01 X-68.91998 Y-105.40997
G01 X-66.41998 Y-105.40997
G01 X-2.41998 Y-105.40997
G01 X-2.27366 Y-105.39557
G01 X-2.13296 Y-105.35288
G01 X-2.00330 Y-105.28358
G01 X-1.88963 Y-105.19032
G01 X-1.79636 Y-105.07665
G01 X-1.72707 Y-104.94696
G01 X-1.68438 Y-104.80629
G01 X-1.66997 Y-104.65999
G01 Z-0.37895 F50.00000 ( plunge. )
G04 P0 ( dwell for no time -- G64 should not smooth over this point )
G01 F100.00000
G01 X-1.66997 Y-54.40996
G01 X-1.66997 Y-51.90996
G01 X-1.66997 Y-1.65994
G01 X-1.68438 Y-1.51366
G01 X-1.72707 Y-1.37297
G01 X-1.79636 Y-1.24330
G01 X-1.88963 Y-1.12964
G01 X-2.00330 Y-1.03637
G01 X-2.13296 Y-0.96708
G01 X-2.27366 Y-0.92438
G01 X-2.41998 Y-0.90998
G01 X-66.41998 Y-0.90998
G01 X-68.91998 Y-0.90998
G01 X-132.91998 Y-0.90998
G01 X-133.06628 Y-0.92438
G01 X-133.20697 Y-0.96708
G01 X-133.33664 Y-1.03637
G01 X-133.45030 Y-1.12964
G01 X-133.54357 Y-1.24330
G01 X-133.61286 Y-1.37297
G01 X-133.65556 Y-1.51366
G01 X-133.66996 Y-1.65994
G01 X-133.66996 Y-51.90996
G01 X-133.66996 Y-54.40996
G01 X-133.66996 Y-104.65999
G01 X-133.65556 Y-104.80629
G01 X-133.61286 Y-104.94696
G01 X-133.54357 Y-105.07665
G01 X-133.45030 Y-105.19032
G01 X-133.33664 Y-105.28358
G01 X-133.20697 Y-105.35288
G01 X-133.06628 Y-105.39557
G01 X-132.91998 Y-105.40997
G01 X-68.91998 Y-105.40997
G01 X-66.41998 Y-105.40997
G01 X-2.41998 Y-105.40997
G01 X-2.27366 Y-105.39557
G01 X-2.13296 Y-105.35288
G01 X-2.00330 Y-105.28358
G01 X-1.88963 Y-105.19032
G01 X-1.79636 Y-105.07665
G01 X-1.72707 Y-104.94696
G01 X-1.68438 Y-104.80629
G01 X-1.66997 Y-104.65999
G01 Z-0.47368 F50.00000 ( plunge. )
G04 P0 ( dwell for no time -- G64 should not smooth over this point )
G01 F100.00000
G01 X-1.66997 Y-54.40996
G01 X-1.66997 Y-51.90996
G01 X-1.66997 Y-1.65994
G01 X-1.68438 Y-1.51366
G01 X-1.72707 Y-1.37297
G01 X-1.79636 Y-1.24330
G01 X-1.88963 Y-1.12964
G01 X-2.00330 Y-1.03637
G01 X-2.13296 Y-0.96708
G01 X-2.27366 Y-0.92438
G01 X-2.41998 Y-0.90998
G01 X-66.41998 Y-0.90998
G01 X-68.91998 Y-0.90998
G01 X-132.91998 Y-0.90998
G01 X-133.06628 Y-0.92438
G01 X-133.20697 Y-0.96708
G01 X-133.33664 Y-1.03637
G01 X-133.45030 Y-1.12964
G01 X-133.54357 Y-1.24330
G01 X-133.61286 Y-1.37297
G01 X-133.65556 Y-1.51366
G01 X-133.66996 Y-1.65994
G01 X-133.66996 Y-51.90996
G01 X-133.66996 Y-54.40996
G01 X-133.66996 Y-104.65999
G01 X-133.65556 Y-104.80629
G01 X-133.61286 Y-104.94696
G01 X-133.54357 Y-105.07665
G01 X-133.45030 Y-105.19032
G01 X-133.33664 Y-105.28358
G01 X-133.20697 Y-105.35288
G01 X-133.06628 Y-105.39557
G01 X-132.91998 Y-105.40997
G01 X-68.91998 Y-105.40997
G01 X-66.41998 Y-105.40997
G01 X-2.41998 Y-105.40997
G01 X-2.27366 Y-105.39557
G01 X-2.13296 Y-105.35288
G01 X-2.00330 Y-105.28358
G01 X-1.88963 Y-105.19032
G01 X-1.79636 Y-105.07665
G01 X-1.72707 Y-104.94696
G01 X-1.68438 Y-104.80629
G01 X-1.66997 Y-104.65999
G01 Z-0.56842 F50.00000 ( plunge. )
G04 P0 ( dwell for no time -- G64 should not smooth over this point )
G01 F100.00000
G01 X-1.66997 Y-54.40996
G00 Z-0.50000
G01 X-1.66997 Y-51.90996
G01 Z-0.56842 F50.00000
G01 F100.00000
G01 X-1.66997 Y-1.65994
G01 X-1.68438 Y-1.51366
G01 X-1.72707 Y-1.37297
G01 X-1.79636 Y-1.24330
G01 X-1.88963 Y-1.12964
G01 X-2.00330 Y-1.03637
G01 X-2.13296 Y-0.96708
G01 X-2.27366 Y-0.92438
G01 X-2.41998 Y-0.90998
G01 X-66.41998 Y-0.90998
G00 Z-0.50000
G01 X-68.91998 Y-0.90998
G01 Z-0.56842 F50.00000
G01 F100.00000
G01 X-132.91998 Y-0.90998
G01 X-133.06628 Y-0.92438
G01 X-133.20697 Y-0.96708
G01 X-133.33664 Y-1.03637
G01 X-133.45030 Y-1.12964
G01 X-133.54357 Y-1.24330
G01 X-133.61286 Y-1.37297
G01 X-133.65556 Y-1.51366
G01 X-133.66996 Y-1.65994
G01 X-133.66996 Y-51.90996
G00 Z-0.50000
G01 X-133.66996 Y-54.40996
G01 Z-0.56842 F50.00000
G01 F100.00000
G01 X-133.66996 Y-104.65999
G01 X-133.65556 Y-104.80629
G01 X-133.61286 Y-104.94696
G01 X-133.54357 Y-105.07665
G01 X-133.45030 Y-105.19032
G01 X-133.33664 Y-105.28358
G01 X-133.20697 Y-105.35288
G01 X-133.06628 Y-105.39557
G01 X-132.91998 Y-105.40997
G01 X-68.91998 Y-105.40997
G00 Z-0.50000
G01 X-66.41998 Y-105.40997
G01 Z-0.56842 F50.00000
G01 F100.00000
G01 X-2.41998 Y-105.40997
G01 X-2.27366 Y-105.39557
G01 X-2.13296 Y-105.35288
G01 X-2.00330 Y-105.28358
G01 X-1.88963 Y-105.19032
G01 X-1.79636 Y-105.07665
G01 X-1.72707 Y-104.94696
G01 X-1.68438 Y-104.80629
G01 X-1.66997 Y-104.65999
G01 Z-0.66316 F50.00000 ( plunge. )
G04 P0 ( dwell for no time -- G64 should not smooth over this point )
G01 F100.00000
G01 X-1.66997 Y-54.40996
G00 Z-0.50000
G01 X-1.66997 Y-51.90996
G01 Z-0.66316 F50.00000
G01 F100.00000
G01 X-1.66997 Y-1.65994
G01 X-1.68438 Y-1.51366
G01 X-1.72707 Y-1.37297
G01 X-1.79636 Y-1.24330
G01 X-1.88963 Y-1.12964
G01 X-2.00330 Y-1.03637
G01 X-2.13296 Y-0.96708
G01 X-2.27366 Y-0.92438
G01 X-2.41998 Y-0.90998
G01 X-66.41998 Y-0.90998
G00 Z-0.50000
G01 X-68.91998 Y-0.90998
G01 Z-0.66316 F50.00000
G01 F100.00000
G01 X-132.91998 Y-0.90998
G01 X-133.06628 Y-0.92438
G01 X-133.20697 Y-0.96708
G01 X-133.33664 Y-1.03637
G01 X-133.45030 Y-1.12964
G01 X-133.54357 Y-1.24330
G01 X-133.61286 Y-1.37297
G01 X-133.65556 Y-1.51366
G01 X-133.66996 Y-1.65994
G01 X-133.66996 Y-51.90996
G00 Z-0.50000
G01 X-133.66996 Y-54.40996
G01 Z-0.66316 F50.00000
G01 F100.00000
G01 X-133.66996 Y-104.65999
G01 X-133.65556 Y-104.80629
G01 X-133.61286 Y-104.94696
G01 X-133.54357 Y-105.07665
G01 X-133.45030 Y-105.19032
G01 X-133.33664 Y-105.28358
G01 X-133.20697 Y-105.35288
G01 X-133.06628 Y-105.39557
G01 X-132.91998 Y-105.40997
G01 X-68.91998 Y-105.40997
G00 Z-0.50000
G01 X-66.41998 Y-105.40997
G01 Z-0.66316 F50.00000
G01 F100.00000
G01 X-2.41998 Y-105.40997
G01 X-2.27366 Y-105.39557
G01 X-2.13296 Y-105.35288
G01 X-2.00330 Y-105.28358
G01 X-1.88963 Y-105.19032
G01 X-1.79636 Y-105.07665
G01 X-1.72707 Y-104.94696
G01 X-1.68438 Y-104.80629
G01 X-1.66997 Y-104.65999
G01 Z-0.75789 F50.00000 ( plunge. )
G04 P0 ( dwell for no time -- G64 should not smooth over this point )
G01 F100.00000
G01 X-1.66997 Y-54.40996
G00 Z-0.50000
G01 X-1.66997 Y-51.90996
G01 Z-0.75789 F50.00000
G01 F100.00000
G01 X-1.66997 Y-1.65994
G01 X-1.68438 Y-1.51366
G01 X-1.72707 Y-1.37297
G01 X-1.79636 Y-1.24330
G01 X-1.88963 Y-1.12964
G01 X-2.00330 Y-1.03637
G01 X-2.13296 Y-0.96708
G01 X-2.27366 Y-0.92438
G01 X-2.41998 Y-0.90998
G01 X-66.41998 Y-0.90998
G00 Z-0.50000
G01 X-68.91998 Y-0.90998
G01 Z-0.75789 F50.00000
G01 F100.00000
G01 X-132.91998 Y-0.90998
G01 X-133.06628 Y-0.92438
G01 X-133.20697 Y-0.96708
G01 X-133.33664 Y-1.03637
G01 X-133.45030 Y-1.12964
G01 X-133.54357 Y-1.24330
G01 X-133.61286 Y-1.37297
G01 X-133.65556 Y-1.51366
G01 X-133.66996 Y-1.65994
G01 X-133.66996 Y-51.90996
G00 Z-0.50000
G01 X-133.66996 Y-54.40996
G01 Z-0.75789 F50.00000
G01 F100.00000
G01 X-133.66996 Y-104.65999
G01 X-133.65556 Y-104.80629
G01 X-133.61286 Y-104.94696
G01 X-133.54357 Y-105.07665
G01 X-133.45030 Y-105.19032
G01 X-133.33664 Y-105.28358
G01 X-133.20697 Y-105.35288
G01 X-133.06628 Y-105.39557
G01 X-132.91998 Y-105.40997
G01 X-68.91998 Y-105.40997
G00 Z-0.50000
G01 X-66.41998 Y-105.40997
G01 Z-0.75789 F50.00000
G01 F100.00000
G01 X-2.41998 Y-105.40997
G01 X-2.27366 Y-105.39557
G01 X-2.13296 Y-105.35288
G01 X-2.00330 Y-105.28358
G01 X-1.88963 Y-105.19032
G01 X-1.79636 Y-105.07665
G01 X-1.72707 Y-104.94696
G01 X-1.68438 Y-104.80629
G01 X-1.66997 Y-104.65999
G01 Z-0.85263 F50.00000 ( plunge. )
G04 P0 ( dwell for no time -- G64 should not smooth over this point )
G01 F100.00000
G01 X-1.66997 Y-54.40996
G00 Z-0.50000
G01 X-1.66997 Y-51.90996
G01 Z-0.85263 F50.00000
G01 F100.00000
G01 X-1.66997 Y-1.65994
G01 X-1.68438 Y-1.51366
G01 X-1.72707 Y-1.37297
G01 X-1.79636 Y-1.24330
G01 X-1.88963 Y-1.12964
G01 X-2.00330 Y-1.03637
G01 X-2.13296 Y-0.96708
G01 X-2.27366 Y-0.92438
G01 X-2.41998 Y-0.90998
G01 X-66.41998 Y-0.90998
G00 Z-0.50000
G01 X-68.91998 Y-0.90998
G01 Z-0.85263 F50.00000
G01 F100.00000
G01 X-132.91998 Y-0.90998
G01 X-133.06628 Y-0.92438
G01 X-133.20697 Y-0.96708
G01 X-133.33664 Y-1.03637
G01 X-133.45030 Y-1.12964
G01 X-133.54357 Y-1.24330
G01 X-133.61286 Y-1.37297
G01 X-133.65556 Y-1.51366
G01 X-133.66996 Y-1.65994
G01 X-133.66996 Y-51.90996
G00 Z-0.50000
G01 X-133.66996 Y-54.40996
G01 Z-0.85263 F50.00000
G01 F100.00000
G01 X-133.66996 Y-104.65999
G01 X-133.65556 Y-104.80629
G01 X-133.61286 Y-104.94696
G01 X-133.54357 Y-105.07665
G01 X-133.45030 Y-105.19032
G01 X-133.33664 Y-105.28358
G01 X-133.20697 Y-105.35288
G01 X-133.06628 Y-105.39557
G01 X-132.91998 Y-105.40997
G01 X-68.91998 Y-105.40997
G00 Z-0.50000
G01 X-66.41998 Y-105.40997
G01 Z-0.85263 F50.00000
G01 F100.00000
G01 X-2.41998 Y-105.40997
G01 X-2.27366 Y-105.39557
G01 X-2.13296 Y-105.35288
G01 X-2.00330 Y-105.28358
G01 X-1.88963 Y-105.19032
G01 X-1.79636 Y-105.07665
G01 X-1.72707 Y-104.94696
G01 X-1.68438 Y-104.80629
G01 X-1.66997 Y-104.65999
G01 Z-0.94737 F50.00000 ( plunge. )
G04 P0 ( dwell for no time -- G64 should not smooth over this point )
G01 F100.00000
G01 X-1.66997 Y-54.40996
G00 Z-0.50000
G01 X-1.66997 Y-51.90996
G01 Z-0.94737 F50.00000
G01 F100.00000
G01 X-1.66997 Y-1.65994
G01 X-1.68438 Y-1.51366
G01 X-1.72707 Y-1.37297
G01 X-1.79636 Y-1.24330
G01 X-1.88963 Y-1.12964
G01 X-2.00330 Y-1.03637
G01 X-2.13296 Y-0.96708
G01 X-2.27366 Y-0.92438
G01 X-2.41998 Y-0.90998
G01 X-66.41998 Y-0.90998
G00 Z-0.50000
G01 X-68.91998 Y-0.90998
G01 Z-0.94737 F50.00000
G01 F100.00000
G01 X-132.91998 Y-0.90998
G01 X-133.06628 Y-0.92438
G01 X-133.20697 Y-0.96708
G01 X-133.33664 Y-1.03637
G01 X-133.45030 Y-1.12964
G01 X-133.54357 Y-1.24330
G01 X-133.61286 Y-1.37297
G01 X-133.65556 Y-1.51366
G01 X-133.66996 Y-1.65994
G01 X-133.66996 Y-51.90996
G00 Z-0.50000
G01 X-133.66996 Y-54.40996
G01 Z-0.94737 F50.00000
G01 F100.00000
G01 X-133.66996 Y-104.65999
G01 X-133.65556 Y-104.80629
G01 X-133.61286 Y-104.94696
G01 X-133.54357 Y-105.07665
G01 X-133.45030 Y-105.19032
G01 X-133.33664 Y-105.28358
G01 X-133.20697 Y-105.35288
G01 X-133.06628 Y-105.39557
G01 X-132.91998 Y-105.40997
G01 X-68.91998 Y-105.40997
G00 Z-0.50000
G01 X-66.41998 Y-105.40997
G01 Z-0.94737 F50.00000
G01 F100.00000
G01 X-2.41998 Y-105.40997
G01 X-2.27366 Y-105.39557
G01 X-2.13296 Y-105.35288
G01 X-2.00330 Y-105.28358
G01 X-1.88963 Y-105.19032
G01 X-1.79636 Y-105.07665
G01 X-1.72707 Y-104.94696
G01 X-1.68438 Y-104.80629
G01 X-1.66997 Y-104.65999
G01 Z-1.04211 F50.00000 ( plunge. )
G04 P0 ( dwell for no time -- G64 should not smooth over this point )
G01 F100.00000
G01 X-1.66997 Y-54.40996
G00 Z-0.50000
G01 X-1.66997 Y-51.90996
G01 Z-1.04211 F50.00000
G01 F100.00000
G01 X-1.66997 Y-1.65994
G01 X-1.68438 Y-1.51366
G01 X-1.72707 Y-1.37297
G01 X-1.79636 Y-1.24330
G01 X-1.88963 Y-1.12964
G01 X-2.00330 Y-1.03637
G01 X-2.13296 Y-0.96708
G01 X-2.27366 Y-0.92438
G01 X-2.41998 Y-0.90998
G01 X-66.41998 Y-0.90998
G00 Z-0.50000
G01 X-68.91998 Y-0.90998
G01 Z-1.04211 F50.00000
G01 F100.00000
G01 X-132.91998 Y-0.90998
G01 X-133.06628 Y-0.92438
G01 X-133.20697 Y-0.96708
G01 X-133.33664 Y-1.03637
G01 X-133.45030 Y-1.12964
G01 X-133.54357 Y-1.24330
G01 X-133.61286 Y-1.37297
G01 X-133.65556 Y-1.51366
G01 X-133.66996 Y-1.65994
G01 X-133.66996 Y-51.90996
G00 Z-0.50000
G01 X-133.66996 Y-54.40996
G01 Z-1.04211 F50.00000
G01 F100.00000
G01 X-133.66996 Y-104.65999
G01 X-133.65556 Y-104.80629
G01 X-133.61286 Y-104.94696
G01 X-133.54357 Y-105.07665
G01 X-133.45030 Y-105.19032
G01 X-133.33664 Y-105.28358
G01 X-133.20697 Y-105.35288
G01 X-133.06628 Y-105.39557
G01 X-132.91998 Y-105.40997
G01 X-68.91998 Y-105.40997
G00 Z-0.50000
G01 X-66.41998 Y-105.40997
G01 Z-1.04211 F50.00000
G01 F100.00000
G01 X-2.41998 Y-105.40997
G01 X-2.27366 Y-105.39557
G01 X-2.13296 Y-105.35288
G01 X-2.00330 Y-105.28358
G01 X-1.88963 Y-105.19032
G01 X-1.79636 Y-105.07665
G01 X-1.72707 Y-104.94696
G01 X-1.68438 Y-104.80629
G01 X-1.66997 Y-104.65999
G01 Z-1.13684 F50.00000 ( plunge. )
G04 P0 ( dwell for no time -- G64 should not smooth over this point )
G01 F100.00000
G01 X-1.66997 Y-54.40996
G00 Z-0.50000
G01 X-1.66997 Y-51.90996
G01 Z-1.13684 F50.00000
G01 F100.00000
G01 X-1.66997 Y-1.65994
G01 X-1.68438 Y-1.51366
G01 X-1.72707 Y-1.37297
G01 X-1.79636 Y-1.24330
G01 X-1.88963 Y-1.12964
G01 X-2.00330 Y-1.03637
G01 X-2.13296 Y-0.96708
G01 X-2.27366 Y-0.92438
G01 X-2.41998 Y-0.90998
G01 X-66.41998 Y-0.90998
G00 Z-0.50000
G01 X-68.91998 Y-0.90998
G01 Z-1.13684 F50.00000
G01 F100.00000
G01 X-132.91998 Y-0.90998
G01 X-133.06628 Y-0.92438
G01 X-133.20697 Y-0.96708
G01 X-133.33664 Y-1.03637
G01 X-133.45030 Y-1.12964
G01 X-133.54357 Y-1.24330
G01 X-133.61286 Y-1.37297
G01 X-133.65556 Y-1.51366
G01 X-133.66996 Y-1.65994
G01 X-133.66996 Y-51.90996
G00 Z-0.50000
G01 X-133.66996 Y-54.40996
G01 Z-1.13684 F50.00000
G01 F100.00000
G01 X-133.66996 Y-104.65999
G01 X-133.65556 Y-104.80629
G01 X-133.61286 Y-104.94696
G01 X-133.54357 Y-105.07665
G01 X-133.45030 Y-105.19032
G01 X-133.33664 Y-105.28358
G01 X-133.20697 Y-105.35288
G01 X-133.06628 Y-105.39557
G01 X-132.91998 Y-105.40997
G01 X-68.91998 Y-105.40997
G00 Z-0.50000
G01 X-66.41998 Y-105.40997
G01 Z-1.13684 F50.00000
G01 F100.00000
G01 X-2.41998 Y-105.40997
G01 X-2.27366 Y-105.39557
G01 X-2.13296 Y-105.35288
G01 X-2.00330 Y-105.28358
G01 X-1.88963 Y-105.19032
G01 X-1.79636 Y-105.07665
G01 X-1.72707 Y-104.94696
G01 X-1.68438 Y-104.80629
G01 X-1.66997 Y-104.65999
G01 Z-1.23158 F50.00000 ( plunge. )
G04 P0 ( dwell for no time -- G64 should not smooth over this point )
G01 F100.00000
G01 X-1.66997 Y-54.40996
G00 Z-0.50000
G01 X-1.66997 Y-51.90996
G01 Z-1.23158 F50.00000
G01 F100.00000
G01 X-1.66997 Y-1.65994
G01 X-1.68438 Y-1.51366
G01 X-1.72707 Y-1.37297
G01 X-1.79636 Y-1.24330
G01 X-1.88963 Y-1.12964
G01 X-2.00330 Y-1.03637
G01 X-2.13296 Y-0.96708
G01 X-2.27366 Y-0.92438
G01 X-2.41998 Y-0.90998
G01 X-66.41998 Y-0.90998
G00 Z-0.50000
G01 X-68.91998 Y-0.90998
G01 Z-1.23158 F50.00000
G01 F100.00000
G01 X-132.91998 Y-0.90998
G01 X-133.06628 Y-0.92438
G01 X-133.20697 Y-0.96708
G01 X-133.33664 Y-1.03637
G01 X-133.45030 Y-1.12964
G01 X-133.54357 Y-1.24330
G01 X-133.61286 Y-1.37297
G01 X-133.65556 Y-1.51366
G01 X-133.66996 Y-1.65994
G01 X-133.66996 Y-51.90996
G00 Z-0.50000
G01 X-133.66996 Y-54.40996
G01 Z-1.23158 F50.00000
G01 F100.00000
G01 X-133.66996 Y-104.65999
G01 X-133.65556 Y-104.80629
G01 X-133.61286 Y-104.94696
G01 X-133.54357 Y-105.07665
G01 X-133.45030 Y-105.19032
G01 X-133.33664 Y-105.28358
G01 X-133.20697 Y-105.35288
G01 X-133.06628 Y-105.39557
G01 X-132.91998 Y-105.40997
G01 X-68.91998 Y-105.40997
G00 Z-0.50000
G01 X-66.41998 Y-105.40997
G01 Z-1.23158 F50.00000
G01 F100.00000
G01 X-2.41998 Y-105.40997
G01 X-2.27366 Y-105.39557
G01 X-2.13296 Y-105.35288
G01 X-2.00330 Y-105.28358
G01 X-1.88963 Y-105.19032
G01 X-1.79636 Y-105.07665
G01 X-1.72707 Y-104.94696
G01 X-1.68438 Y-104.80629
G01 X-1.66997 Y-104.65999
G01 Z-1.32632 F50.00000 ( plunge. )
G04 P0 ( dwell for no time -- G64 should not smooth over this point )
G01 F100.00000
G01 X-1.66997 Y-54.40996
G00 Z-0.50000
G01 X-1.66997 Y-51.90996
G01 Z-1.32632 F50.00000
G01 F100.00000
G01 X-1.66997 Y-1.65994
G01 X-1.68438 Y-1.51366
G01 X-1.72707 Y-1.37297
G01 X-1.79636 Y-1.24330
G01 X-1.88963 Y-1.12964
G01 X-2.00330 Y-1.03637
G01 X-2.13296 Y-0.96708
G01 X-2.27366 Y-0.92438
G01 X-2.41998 Y-0.90998
G01 X-66.41998 Y-0.90998
G00 Z-0.50000
G01 X-68.91998 Y-0.90998
G01 Z-1.32632 F50.00000
G01 F100.00000
G01 X-132.91998 Y-0.90998
G01 X-133.06628 Y-0.92438
G01 X-133.20697 Y-0.96708
G01 X-133.33664 Y-1.03637
G01 X-133.45030 Y-1.12964
G01 X-133.54357 Y-1.24330
G01 X-133.61286 Y-1.37297
G01 X-133.65556 Y-1.51366
G01 X-133.66996 Y-1.65994
G01 X-133.66996 Y-51.90996
G00 Z-0.50000
G01 X-133.66996 Y-54.40996
G01 Z-1.32632 F50.00000
G01 F100.00000
G01 X-133.66996 Y-104.65999
G01 X-133.65556 Y-104.80629
G01 X-133.61286 Y-104.94696
G01 X-133.54357 Y-105.07665
G01 X-133.45030 Y-105.19032
G01 X-133.33664 Y-105.28358
G01 X-133.20697 Y-105.35288
G01 X-133.06628 Y-105.39557
G01 X-132.91998 Y-105.40997
G01 X-68.91998 Y-105.40997
G00 Z-0.50000
G01 X-66.41998 Y-105.40997
G01 Z-1.32632 F50.00000
G01 F100.00000
G01 X-2.41998 Y-105.40997
G01 X-2.27366 Y-105.39557
G01 X-2.13296 Y-105.35288
G01 X-2.00330 Y-105.28358
G01 X-1.88963 Y-105.19032
G01 X-1.79636 Y-105.07665
G01 X-1.72707 Y-104.94696
G01 X-1.68438 Y-104.80629
G01 X-1.66997 Y-104.65999
G01 Z-1.42105 F50.00000 ( plunge. )
G04 P0 ( dwell for no time -- G64 should not smooth over this point )
G01 F100.00000
G01 X-1.66997 Y-54.40996
G00 Z-0.50000
G01 X-1.66997 Y-51.90996
G01 Z-1.42105 F50.00000
G01 F100.00000
G01 X-1.66997 Y-1.65994
G01 X-1.68438 Y-1.51366
G01 X-1.72707 Y-1.37297
G01 X-1.79636 Y-1.24330
G01 X-1.88963 Y-1.12964
G01 X-2.00330 Y-1.03637
G01 X-2.13296 Y-0.96708
G01 X-2.27366 Y-0.92438
G01 X-2.41998 Y-0.90998
G01 X-66.41998 Y-0.90998
G00 Z-0.50000
G01 X-68.91998 Y-0.90998
G01 Z-1.42105 F50.00000
G01 F100.00000
G01 X-132.91998 Y-0.90998
G01 X-133.06628 Y-0.92438
G01 X-133.20697 Y-0.96708
G01 X-133.33664 Y-1.03637
G01 X-133.45030 Y-1.12964
G01 X-133.54357 Y-1.24330
G01 X-133.61286 Y-1.37297
G01 X-133.65556 Y-1.51366
G01 X-133.66996 Y-1.65994
G01 X-133.66996 Y-51.90996
G00 Z-0.50000
G01 X-133.66996 Y-54.40996
G01 Z-1.42105 F50.00000
G01 F100.00000
G01 X-133.66996 Y-104.65999
G01 X-133.65556 Y-104.80629
G01 X-133.61286 Y-104.94696
G01 X-133.54357 Y-105.07665
G01 X-133.45030 Y-105.19032
G01 X-133.33664 Y-105.28358
G01 X-133.20697 Y-105.35288
G01 X-133.06628 Y-105.39557
G01 X-132.91998 Y-105.40997
G01 X-68.91998 Y-105.40997
G00 Z-0.50000
G01 X-66.41998 Y-105.40997
G01 Z-1.42105 F50.00000
G01 F100.00000
G01 X-2.41998 Y-105.40997
G01 X-2.27366 Y-105.39557
G01 X-2.13296 Y-105.35288
G01 X-2.00330 Y-105.28358
G01 X-1.88963 Y-105.19032
G01 X-1.79636 Y-105.07665
G01 X-1.72707 Y-104.94696
G01 X-1.68438 Y-104.80629
G01 X-1.66997 Y-104.65999
G01 Z-1.51579 F50.00000 ( plunge. )
G04 P0 ( dwell for no time -- G64 should not smooth over this point )
G01 F100.00000
G01 X-1.66997 Y-54.40996
G00 Z-0.50000
G01 X-1.66997 Y-51.90996
G01 Z-1.51579 F50.00000
G01 F100.00000
G01 X-1.66997 Y-1.65994
G01 X-1.68438 Y-1.51366
G01 X-1.72707 Y-1.37297
G01 X-1.79636 Y-1.24330
G01 X-1.88963 Y-1.12964
G01 X-2.00330 Y-1.03637
G01 X-2.13296 Y-0.96708
G01 X-2.27366 Y-0.92438
G01 X-2.41998 Y-0.90998
G01 X-66.41998 Y-0.90998
G00 Z-0.50000
G01 X-68.91998 Y-0.90998
G01 Z-1.51579 F50.00000
G01 F100.00000
G01 X-132.91998 Y-0.90998
G01 X-133.06628 Y-0.92438
G01 X-133.20697 Y-0.96708
G01 X-133.33664 Y-1.03637
G01 X-133.45030 Y-1.12964
G01 X-133.54357 Y-1.24330
G01 X-133.61286 Y-1.37297
G01 X-133.65556 Y-1.51366
G01 X-133.66996 Y-1.65994
G01 X-133.66996 Y-51.90996
G00 Z-0.50000
G01 X-133.66996 Y-54.40996
G01 Z-1.51579 F50.00000
G01 F100.00000
G01 X-133.66996 Y-104.65999
G01 X-133.65556 Y-104.80629
G01 X-133.61286 Y-104.94696
G01 X-133.54357 Y-105.07665
G01 X-133.45030 Y-105.19032
G01 X-133.33664 Y-105.28358
G01 X-133.20697 Y-105.35288
G01 X-133.06628 Y-105.39557
G01 X-132.91998 Y-105.40997
G01 X-68.91998 Y-105.40997
G00 Z-0.50000
G01 X-66.41998 Y-105.40997
G01 Z-1.51579 F50.00000
G01 F100.00000
G01 X-2.41998 Y-105.40997
G01 X-2.27366 Y-105.39557
G01 X-2.13296 Y-105.35288
G01 X-2.00330 Y-105.28358
G01 X-1.88963 Y-105.19032
G01 X-1.79636 Y-105.07665
G01 X-1.72707 Y-104.94696
G01 X-1.68438 Y-104.80629
G01 X-1.66997 Y-104.65999
G01 Z-1.61053 F50.00000 ( plunge. )
G04 P0 ( dwell for no time -- G64 should not smooth over this point )
G01 F100.00000
G01 X-1.66997 Y-54.40996
G00 Z-0.50000
G01 X-1.66997 Y-51.90996
G01 Z-1.61053 F50.00000
G01 F100.00000
G01 X-1.66997 Y-1.65994
G01 X-1.68438 Y-1.51366
G01 X-1.72707 Y-1.37297
G01 X-1.79636 Y-1.24330
G01 X-1.88963 Y-1.12964
G01 X-2.00330 Y-1.03637
G01 X-2.13296 Y-0.96708
G01 X-2.27366 Y-0.92438
G01 X-2.41998 Y-0.90998
G01 X-66.41998 Y-0.90998
G00 Z-0.50000
G01 X-68.91998 Y-0.90998
G01 Z-1.61053 F50.00000
G01 F100.00000
G01 X-132.91998 Y-0.90998
G01 X-133.06628 Y-0.92438
G01 X-133.20697 Y-0.96708
G01 X-133.33664 Y-1.03637
G01 X-133.45030 Y-1.12964
G01 X-133.54357 Y-1.24330
G01 X-133.61286 Y-1.37297
G01 X-133.65556 Y-1.51366
G01 X-133.66996 Y-1.65994
G01 X-133.66996 Y-51.90996
G00 Z-0.50000
G01 X-133.66996 Y-54.40996
G01 Z-1.61053 F50.00000
G01 F100.00000
G01 X-133.66996 Y-104.65999
G01 X-133.65556 Y-104.80629
G01 X-133.61286 Y-104.94696
G01 X-133.54357 Y-105.07665
G01 X-133.45030 Y-105.19032
G01 X-133.33664 Y-105.28358
G01 X-133.20697 Y-105.35288
G01 X-133.06628 Y-105.39557
G01 X-132.91998 Y-105.40997
G01 X-68.91998 Y-105.40997
G00 Z-0.50000
G01 X-66.41998 Y-105.40997
G01 Z-1.61053 F50.00000
G01 F100.00000
G01 X-2.41998 Y-105.40997
G01 X-2.27366 Y-105.39557
G01 X-2.13296 Y-105.35288
G01 X-2.00330 Y-105.28358
G01 X-1.88963 Y-105.19032
G01 X-1.79636 Y-105.07665
G01 X-1.72707 Y-104.94696
G01 X-1.68438 Y-104.80629
G01 X-1.66997 Y-104.65999
G01 Z-1.70526 F50.00000 ( plunge. )
G04 P0 ( dwell for no time -- G64 should not smooth over this point )
G01 F100.00000
G01 X-1.66997 Y-54.40996
G00 Z-0.50000
G01 X-1.66997 Y-51.90996
G01 Z-1.70526 F50.00000
G01 F100.00000
G01 X-1.66997 Y-1.65994
G01 X-1.68438 Y-1.51366
G01 X-1.72707 Y-1.37297
G01 X-1.79636 Y-1.24330
G01 X-1.88963 Y-1.12964
G01 X-2.00330 Y-1.03637
G01 X-2.13296 Y-0.96708
G01 X-2.27366 Y-0.92438
G01 X-2.41998 Y-0.90998
G01 X-66.41998 Y-0.90998
G00 Z-0.50000
G01 X-68.91998 Y-0.90998
G01 Z-1.70526 F50.00000
G01 F100.00000
G01 X-132.91998 Y-0.90998
G01 X-133.06628 Y-0.92438
G01 X-133.20697 Y-0.96708
G01 X-133.33664 Y-1.03637
G01 X-133.45030 Y-1.12964
G01 X-133.54357 Y-1.24330
G01 X-133.61286 Y-1.37297
G01 X-133.65556 Y-1.51366
G01 X-133.66996 Y-1.65994
G01 X-133.66996 Y-51.90996
G00 Z-0.50000
G01 X-133.66996 Y-54.40996
G01 Z-1.70526 F50.00000
G01 F100.00000
G01 X-133.66996 Y-104.65999
G01 X-133.65556 Y-104.80629
G01 X-133.61286 Y-104.94696
G01 X-133.54357 Y-105.07665
G01 X-133.45030 Y-105.19032
G01 X-133.33664 Y-105.28358
G01 X-133.20697 Y-105.35288
G01 X-133.06628 Y-105.39557
G01 X-132.91998 Y-105.40997
G01 X-68.91998 Y-105.40997
G00 Z-0.50000
G01 X-66.41998 Y-105.40997
G01 Z-1.70526 F50.00000
G01 F100.00000
G01 X-2.41998 Y-105.40997
G01 X-2.27366 Y-105.39557
G01 X-2.13296 Y-105.35288
G01 X-2.00330 Y-105.28358
G01 X-1.88963 Y-105.19032
G01 X-1.79636 Y-105.07665
G01 X-1.72707 Y-104.94696
G01 X-1.68438 Y-104.80629
G01 X-1.66997 Y-104.65999
G01 Z-1.80000 F50.00000 ( plunge. )
G04 P0 ( dwell for no time -- G64 should not smooth over this point )
G01 F100.00000
G01 X-1.66997 Y-54.40996
G00 Z-0.50000
G01 X-1.66997 Y-51.90996
G01 Z-1.80000 F50.00000
G01 F100.00000
G01 X-1.66997 Y-1.65994
G01 X-1.68438 Y-1.51366
G01 X-1.72707 Y-1.37297
G01 X-1.79636 Y-1.24330
G01 X-1.88963 Y-1.12964
G01 X-2.00330 Y-1.03637
G01 X-2.13296 Y-0.96708
G01 X-2.27366 Y-0.92438
G01 X-2.41998 Y-0.90998
G01 X-66.41998 Y-0.90998
G00 Z-0.50000
G01 X-68.91998 Y-0.90998
G01 Z-1.80000 F50.00000
G01 F100.00000
G01 X-132.91998 Y-0.90998
G01 X-133.06628 Y-0.92438
G01 X-133.20697 Y-0.96708
G01 X-133.33664 Y-1.03637
G01 X-133.45030 Y-1.12964
G01 X-133.54357 Y-1.24330
G01 X-133.61286 Y-1.37297
G01 X-133.65556 Y-1.51366
G01 X-133.66996 Y-1.65994
G01 X-133.66996 Y-51.90996
G00 Z-0.50000
G01 X-133.66996 Y-54.40996
G01 Z-1.80000 F50.00000
G01 F100.00000
G01 X-133.66996 Y-104.65999
G01 X-133.65556 Y-104.80629
G01 X-133.61286 Y-104.94696
G01 X-133.54357 Y-105.07665
G01 X-133.45030 Y-105.19032
G01 X-133.33664 Y-105.28358
G01 X-133.20697 Y-105.35288
G01 X-133.06628 Y-105.39557
G01 X-132.91998 Y-105.40997
G01 X-68.91998 Y-105.40997
G00 Z-0.50000
G01 X-66.41998 Y-105.40997
G01 Z-1.80000 F50.00000
G01 F100.00000
G01 X-2.41998 Y-105.40997
G01 X-2.27366 Y-105.39557
G01 X-2.13296 Y-105.35288
G01 X-2.00330 Y-105.28358
G01 X-1.88963 Y-105.19032
G01 X-1.79636 Y-105.07665
G01 X-1.72707 Y-104.94696
G01 X-1.68438 Y-104.80629
G01 X-1.66997 Y-104.65999

G04 P0 ( dwell for no time -- G64 should not smooth over this point )
G00 Z2.000000 ( retract )

M5 ( Spindle off. )
G04 P1.000000
M9 ( Coolant off. )
M2 ( Program end. )

